; G-Code generated by Simplify3D(R) Version 4.0.0
; Jul 12, 2018 at 2:41:30 PM
; Settings Summary
;   processName,Process1
;   applyToModels,Base
;   profileName,0.4 PLA (modified)
;   profileVersion,2017-08-11 22:21:44
;   baseProfile,Default
;   printMaterial,PLA
;   printQuality,Medium
;   printExtruders,
;   extruderName,Extruder 1
;   extruderToolheadNumber,0
;   extruderDiameter,0.4
;   extruderAutoWidth,0
;   extruderWidth,0.4
;   extrusionMultiplier,1.01
;   extruderUseRetract,1
;   extruderRetractionDistance,3.5
;   extruderExtraRestartDistance,0
;   extruderRetractionZLift,0
;   extruderRetractionSpeed,2700
;   extruderUseCoasting,0
;   extruderCoastingDistance,0.2
;   extruderUseWipe,0
;   extruderWipeDistance,5
;   primaryExtruder,0
;   layerHeight,0.2
;   topSolidLayers,0
;   bottomSolidLayers,0
;   perimeterOutlines,2
;   printPerimetersInsideOut,1
;   startPointOption,3
;   startPointOriginX,70
;   startPointOriginY,90
;   sequentialIslands,0
;   spiralVaseMode,0
;   firstLayerHeightPercentage,100
;   firstLayerWidthPercentage,105
;   firstLayerUnderspeed,1
;   useRaft,0
;   raftExtruder,0
;   raftTopLayers,3
;   raftBaseLayers,2
;   raftOffset,3
;   raftSeparationDistance,0.14
;   raftTopInfill,100
;   aboveRaftSpeedMultiplier,0.3
;   useSkirt,1
;   skirtExtruder,0
;   skirtLayers,1
;   skirtOutlines,1
;   skirtOffset,0.5
;   usePrimePillar,0
;   primePillarExtruder,999
;   primePillarWidth,12
;   primePillarLocation,7
;   primePillarSpeedMultiplier,1
;   useOozeShield,0
;   oozeShieldExtruder,999
;   oozeShieldOffset,2
;   oozeShieldOutlines,1
;   oozeShieldSidewallShape,1
;   oozeShieldSidewallAngle,30
;   oozeShieldSpeedMultiplier,1
;   infillExtruder,0
;   internalInfillPattern,Grid
;   externalInfillPattern,Rectilinear
;   infillPercentage,50
;   outlineOverlapPercentage,25
;   infillExtrusionWidthPercentage,102
;   minInfillLength,3
;   infillLayerInterval,1
;   internalInfillAngles,45,-45
;   overlapInternalInfillAngles,1
;   externalInfillAngles,45,-45
;   generateSupport,0
;   supportExtruder,0
;   supportInfillPercentage,10
;   supportExtraInflation,1
;   supportBaseLayers,0
;   denseSupportExtruder,0
;   denseSupportLayers,2
;   denseSupportInfillPercentage,70
;   supportLayerInterval,1
;   supportHorizontalPartOffset,0.7
;   supportUpperSeparationLayers,1
;   supportLowerSeparationLayers,1
;   supportType,0
;   supportGridSpacing,4
;   maxOverhangAngle,45
;   supportAngles,0
;   temperatureName,Extruder 1 Temperature
;   temperatureNumber,0
;   temperatureSetpointCount,1
;   temperatureSetpointLayers,1
;   temperatureSetpointTemperatures,208
;   temperatureStabilizeAtStartup,1
;   temperatureHeatedBed,0
;   temperatureRelayBetweenLayers,0
;   temperatureRelayBetweenLoops,0
;   fanLayers,1
;   fanSpeeds,0
;   blipFanToFullPower,0
;   adjustSpeedForCooling,1
;   minSpeedLayerTime,5
;   minCoolingSpeedSlowdown,30
;   increaseFanForCooling,0
;   minFanLayerTime,45
;   maxCoolingFanSpeed,100
;   increaseFanForBridging,1
;   bridgingFanSpeed,95
;   use5D,1
;   relativeEdistances,0
;   allowEaxisZeroing,1
;   independentExtruderAxes,0
;   includeM10123,0
;   stickySupport,1
;   applyToolheadOffsets,0
;   gcodeXoffset,0
;   gcodeYoffset,0
;   gcodeZoffset,0
;   overrideMachineDefinition,1
;   machineTypeOverride,0
;   strokeXoverride,205
;   strokeYoverride,210
;   strokeZoverride,250
;   originOffsetXoverride,0
;   originOffsetYoverride,0
;   originOffsetZoverride,0
;   homeXdirOverride,-1
;   homeYdirOverride,-1
;   homeZdirOverride,-1
;   flipXoverride,1
;   flipYoverride,-1
;   flipZoverride,1
;   toolheadOffsets,0,0|0,0|0,0|0,0|0,0|0,0
;   overrideFirmwareConfiguration,1
;   firmwareTypeOverride,RepRap (Marlin/Repetier/Sprinter)
;   GPXconfigOverride,r2
;   baudRateOverride,115200
;   overridePrinterModels,0
;   printerModelsOverride
;   startingGcode,M107 ,G92 E0 ,G90,G1 Z7.00 F200 ; Lift Z up,G90,G1 X70.0 Y10.0 F3600 ; Go to Clean place,G4 S3 ; Wait for Cleaning Tip,M300 S2200 P100 ; Make beep,M300 S2500 P250,,G1 X65.0 Y1.5  F3600 ; Purge Start,G1 Z0.3 F200,G1 X150.0 E17.0 F900,G92 E0,M117 PRINTING...,,,,
;   layerChangeGcode,
;   retractionGcode,
;   toolChangeGcode,
;   endingGcode,G91,G1 E-3.0 F2000	;Relieve pressure,G1 X+5.0 F6000 ;Move X paidly,G1 Z+2.0 F200	; Raize Z,G90,M104 S0 	; turn off temperature,G28 X0 	; home X axis,G91,G1 E-15.0 F800	; Withdraw filament for removal ,M84                    ; disable motors,M106 S195	; Turn On Fans for rapid cooling,G4 S1 	; Play End tune,M300 S2200 P400,M300 S2000 P300	,M300 S1800 P200,G4 S1,M300 S2400 P200,M300 S2600 P400,G4 P1500,M300 S2650 P700
;   exportFileFormat,gcode
;   celebration,0
;   celebrationSong,Random Song
;   postProcessing,
;   defaultSpeed,600
;   outlineUnderspeed,1
;   solidInfillUnderspeed,1
;   supportUnderspeed,0.8
;   rapidXYspeed,5400
;   rapidZspeed,198
;   minBridgingArea,50
;   bridgingExtraInflation,0
;   bridgingExtrusionMultiplier,0.98
;   bridgingSpeedMultiplier,1
;   useFixedBridgingAngle,0
;   fixedBridgingAngle,0
;   applyBridgingToPerimeters,0
;   filamentDiameters,1.75|1.75|1.75|1.75|1.75|1.75
;   filamentPricesPerKg,920|920|920|920|920|920
;   filamentDensities,1.25|1.25|1.25|1.25|1.25|1.25
;   useMinPrintHeight,0
;   minPrintHeight,2.02
;   useMaxPrintHeight,1
;   maxPrintHeight,0.2
;   useDiaphragm,0
;   diaphragmLayerInterval,20
;   robustSlicing,1
;   mergeAllIntoSolid,0
;   onlyRetractWhenCrossingOutline,0
;   retractBetweenLayers,0
;   useRetractionMinTravel,1
;   retractionMinTravel,1
;   retractWhileWiping,0
;   onlyWipeOutlines,1
;   avoidCrossingOutline,0
;   maxMovementDetourFactor,3
;   toolChangeRetractionDistance,12
;   toolChangeExtraRestartDistance,-0.5
;   toolChangeRetractionSpeed,600
;   externalThinWallType,0
;   internalThinWallType,0
;   thinWallAllowedOverlapPercentage,100
;   singleExtrusionMinLength,1
;   singleExtrusionMinPrintingWidthPercentage,50
;   singleExtrusionMaxPrintingWidthPercentage,200
;   singleExtrusionEndpointExtension,0.2
;   horizontalSizeCompensation,0
G90
M82
M106 S0
M104 S208 T0
M109 S208 T0
M107 
G92 E0 
G90
G1 Z7.00 F200 ; Lift Z up
G90
G1 X70.0 Y10.0 F3600 ; Go to Clean place
G4 S3 ; Wait for Cleaning Tip
M300 S2200 P100 ; Make beep
M300 S2500 P250
G1 X65.0 Y1.5  F3600 ; Purge Start
G1 Z0.3 F200
G1 X150.0 E17.0 F900
G92 E0
M117 PRINTING...
G92 E0
G1 E-3.5000 F2700
G1 Z0.200 F198
; process Process1
; layer 1, Z = 0.200
T0
; tool H0.200 W0.420
; skirt
G1 X55.989 Y42.004 F5400
G1 E0.0000 F810
G92 E0
G1 X57.247 Y40.534 E0.0682 F600
G1 X57.249 Y40.531 E0.0683
G1 X57.260 Y40.518 E0.0690
G1 X57.262 Y40.516 E0.0691
G1 X58.264 Y39.474 E0.1201
G1 X58.266 Y39.472 E0.1201
G1 X58.607 Y39.121 E0.1374
G1 X58.609 Y39.119 E0.1375
G1 X58.621 Y39.108 E0.1381
G1 X58.623 Y39.106 E0.1382
G1 X60.046 Y37.795 E0.2064
G1 X60.048 Y37.793 E0.2065
G1 X60.062 Y37.782 E0.2071
G1 X60.064 Y37.780 E0.2072
G1 X61.562 Y36.556 E0.2755
G1 X61.565 Y36.554 E0.2756
G1 X61.579 Y36.543 E0.2762
G1 X61.581 Y36.542 E0.2763
G1 X63.150 Y35.409 E0.3446
G1 X63.153 Y35.408 E0.3447
G1 X63.167 Y35.398 E0.3453
G1 X63.170 Y35.396 E0.3454
G1 X64.803 Y34.359 E0.4136
G1 X64.806 Y34.357 E0.4137
G1 X64.821 Y34.348 E0.4144
G1 X64.824 Y34.347 E0.4145
G1 X66.516 Y33.409 E0.4827
G1 X66.519 Y33.408 E0.4828
G1 X66.534 Y33.399 E0.4835
G1 X66.537 Y33.398 E0.4836
G1 X68.282 Y32.562 E0.5518
G1 X68.285 Y32.561 E0.5519
G1 X68.301 Y32.554 E0.5525
G1 X68.304 Y32.553 E0.5526
G1 X70.096 Y31.823 E0.6209
G1 X70.098 Y31.821 E0.6210
G1 X70.115 Y31.815 E0.6216
G1 X70.118 Y31.814 E0.6217
G1 X71.950 Y31.192 E0.6900
G1 X71.953 Y31.191 E0.6901
G1 X71.970 Y31.186 E0.6907
G1 X71.973 Y31.185 E0.6908
G1 X73.838 Y30.673 E0.7591
G1 X73.841 Y30.672 E0.7592
G1 X73.859 Y30.668 E0.7598
G1 X73.862 Y30.667 E0.7599
G1 X75.754 Y30.267 E0.8281
G1 X75.757 Y30.266 E0.8282
G1 X75.775 Y30.263 E0.8289
G1 X75.778 Y30.263 E0.8290
G1 X77.691 Y29.976 E0.8972
G1 X77.694 Y29.975 E0.8973
G1 X77.712 Y29.973 E0.8980
G1 X77.715 Y29.973 E0.8981
G1 X79.642 Y29.800 E0.9663
G1 X79.645 Y29.800 E0.9664
G1 X79.663 Y29.799 E0.9670
G1 X79.666 Y29.799 E0.9672
G1 X81.600 Y29.741 E1.0354
G1 X81.603 Y29.741 E1.0355
G1 X81.621 Y29.741 E1.0361
G1 X81.623 Y29.741 E1.0362
G1 X83.557 Y29.799 E1.1045
G1 X83.560 Y29.799 E1.1046
G1 X83.578 Y29.800 E1.1052
G1 X83.581 Y29.800 E1.1053
G1 X85.508 Y29.973 E1.1736
G1 X85.511 Y29.973 E1.1737
G1 X85.529 Y29.975 E1.1743
G1 X85.532 Y29.976 E1.1744
G1 X87.445 Y30.263 E1.2427
G1 X87.448 Y30.263 E1.2428
G1 X87.466 Y30.266 E1.2434
G1 X87.469 Y30.267 E1.2435
G1 X89.362 Y30.667 E1.3117
G1 X89.365 Y30.668 E1.3118
G1 X89.382 Y30.672 E1.3125
G1 X89.385 Y30.673 E1.3126
G1 X91.251 Y31.185 E1.3808
G1 X91.253 Y31.186 E1.3809
G1 X91.270 Y31.191 E1.3816
G1 X91.273 Y31.192 E1.3817
G1 X93.105 Y31.814 E1.4499
G1 X93.108 Y31.815 E1.4500
G1 X93.125 Y31.821 E1.4506
G1 X93.128 Y31.823 E1.4507
G1 X94.919 Y32.553 E1.5190
G1 X94.922 Y32.554 E1.5191
G1 X94.938 Y32.561 E1.5197
G1 X94.941 Y32.562 E1.5198
G1 X96.686 Y33.398 E1.5881
G1 X96.689 Y33.399 E1.5882
G1 X96.705 Y33.408 E1.5888
G1 X96.707 Y33.409 E1.5889
G1 X98.399 Y34.347 E1.6572
G1 X98.402 Y34.348 E1.6573
G1 X98.417 Y34.357 E1.6579
G1 X98.420 Y34.359 E1.6580
G1 X100.053 Y35.396 E1.7262
G1 X100.056 Y35.398 E1.7263
G1 X100.071 Y35.408 E1.7270
G1 X100.073 Y35.409 E1.7271
G1 X101.642 Y36.542 E1.7953
G1 X101.644 Y36.543 E1.7954
G1 X101.658 Y36.554 E1.7961
G1 X101.661 Y36.556 E1.7962
G1 X103.159 Y37.780 E1.8644
G1 X103.162 Y37.782 E1.8645
G1 X103.175 Y37.793 E1.8651
G1 X103.177 Y37.795 E1.8652
G1 X104.601 Y39.106 E1.9335
G1 X104.603 Y39.108 E1.9336
G1 X104.616 Y39.121 E1.9342
G1 X104.618 Y39.123 E1.9343
G1 X105.960 Y40.516 E2.0026
G1 X105.962 Y40.518 E2.0027
G1 X105.974 Y40.531 E2.0033
G1 X105.976 Y40.533 E2.0034
G1 X107.234 Y42.004 E2.0717
G1 X107.236 Y42.006 E2.0718
G1 X107.247 Y42.020 E2.0724
G1 X107.249 Y42.022 E2.0725
G1 X108.416 Y43.565 E2.1407
G1 X108.418 Y43.567 E2.1408
G1 X108.428 Y43.582 E2.1415
G1 X108.430 Y43.584 E2.1416
G1 X109.504 Y45.194 E2.2098
G1 X109.506 Y45.196 E2.2099
G1 X109.515 Y45.211 E2.2106
G1 X109.517 Y45.214 E2.2107
G1 X110.493 Y46.885 E2.2789
G1 X110.494 Y46.887 E2.2790
G1 X110.503 Y46.903 E2.2796
G1 X110.504 Y46.905 E2.2797
G1 X111.379 Y48.631 E2.3480
G1 X111.380 Y48.634 E2.3481
G1 X111.388 Y48.650 E2.3487
G1 X111.389 Y48.653 E2.3488
G1 X112.160 Y50.427 E2.4171
G1 X112.161 Y50.430 E2.4172
G1 X112.168 Y50.447 E2.4178
G1 X112.169 Y50.449 E2.4179
G1 X112.833 Y52.267 E2.4862
G1 X112.834 Y52.269 E2.4863
G1 X112.839 Y52.286 E2.4869
G1 X112.840 Y52.289 E2.4870
G1 X113.395 Y54.143 E2.5552
G1 X113.395 Y54.146 E2.5553
G1 X113.400 Y54.163 E2.5560
G1 X113.401 Y54.166 E2.5561
G1 X113.844 Y56.049 E2.6243
G1 X113.845 Y56.052 E2.6244
G1 X113.848 Y56.070 E2.6251
G1 X113.849 Y56.072 E2.6252
G1 X114.179 Y57.979 E2.6934
G1 X114.180 Y57.982 E2.6935
G1 X114.182 Y57.999 E2.6941
G1 X114.183 Y58.002 E2.6943
G1 X114.399 Y59.925 E2.7625
G1 X114.399 Y59.928 E2.7626
G1 X114.401 Y59.946 E2.7632
G1 X114.401 Y59.949 E2.7633
G1 X114.502 Y61.881 E2.8316
G1 X114.502 Y61.884 E2.8317
G1 X114.503 Y61.902 E2.8323
G1 X114.503 Y61.905 E2.8324
G1 X114.489 Y63.839 E2.9007
G1 X114.489 Y63.842 E2.9008
G1 X114.489 Y63.860 E2.9014
G1 X114.488 Y63.863 E2.9015
G1 X114.361 Y65.780 E2.9693
G1 X114.361 Y65.784 E2.9694
G1 X114.359 Y65.804 E2.9701
G1 X114.358 Y65.807 E2.9702
G1 X114.038 Y68.173 E3.0544
G1 X114.038 Y68.175 E3.0545
G1 X114.035 Y68.192 E3.0551
G1 X114.035 Y68.194 E3.0552
G1 X113.762 Y69.621 E3.1064
G1 X113.761 Y69.623 E3.1065
G1 X113.758 Y69.639 E3.1071
G1 X113.757 Y69.642 E3.1072
G1 X113.294 Y71.505 E3.1749
G1 X113.293 Y71.508 E3.1750
G1 X113.288 Y71.525 E3.1756
G1 X113.287 Y71.528 E3.1757
G1 X112.715 Y73.360 E3.2435
G1 X112.714 Y73.363 E3.2436
G1 X112.708 Y73.380 E3.2442
G1 X112.707 Y73.383 E3.2443
G1 X112.027 Y75.179 E3.3121
G1 X112.025 Y75.182 E3.3122
G1 X112.018 Y75.201 E3.3129
G1 X112.016 Y75.204 E3.3130
G1 X111.024 Y77.376 E3.3972
G1 X111.023 Y77.379 E3.3973
G1 X111.014 Y77.397 E3.3980
G1 X111.013 Y77.400 E3.3982
G1 X110.101 Y79.091 E3.4659
G1 X110.100 Y79.094 E3.4660
G1 X110.091 Y79.109 E3.4666
G1 X110.090 Y79.111 E3.4668
G1 X109.081 Y80.745 E3.5345
G1 X109.079 Y80.747 E3.5346
G1 X109.069 Y80.762 E3.5352
G1 X109.067 Y80.765 E3.5353
G1 X107.964 Y82.336 E3.6030
G1 X107.962 Y82.338 E3.6031
G1 X107.951 Y82.352 E3.6038
G1 X107.950 Y82.355 E3.6039
G1 X106.755 Y83.858 E3.6716
G1 X106.753 Y83.860 E3.6717
G1 X106.742 Y83.874 E3.6723
G1 X106.740 Y83.876 E3.6724
G1 X105.458 Y85.306 E3.7402
G1 X105.456 Y85.308 E3.7403
G1 X105.444 Y85.321 E3.7409
G1 X105.442 Y85.323 E3.7410
G1 X104.078 Y86.675 E3.8087
G1 X104.076 Y86.677 E3.8088
G1 X104.063 Y86.689 E3.8094
G1 X104.061 Y86.691 E3.8095
G1 X102.620 Y87.960 E3.8773
G1 X102.618 Y87.962 E3.8774
G1 X102.604 Y87.973 E3.8780
G1 X102.602 Y87.975 E3.8781
G1 X101.088 Y89.156 E3.9458
G1 X101.086 Y89.158 E3.9459
G1 X101.071 Y89.169 E3.9466
G1 X101.069 Y89.170 E3.9467
G1 X99.488 Y90.260 E4.0144
G1 X99.486 Y90.262 E4.0145
G1 X99.471 Y90.272 E4.0151
G1 X99.468 Y90.273 E4.0152
G1 X97.826 Y91.268 E4.0830
G1 X97.824 Y91.269 E4.0831
G1 X97.808 Y91.278 E4.0837
G1 X97.805 Y91.280 E4.0838
G1 X96.107 Y92.176 E4.1515
G1 X96.105 Y92.177 E4.1516
G1 X96.089 Y92.185 E4.1523
G1 X96.086 Y92.186 E4.1524
G1 X94.338 Y92.980 E4.2201
G1 X94.335 Y92.981 E4.2202
G1 X94.319 Y92.988 E4.2208
G1 X94.316 Y92.989 E4.2209
G1 X92.522 Y93.679 E4.2887
G1 X92.519 Y93.681 E4.2888
G1 X92.498 Y93.688 E4.2896
G1 X92.495 Y93.689 E4.2897
G1 X91.689 Y93.934 E4.3194
G1 X91.685 Y93.935 E4.3196
G1 X91.661 Y93.942 E4.3205
G1 X91.657 Y93.943 E4.3206
G1 X90.831 Y94.119 E4.3504
G1 X90.827 Y94.120 E4.3505
G1 X90.802 Y94.124 E4.3514
G1 X90.798 Y94.125 E4.3516
G1 X89.961 Y94.232 E4.3814
G1 X89.956 Y94.232 E4.3815
G1 X89.931 Y94.234 E4.3824
G1 X89.927 Y94.234 E4.3825
G1 X89.090 Y94.270 E4.4121
G1 X89.088 Y94.270 E4.4122
G1 X89.075 Y94.270 E4.4126
G1 X89.073 Y94.270 E4.4127
G1 X74.150 Y94.270 E4.9391
G1 X74.148 Y94.270 E4.9391
G1 X74.135 Y94.270 E4.9396
G1 X74.133 Y94.270 E4.9397
G1 X73.296 Y94.234 E4.9692
G1 X73.292 Y94.234 E4.9694
G1 X73.267 Y94.232 E4.9703
G1 X73.263 Y94.232 E4.9704
G1 X72.425 Y94.125 E5.0002
G1 X72.421 Y94.124 E5.0003
G1 X72.396 Y94.120 E5.0012
G1 X72.392 Y94.119 E5.0014
G1 X71.567 Y93.943 E5.0311
G1 X71.562 Y93.942 E5.0313
G1 X71.538 Y93.935 E5.0322
G1 X71.534 Y93.934 E5.0323
G1 X70.728 Y93.689 E5.0620
G1 X70.725 Y93.688 E5.0622
G1 X70.705 Y93.681 E5.0629
G1 X70.701 Y93.679 E5.0630
G1 X68.907 Y92.989 E5.1308
G1 X68.904 Y92.988 E5.1309
G1 X68.888 Y92.981 E5.1316
G1 X68.885 Y92.980 E5.1317
G1 X67.137 Y92.186 E5.1994
G1 X67.134 Y92.185 E5.1995
G1 X67.119 Y92.177 E5.2001
G1 X67.116 Y92.176 E5.2002
G1 X65.418 Y91.280 E5.2680
G1 X65.415 Y91.278 E5.2681
G1 X65.400 Y91.269 E5.2687
G1 X65.397 Y91.268 E5.2688
G1 X63.755 Y90.273 E5.3365
G1 X63.752 Y90.272 E5.3366
G1 X63.737 Y90.262 E5.3373
G1 X63.735 Y90.260 E5.3374
G1 X62.154 Y89.170 E5.4051
G1 X62.152 Y89.169 E5.4052
G1 X62.137 Y89.158 E5.4058
G1 X62.135 Y89.156 E5.4059
G1 X60.622 Y87.975 E5.4737
G1 X60.619 Y87.973 E5.4738
G1 X60.606 Y87.962 E5.4744
G1 X60.603 Y87.960 E5.4745
G1 X59.162 Y86.691 E5.5422
G1 X59.160 Y86.689 E5.5423
G1 X59.147 Y86.677 E5.5429
G1 X59.145 Y86.675 E5.5430
G1 X57.781 Y85.323 E5.6108
G1 X57.779 Y85.321 E5.6109
G1 X57.767 Y85.308 E5.6115
G1 X57.765 Y85.306 E5.6116
G1 X56.484 Y83.876 E5.6793
G1 X56.482 Y83.874 E5.6794
G1 X56.470 Y83.860 E5.6801
G1 X56.468 Y83.858 E5.6802
G1 X55.274 Y82.355 E5.7479
G1 X55.272 Y82.352 E5.7480
G1 X55.261 Y82.338 E5.7486
G1 X55.260 Y82.336 E5.7487
G1 X54.156 Y80.765 E5.8165
