; G-Code generated by Simplify3D(R) Version 4.0.0
; Jul 12, 2018 at 4:49:50 PM
; Settings Summary
;   processName,Process1
;   applyToModels,Diffuser
;   profileName,0.4 PLA (modified)
;   profileVersion,2017-08-11 22:21:44
;   baseProfile,Default
;   printMaterial,PLA
;   printQuality,Medium
;   printExtruders,
;   extruderName,Extruder 1
;   extruderToolheadNumber,0
;   extruderDiameter,0.4
;   extruderAutoWidth,0
;   extruderWidth,0.4
;   extrusionMultiplier,1.01
;   extruderUseRetract,1
;   extruderRetractionDistance,3.5
;   extruderExtraRestartDistance,0
;   extruderRetractionZLift,0
;   extruderRetractionSpeed,2700
;   extruderUseCoasting,0
;   extruderCoastingDistance,0.2
;   extruderUseWipe,0
;   extruderWipeDistance,5
;   primaryExtruder,0
;   layerHeight,0.2
;   topSolidLayers,0
;   bottomSolidLayers,0
;   perimeterOutlines,1
;   printPerimetersInsideOut,0
;   startPointOption,3
;   startPointOriginX,70
;   startPointOriginY,90
;   sequentialIslands,0
;   spiralVaseMode,0
;   firstLayerHeightPercentage,100
;   firstLayerWidthPercentage,105
;   firstLayerUnderspeed,1
;   useRaft,0
;   raftExtruder,0
;   raftTopLayers,3
;   raftBaseLayers,2
;   raftOffset,3
;   raftSeparationDistance,0.14
;   raftTopInfill,100
;   aboveRaftSpeedMultiplier,0.3
;   useSkirt,1
;   skirtExtruder,0
;   skirtLayers,1
;   skirtOutlines,1
;   skirtOffset,0.5
;   usePrimePillar,0
;   primePillarExtruder,999
;   primePillarWidth,12
;   primePillarLocation,7
;   primePillarSpeedMultiplier,1
;   useOozeShield,0
;   oozeShieldExtruder,999
;   oozeShieldOffset,2
;   oozeShieldOutlines,1
;   oozeShieldSidewallShape,1
;   oozeShieldSidewallAngle,30
;   oozeShieldSpeedMultiplier,1
;   infillExtruder,0
;   internalInfillPattern,Grid
;   externalInfillPattern,Rectilinear
;   infillPercentage,40
;   outlineOverlapPercentage,25
;   infillExtrusionWidthPercentage,102
;   minInfillLength,3
;   infillLayerInterval,1
;   internalInfillAngles,45,-45
;   overlapInternalInfillAngles,1
;   externalInfillAngles,45,-45
;   generateSupport,0
;   supportExtruder,0
;   supportInfillPercentage,10
;   supportExtraInflation,1
;   supportBaseLayers,0
;   denseSupportExtruder,0
;   denseSupportLayers,2
;   denseSupportInfillPercentage,70
;   supportLayerInterval,1
;   supportHorizontalPartOffset,0.7
;   supportUpperSeparationLayers,1
;   supportLowerSeparationLayers,1
;   supportType,0
;   supportGridSpacing,4
;   maxOverhangAngle,45
;   supportAngles,0
;   temperatureName,Extruder 1 Temperature
;   temperatureNumber,0
;   temperatureSetpointCount,1
;   temperatureSetpointLayers,1
;   temperatureSetpointTemperatures,208
;   temperatureStabilizeAtStartup,1
;   temperatureHeatedBed,0
;   temperatureRelayBetweenLayers,0
;   temperatureRelayBetweenLoops,0
;   fanLayers,1
;   fanSpeeds,0
;   blipFanToFullPower,0
;   adjustSpeedForCooling,1
;   minSpeedLayerTime,5
;   minCoolingSpeedSlowdown,30
;   increaseFanForCooling,0
;   minFanLayerTime,45
;   maxCoolingFanSpeed,100
;   increaseFanForBridging,1
;   bridgingFanSpeed,95
;   use5D,1
;   relativeEdistances,0
;   allowEaxisZeroing,1
;   independentExtruderAxes,0
;   includeM10123,0
;   stickySupport,1
;   applyToolheadOffsets,0
;   gcodeXoffset,0
;   gcodeYoffset,0
;   gcodeZoffset,0
;   overrideMachineDefinition,1
;   machineTypeOverride,0
;   strokeXoverride,205
;   strokeYoverride,210
;   strokeZoverride,250
;   originOffsetXoverride,0
;   originOffsetYoverride,0
;   originOffsetZoverride,0
;   homeXdirOverride,-1
;   homeYdirOverride,-1
;   homeZdirOverride,-1
;   flipXoverride,1
;   flipYoverride,-1
;   flipZoverride,1
;   toolheadOffsets,0,0|0,0|0,0|0,0|0,0|0,0
;   overrideFirmwareConfiguration,1
;   firmwareTypeOverride,RepRap (Marlin/Repetier/Sprinter)
;   GPXconfigOverride,r2
;   baudRateOverride,115200
;   overridePrinterModels,0
;   printerModelsOverride
;   startingGcode,M107 ,G92 E0 ,G90,G1 Z7.00 F200 ; Lift Z up,G90,G1 X70.0 Y10.0 F3600 ; Go to Clean place,G4 S3 ; Wait for Cleaning Tip,M300 S2200 P100 ; Make beep,M300 S2500 P250,,G1 X65.0 Y1.5  F3600 ; Purge Start,G1 Z0.3 F200,G1 X150.0 E17.0 F900,G92 E0,M117 PRINTING...,,,,
;   layerChangeGcode,
;   retractionGcode,
;   toolChangeGcode,
;   endingGcode,G91,G1 E-3.0 F2000	;Relieve pressure,G1 X+5.0 F6000 ;Move X paidly,G1 Z+2.0 F200	; Raize Z,G90,M104 S0 	; turn off temperature,G28 X0 	; home X axis,G91,G1 E-15.0 F800	; Withdraw filament for removal ,M84                    ; disable motors,M106 S195	; Turn On Fans for rapid cooling,G4 S1 	; Play End tune,M300 S2200 P400,M300 S2000 P300	,M300 S1800 P200,G4 S1,M300 S2400 P200,M300 S2600 P400,G4 P1500,M300 S2650 P700
;   exportFileFormat,gcode
;   celebration,0
;   celebrationSong,Random Song
;   postProcessing,
;   defaultSpeed,600
;   outlineUnderspeed,1
;   solidInfillUnderspeed,1
;   supportUnderspeed,0.8
;   rapidXYspeed,5400
;   rapidZspeed,198
;   minBridgingArea,50
;   bridgingExtraInflation,0
;   bridgingExtrusionMultiplier,0.98
;   bridgingSpeedMultiplier,1
;   useFixedBridgingAngle,0
;   fixedBridgingAngle,0
;   applyBridgingToPerimeters,0
;   filamentDiameters,1.75|1.75|1.75|1.75|1.75|1.75
;   filamentPricesPerKg,920|920|920|920|920|920
;   filamentDensities,1.25|1.25|1.25|1.25|1.25|1.25
;   useMinPrintHeight,0
;   minPrintHeight,2.02
;   useMaxPrintHeight,1
;   maxPrintHeight,0.2
;   useDiaphragm,0
;   diaphragmLayerInterval,20
;   robustSlicing,1
;   mergeAllIntoSolid,0
;   onlyRetractWhenCrossingOutline,0
;   retractBetweenLayers,0
;   useRetractionMinTravel,1
;   retractionMinTravel,1
;   retractWhileWiping,0
;   onlyWipeOutlines,1
;   avoidCrossingOutline,0
;   maxMovementDetourFactor,3
;   toolChangeRetractionDistance,12
;   toolChangeExtraRestartDistance,-0.5
;   toolChangeRetractionSpeed,600
;   externalThinWallType,0
;   internalThinWallType,0
;   thinWallAllowedOverlapPercentage,100
;   singleExtrusionMinLength,1
;   singleExtrusionMinPrintingWidthPercentage,50
;   singleExtrusionMaxPrintingWidthPercentage,200
;   singleExtrusionEndpointExtension,0.2
;   horizontalSizeCompensation,0
G90
M82
M106 S0
M104 S208 T0
M109 S208 T0
M107 
G92 E0 
G90
G1 Z7.00 F200 ; Lift Z up
G90
G1 X70.0 Y10.0 F3600 ; Go to Clean place
G4 S3 ; Wait for Cleaning Tip
M300 S2200 P100 ; Make beep
M300 S2500 P250
G1 X65.0 Y1.5  F3600 ; Purge Start
G1 Z0.3 F200
G1 X150.0 E17.0 F900
G92 E0
M117 PRINTING...
G92 E0
G1 E-3.5000 F2700
G1 Z0.200 F198
; process Process1
; layer 1, Z = 0.200
T0
; tool H0.200 W0.420
; skirt
G1 X52.414 Y45.717 F5400
G1 E0.0000 F810
G92 E0
G1 X52.482 Y45.650 E0.0034 F600
G1 X52.494 Y45.640 E0.0039
G1 X52.759 Y45.452 E0.0154
G1 X52.776 Y45.442 E0.0161
G1 X52.885 Y45.393 E0.0203
G1 X52.904 Y45.387 E0.0210
G1 X53.099 Y45.343 E0.0281
G1 X53.110 Y45.341 E0.0284
G1 X53.176 Y45.334 E0.0308
G1 X53.187 Y45.333 E0.0312
G1 X61.118 Y45.333 E0.3109
G1 X61.127 Y45.334 E0.3113
G1 X61.181 Y45.339 E0.3132
G1 X61.190 Y45.340 E0.3135
G1 X61.356 Y45.370 E0.3194
G1 X61.380 Y45.378 E0.3203
G1 X61.515 Y45.439 E0.3255
G1 X61.536 Y45.452 E0.3264
G1 X61.731 Y45.607 E0.3352
G1 X61.749 Y45.625 E0.3361
G1 X61.838 Y45.742 E0.3413
G1 X61.851 Y45.764 E0.3422
G1 X61.946 Y45.983 E0.3506
G1 X61.951 Y45.999 E0.3512
G1 X61.975 Y46.098 E0.3548
G1 X61.978 Y46.115 E0.3554
G1 X61.998 Y46.405 E0.3656
G1 X61.998 Y46.418 E0.3661
G1 X61.993 Y46.498 E0.3689
G1 X61.991 Y46.511 E0.3694
G1 X61.901 Y46.963 E0.3857
G1 X61.898 Y46.973 E0.3860
G1 X61.879 Y47.034 E0.3883
G1 X61.876 Y47.044 E0.3886
G1 X61.150 Y48.722 E0.4531
G1 X60.552 Y50.380 E0.5153
G1 X60.313 Y51.177 E0.5446
G1 X59.907 Y52.852 E0.6055
G1 X59.627 Y54.524 E0.6652
G1 X59.466 Y56.220 E0.7253
G1 X59.432 Y57.071 E0.7554
G1 X59.454 Y58.778 E0.8156
G1 X59.598 Y60.477 E0.8757
G1 X59.863 Y62.160 E0.9358
G1 X60.250 Y63.827 E0.9962
G1 X60.485 Y64.640 E1.0260
G1 X60.749 Y65.444 E1.0559
G1 X61.370 Y67.038 E1.1162
G1 X62.100 Y68.578 E1.1763
G1 X62.939 Y70.062 E1.2365
G1 X63.882 Y71.482 E1.2966
G1 X64.928 Y72.836 E1.3569
G1 X65.476 Y73.472 E1.3866
G1 X66.661 Y74.706 E1.4469
G1 X67.927 Y75.848 E1.5070
G1 X69.276 Y76.900 E1.5674
G1 X69.965 Y77.380 E1.5970
G1 X71.419 Y78.281 E1.6573
G1 X72.928 Y79.073 E1.7175
G1 X74.491 Y79.755 E1.7776
G1 X76.103 Y80.325 E1.8379
G1 X76.915 Y80.564 E1.8678
G1 X77.735 Y80.774 E1.8976
G1 X79.413 Y81.108 E1.9580
G1 X81.104 Y81.321 E2.0181
G1 X82.812 Y81.412 E2.0784
G1 X83.652 Y81.412 E2.1080
G1 X85.360 Y81.320 E2.1684
G1 X87.058 Y81.105 E2.2287
G1 X87.884 Y80.956 E2.2584
G1 X89.549 Y80.560 E2.3187
G1 X91.180 Y80.047 E2.3790
G1 X91.967 Y79.752 E2.4087
G1 X93.534 Y79.067 E2.4690
G1 X95.049 Y78.271 E2.5294
G1 X95.770 Y77.841 E2.5590
G1 X97.196 Y76.884 E2.6195
G1 X97.867 Y76.379 E2.6492
G1 X99.182 Y75.274 E2.7097
G1 X99.795 Y74.701 E2.7394
G1 X100.983 Y73.461 E2.7999
G1 X101.531 Y72.825 E2.8295
G1 X102.576 Y71.470 E2.8899
G1 X103.518 Y70.050 E2.9500
G1 X104.356 Y68.566 E3.0101
G1 X105.086 Y67.025 E3.0703
G1 X105.703 Y65.436 E3.1304
G1 X106.205 Y63.807 E3.1905
G1 X106.589 Y62.147 E3.2506
G1 X106.854 Y60.463 E3.3108
G1 X106.997 Y58.764 E3.3709
G1 X107.017 Y57.049 E3.4314
G1 X106.916 Y55.350 E3.4914
G1 X106.693 Y53.658 E3.5516
G1 X106.540 Y52.836 E3.5811
G1 X106.138 Y51.183 E3.6411
G1 X105.624 Y49.572 E3.7007
G1 X105.333 Y48.805 E3.7297
G1 X104.637 Y47.214 E3.7909
G1 X104.635 Y47.210 E3.7911
G1 X104.625 Y47.184 E3.7921
G1 X104.624 Y47.179 E3.7922
G1 X104.530 Y46.897 E3.8027
G1 X104.528 Y46.890 E3.8030
G1 X104.517 Y46.846 E3.8046
G1 X104.515 Y46.838 E3.8049
G1 X104.455 Y46.483 E3.8176
G1 X104.454 Y46.468 E3.8181
G1 X104.453 Y46.373 E3.8215
G1 X104.454 Y46.358 E3.8220
G1 X104.515 Y45.940 E3.8369
G1 X104.525 Y45.909 E3.8381
G1 X104.616 Y45.731 E3.8451
G1 X104.636 Y45.705 E3.8463
G1 X104.871 Y45.479 E3.8578
G1 X104.895 Y45.462 E3.8588
G1 X105.052 Y45.382 E3.8650
G1 X105.080 Y45.373 E3.8661
G1 X105.260 Y45.340 E3.8725
G1 X105.269 Y45.339 E3.8728
G1 X105.323 Y45.334 E3.8747
G1 X105.332 Y45.333 E3.8750
G1 X113.263 Y45.333 E4.1548
G1 X113.273 Y45.334 E4.1552
G1 X113.338 Y45.341 E4.1574
G1 X113.349 Y45.343 E4.1578
G1 X113.553 Y45.388 E4.1652
G1 X113.576 Y45.396 E4.1661
G1 X113.706 Y45.459 E4.1712
G1 X113.726 Y45.473 E4.1720
G1 X114.077 Y45.767 E4.1882
G1 X114.087 Y45.777 E4.1887
G1 X114.146 Y45.843 E4.1918
G1 X114.155 Y45.854 E4.1923
G1 X114.334 Y46.127 E4.2038
G1 X114.338 Y46.134 E4.2041
G1 X114.360 Y46.174 E4.2057
G1 X114.363 Y46.181 E4.2060
G1 X114.498 Y46.478 E4.2175
G1 X114.500 Y46.483 E4.2177
G1 X114.512 Y46.515 E4.2189
G1 X114.514 Y46.520 E4.2191
G1 X115.098 Y48.324 E4.2860
G1 X115.099 Y48.327 E4.2861
G1 X115.104 Y48.345 E4.2867
G1 X115.105 Y48.347 E4.2868
G1 X115.615 Y50.327 E4.3589
G1 X115.615 Y50.330 E4.3590
G1 X115.619 Y50.348 E4.3597
G1 X115.620 Y50.351 E4.3598
G1 X116.006 Y52.359 E4.4319
G1 X116.006 Y52.362 E4.4320
G1 X116.009 Y52.380 E4.4327
G1 X116.010 Y52.384 E4.4328
G1 X116.268 Y54.395 E4.5043
G1 X116.269 Y54.398 E4.5044
G1 X116.270 Y54.417 E4.5051
G1 X116.271 Y54.420 E4.5052
G1 X116.405 Y56.461 E4.5774
G1 X116.405 Y56.464 E4.5774
G1 X116.405 Y56.477 E4.5779
G1 X116.405 Y56.480 E4.5780
G1 X116.425 Y57.502 E4.6141
G1 X116.425 Y57.504 E4.6141
G1 X116.425 Y57.518 E4.6146
G1 X116.425 Y57.520 E4.6147
G1 X116.367 Y59.574 E4.6872
G1 X116.367 Y59.577 E4.6873
G1 X116.366 Y59.596 E4.6880
G1 X116.365 Y59.599 E4.6881
G1 X116.180 Y61.636 E4.7602
G1 X116.180 Y61.639 E4.7603
G1 X116.178 Y61.657 E4.7610
G1 X116.177 Y61.660 E4.7611
G1 X115.866 Y63.679 E4.8331
G1 X115.866 Y63.681 E4.8332
G1 X115.864 Y63.695 E4.8337
G1 X115.863 Y63.697 E4.8338
G1 X115.659 Y64.704 E4.8700
G1 X115.659 Y64.706 E4.8701
G1 X115.656 Y64.720 E4.8706
G1 X115.655 Y64.722 E4.8707
G1 X115.158 Y66.701 E4.9426
G1 X115.157 Y66.703 E4.9427
G1 X115.153 Y66.716 E4.9432
G1 X115.153 Y66.719 E4.9433
G1 X114.856 Y67.702 E4.9795
G1 X114.855 Y67.704 E4.9796
G1 X114.851 Y67.717 E4.9801
G1 X114.850 Y67.720 E4.9802
G1 X114.169 Y69.645 E5.0522
G1 X114.168 Y69.648 E5.0523
G1 X114.161 Y69.665 E5.0530
G1 X114.160 Y69.668 E5.0531
G1 X113.359 Y71.550 E5.1252
G1 X113.358 Y71.553 E5.1253
G1 X113.350 Y71.570 E5.1260
G1 X113.349 Y71.572 E5.1261
G1 X112.433 Y73.400 E5.1982
G1 X112.431 Y73.403 E5.1983
G1 X112.422 Y73.419 E5.1990
G1 X112.421 Y73.422 E5.1991
G1 X111.394 Y75.187 E5.2711
G1 X111.392 Y75.189 E5.2712
G1 X111.385 Y75.201 E5.2717
G1 X111.384 Y75.203 E5.2718
G1 X110.826 Y76.066 E5.3080
G1 X110.825 Y76.068 E5.3081
G1 X110.817 Y76.080 E5.3086
G1 X110.816 Y76.081 E5.3087
G1 X109.628 Y77.743 E5.3807
G1 X109.626 Y77.746 E5.3808
G1 X109.615 Y77.760 E5.3815
G1 X109.613 Y77.763 E5.3816
G1 X108.323 Y79.349 E5.4537
G1 X108.321 Y79.351 E5.4538
G1 X108.309 Y79.366 E5.4545
G1 X108.307 Y79.368 E5.4546
G1 X106.922 Y80.869 E5.5266
G1 X106.920 Y80.871 E5.5267
G1 X106.910 Y80.881 E5.5272
G1 X106.909 Y80.882 E5.5273
G1 X106.179 Y81.602 E5.5634
G1 X106.178 Y81.603 E5.5635
G1 X106.171 Y81.610 E5.5638
G1 X106.170 Y81.611 E5.5639
G1 X105.419 Y82.308 E5.6000
G1 X105.417 Y82.309 E5.6001
G1 X105.407 Y82.318 E5.6006
G1 X105.405 Y82.320 E5.6007
G1 X103.844 Y83.637 E5.6727
G1 X103.842 Y83.639 E5.6728
G1 X103.827 Y83.651 E5.6735
G1 X103.824 Y83.653 E5.6736
G1 X102.184 Y84.870 E5.7456
G1 X102.182 Y84.871 E5.7457
G1 X102.171 Y84.879 E5.7462
G1 X102.169 Y84.881 E5.7463
G1 X101.319 Y85.452 E5.7824
G1 X101.317 Y85.453 E5.7825
G1 X101.309 Y85.458 E5.7828
G1 X100.440 Y86.004 E5.8190
G1 X100.438 Y86.005 E5.8191
G1 X100.426 Y86.012 E5.8196
G1 X100.424 Y86.014 E5.8196
G1 X98.646 Y87.017 E5.8917
G1 X98.643 Y87.019 E5.8918
G1 X98.626 Y87.028 E5.8924
G1 X98.624 Y87.029 E5.8926
G1 X96.786 Y87.920 E5.9646
G1 X96.784 Y87.921 E5.9647
G1 X96.771 Y87.927 E5.9652
G1 X96.769 Y87.928 E5.9653
G1 X95.825 Y88.332 E6.0015
G1 X95.823 Y88.333 E6.0016
G1 X95.810 Y88.338 E6.0021
G1 X95.807 Y88.339 E6.0021
G1 X93.897 Y89.054 E6.0741
G1 X93.894 Y89.055 E6.0742
G1 X93.881 Y89.059 E6.0747
G1 X93.879 Y89.060 E6.0748
G1 X92.901 Y89.375 E6.1110
G1 X92.899 Y89.375 E6.1111
G1 X92.886 Y89.379 E6.1116
G1 X92.883 Y89.380 E6.1116
G1 X90.914 Y89.913 E6.1836
G1 X90.912 Y89.914 E6.1837
G1 X90.898 Y89.917 E6.1842
G1 X90.896 Y89.918 E6.1843
G1 X89.895 Y90.139 E6.2204
G1 X89.894 Y90.139 E6.2205
G1 X89.885 Y90.141 E6.2208
G1 X89.883 Y90.142 E6.2208
G1 X88.876 Y90.332 E6.2570
G1 X88.874 Y90.332 E6.2571
G1 X88.860 Y90.334 E6.2576
G1 X88.858 Y90.335 E6.2577
G1 X86.835 Y90.619 E6.3297
G1 X86.832 Y90.620 E6.3298
G1 X86.814 Y90.622 E6.3305
G1 X86.811 Y90.622 E6.3306
G1 X84.772 Y90.780 E6.4027
G1 X84.769 Y90.780 E6.4028
G1 X84.750 Y90.781 E6.4035
G1 X84.747 Y90.781 E6.4036
G1 X82.722 Y90.812 E6.4750
G1 X82.720 Y90.812 E6.4751
G1 X82.706 Y90.812 E6.4756
G1 X82.704 Y90.812 E6.4757
G1 X81.677 Y90.780 E6.5119
G1 X81.675 Y90.780 E6.5120
G1 X81.661 Y90.779 E6.5125
G1 X81.658 Y90.779 E6.5125
G1 X79.622 Y90.620 E6.5846
G1 X79.619 Y90.620 E6.5847
G1 X79.600 Y90.618 E6.5854
G1 X79.597 Y90.618 E6.5855
G1 X77.575 Y90.332 E6.6575
G1 X77.573 Y90.332 E6.6576
G1 X77.559 Y90.329 E6.6581
G1 X77.557 Y90.329 E6.6582
G1 X76.550 Y90.138 E6.6943
G1 X76.539 Y90.136 E6.6946
G1 X76.538 Y90.136 E6.6947
G1 X75.537 Y89.914 E6.7308
G1 X75.535 Y89.913 E6.7309
G1 X75.521 Y89.910 E6.7314
G1 X75.519 Y89.909 E6.7315
G1 X73.548 Y89.375 E6.8035
G1 X73.545 Y89.374 E6.8037
G1 X73.527 Y89.368 E6.8043
G1 X73.524 Y89.367 E6.8044
G1 X71.590 Y88.711 E6.8765
G1 X71.588 Y88.710 E6.8765
G1 X71.575 Y88.705 E6.8770
G1 X71.572 Y88.704 E6.8771
G1 X70.616 Y88.329 E6.9134
G1 X70.614 Y88.328 E6.9134
G1 X70.601 Y88.323 E6.9139
G1 X70.599 Y88.322 E6.9140
G1 X68.737 Y87.488 E6.9860
G1 X68.735 Y87.487 E6.9860
G1 X68.722 Y87.481 E6.9865
G1 X68.720 Y87.480 E6.9866
G1 X67.803 Y87.017 E7.0229
