; G-Code generated by Simplify3D(R) Version 4.0.0
; Oct 31, 2018 at 6:55:05 PM
; Settings Summary
;   processName,FL
;   applyToModels,Extensions,Extensions(2),Extensions(3),Extensions(4),Extensions(5),Extensions(6),Extensions(7),Extensions(8),Extensions(9)
;   profileName,PLA FL (modified)
;   profileVersion,2018-10-01 17:29:14
;   baseProfile,Default
;   printMaterial,PLA
;   printQuality,Medium
;   printExtruders,
;   extruderName,Extruder 1
;   extruderToolheadNumber,0
;   extruderDiameter,0.5
;   extruderAutoWidth,0
;   extruderWidth,0.5
;   extrusionMultiplier,1.03
;   extruderUseRetract,1
;   extruderRetractionDistance,2.5
;   extruderExtraRestartDistance,0
;   extruderRetractionZLift,0.2
;   extruderRetractionSpeed,2400
;   extruderUseCoasting,0
;   extruderCoastingDistance,0.2
;   extruderUseWipe,0
;   extruderWipeDistance,5
;   primaryExtruder,0
;   layerHeight,0.2
;   topSolidLayers,3
;   bottomSolidLayers,3
;   perimeterOutlines,4
;   printPerimetersInsideOut,0
;   startPointOption,2
;   startPointOriginX,70
;   startPointOriginY,80
;   sequentialIslands,0
;   spiralVaseMode,0
;   firstLayerHeightPercentage,90
;   firstLayerWidthPercentage,100
;   firstLayerUnderspeed,1
;   useRaft,0
;   raftExtruder,0
;   raftTopLayers,1
;   raftBaseLayers,0
;   raftOffset,2
;   raftSeparationDistance,0.1
;   raftTopInfill,90
;   aboveRaftSpeedMultiplier,0.6
;   useSkirt,1
;   skirtExtruder,0
;   skirtLayers,1
;   skirtOutlines,4
;   skirtOffset,0.01
;   usePrimePillar,0
;   primePillarExtruder,999
;   primePillarWidth,12
;   primePillarLocation,7
;   primePillarSpeedMultiplier,1
;   useOozeShield,0
;   oozeShieldExtruder,999
;   oozeShieldOffset,2
;   oozeShieldOutlines,1
;   oozeShieldSidewallShape,1
;   oozeShieldSidewallAngle,30
;   oozeShieldSpeedMultiplier,1
;   infillExtruder,0
;   internalInfillPattern,Rectilinear
;   externalInfillPattern,Rectilinear
;   infillPercentage,40
;   outlineOverlapPercentage,30
;   infillExtrusionWidthPercentage,102
;   minInfillLength,5
;   infillLayerInterval,1
;   internalInfillAngles,45,-45
;   overlapInternalInfillAngles,0
;   externalInfillAngles,45,-45
;   generateSupport,0
;   supportExtruder,0
;   supportInfillPercentage,10
;   supportExtraInflation,1
;   supportBaseLayers,0
;   denseSupportExtruder,0
;   denseSupportLayers,2
;   denseSupportInfillPercentage,70
;   supportLayerInterval,1
;   supportHorizontalPartOffset,0.7
;   supportUpperSeparationLayers,1
;   supportLowerSeparationLayers,1
;   supportType,0
;   supportGridSpacing,4
;   maxOverhangAngle,45
;   supportAngles,0
;   temperatureName,Extruder 1 Temperature,Heated Bed
;   temperatureNumber,0,0
;   temperatureSetpointCount,1,1
;   temperatureSetpointLayers,1,1
;   temperatureSetpointTemperatures,205,45
;   temperatureStabilizeAtStartup,0,0
;   temperatureHeatedBed,0,1
;   temperatureRelayBetweenLayers,0,0
;   temperatureRelayBetweenLoops,0,0
;   fanLayers,1
;   fanSpeeds,0
;   blipFanToFullPower,0
;   adjustSpeedForCooling,0
;   minSpeedLayerTime,5
;   minCoolingSpeedSlowdown,30
;   increaseFanForCooling,0
;   minFanLayerTime,45
;   maxCoolingFanSpeed,100
;   increaseFanForBridging,1
;   bridgingFanSpeed,95
;   use5D,1
;   relativeEdistances,0
;   allowEaxisZeroing,1
;   independentExtruderAxes,0
;   includeM10123,0
;   stickySupport,1
;   applyToolheadOffsets,0
;   gcodeXoffset,0
;   gcodeYoffset,0
;   gcodeZoffset,0
;   overrideMachineDefinition,1
;   machineTypeOverride,0
;   strokeXoverride,210
;   strokeYoverride,200
;   strokeZoverride,250
;   originOffsetXoverride,0
;   originOffsetYoverride,0
;   originOffsetZoverride,0
;   homeXdirOverride,-1
;   homeYdirOverride,-1
;   homeZdirOverride,-1
;   flipXoverride,1
;   flipYoverride,-1
;   flipZoverride,1
;   toolheadOffsets,0,0|0,0|0,0|0,0|0,0|0,0
;   overrideFirmwareConfiguration,0
;   firmwareTypeOverride,RepRap (Marlin/Repetier/Sprinter)
;   GPXconfigOverride,r2
;   baudRateOverride,115200
;   overridePrinterModels,0
;   printerModelsOverride
;   startingGcode,M501,M420 S1,,M107 ,G92 E0 ,G90,G1 Z6.00 F200 ; Lift Z up,G90,G1 X70.0 Y10.0 F3600 ; Go to Clean place,G4 S2 ; Wait for Cleaning Tip,M300 S2200 P100 ; Make beep,M300 S2500 P250,,G1 X70.0 Y10.0  F3600 ; Purge Start,G1 Z0.25 F200,G1 X150.0 E17.0 F900,,;G1 E15.0 F900,;G4 S2,;G1 Y25.0 F3600,M117 PRINTING...,,,,
;   layerChangeGcode,
;   retractionGcode,
;   toolChangeGcode,
;   endingGcode,G91,G1 E-3.0 F2000	;Relieve pressure,G1 X+5.0 F6000 ;Move X paidly,G1 Z+2.0 F200	; Raize Z,G90,M104 S0 	; turn off temperature,G28 X0 	; home X axis,G91,G1 E-15.0 F800	; Withdraw filament for removal ,M84                    ; disable motors,M140 S0	; Turn Off heated bed,M106 S195	; Turn On Fans for rapid cooling,G4 S1 	; Play End tune,M300 S2200 P400,M300 S2000 P300	,M300 S1800 P200,G4 S1,M300 S2400 P200,M300 S2600 P400,G4 P1500,M300 S2650 P700,G4 S90,M106 S0
;   exportFileFormat,gcode
;   celebration,0
;   celebrationSong,Random Song
;   postProcessing,
;   defaultSpeed,420
;   outlineUnderspeed,1
;   solidInfillUnderspeed,2
;   supportUnderspeed,0.8
;   rapidXYspeed,5400
;   rapidZspeed,216
;   minBridgingArea,50
;   bridgingExtraInflation,1.5
;   bridgingExtrusionMultiplier,0.98
;   bridgingSpeedMultiplier,1
;   useFixedBridgingAngle,0
;   fixedBridgingAngle,0
;   applyBridgingToPerimeters,0
;   filamentDiameters,1.75|1.75|1.75|1.75|1.75|1.75
;   filamentPricesPerKg,0|920|920|920|920|920
;   filamentDensities,1.25|1.25|1.25|1.25|1.25|1.25
;   useMinPrintHeight,0
;   minPrintHeight,35
;   useMaxPrintHeight,1
;   maxPrintHeight,0.2
;   useDiaphragm,0
;   diaphragmLayerInterval,20
;   robustSlicing,1
;   mergeAllIntoSolid,0
;   onlyRetractWhenCrossingOutline,0
;   retractBetweenLayers,0
;   useRetractionMinTravel,1
;   retractionMinTravel,1.5
;   retractWhileWiping,0
;   onlyWipeOutlines,1
;   avoidCrossingOutline,1
;   maxMovementDetourFactor,3
;   toolChangeRetractionDistance,12
;   toolChangeExtraRestartDistance,-0.5
;   toolChangeRetractionSpeed,600
;   externalThinWallType,1
;   internalThinWallType,1
;   thinWallAllowedOverlapPercentage,100
;   singleExtrusionMinLength,1
;   singleExtrusionMinPrintingWidthPercentage,100
;   singleExtrusionMaxPrintingWidthPercentage,200
;   singleExtrusionEndpointExtension,0.2
;   horizontalSizeCompensation,0
G90
M82
M106 S0
M140 S45
M104 S205 T0
M501
M420 S1
M107 
G92 E0 
G90
G1 Z6.00 F200 ; Lift Z up
G90
G1 X70.0 Y10.0 F3600 ; Go to Clean place
G4 S2 ; Wait for Cleaning Tip
M300 S2200 P100 ; Make beep
M300 S2500 P250
G1 X70.0 Y10.0  F3600 ; Purge Start
G1 Z0.25 F200
G1 X150.0 E17.0 F900
;G1 E15.0 F900
;G4 S2
;G1 Y25.0 F3600
M117 PRINTING...
G92 E0
G1 E-2.5000 F2400
G1 Z0.380 F216
; process FL
; layer 1, Z = 0.180
T0
; tool H0.200 W0.500
; skirt
G1 X57.523 Y86.974 F5400
G1 Z0.180 F216
G1 E0.0000 F720
G92 E0
G1 X57.565 Y86.950 E0.0021 F420
G1 X57.610 Y86.926 E0.0042
G1 X58.059 Y86.701 E0.0257
G1 X58.108 Y86.678 E0.0281
G1 X58.150 Y86.661 E0.0300
G1 X58.182 Y86.648 E0.0315
G1 X58.887 Y86.381 E0.0637
G1 X58.920 Y86.369 E0.0653
G1 X58.963 Y86.354 E0.0672
G1 X59.015 Y86.339 E0.0695
G1 X59.494 Y86.212 E0.0908
G1 X59.529 Y86.203 E0.0923
G1 X59.561 Y86.196 E0.0937
G1 X59.589 Y86.190 E0.0949
G1 X60.015 Y86.110 E0.1135
G1 X60.073 Y86.101 E0.1160
G1 X60.118 Y86.096 E0.1179
G1 X60.149 Y86.093 E0.1193
G1 X60.969 Y86.024 E0.1545
G1 X61.025 Y86.022 E0.1569
G1 X61.070 Y86.021 E0.1588
G1 X61.104 Y86.021 E0.1603
G1 X61.516 Y86.029 E0.1779
G1 X61.524 Y86.029 E0.1783
G1 X61.554 Y86.030 E0.1796
G1 X61.606 Y86.033 E0.1818
G1 X62.041 Y86.071 E0.2005
G1 X62.083 Y86.076 E0.2023
G1 X62.128 Y86.082 E0.2042
G1 X62.175 Y86.090 E0.2063
G1 X62.988 Y86.247 E0.2417
G1 X63.037 Y86.258 E0.2439
G1 X63.096 Y86.273 E0.2465
G1 X63.162 Y86.293 E0.2495
G1 X63.953 Y86.562 E0.2852
G1 X63.993 Y86.577 E0.2871
G1 X64.036 Y86.593 E0.2890
G1 X64.079 Y86.612 E0.2910
G1 X64.478 Y86.795 E0.3099
G1 X64.525 Y86.818 E0.3121
G1 X64.565 Y86.840 E0.3140
G1 X64.598 Y86.858 E0.3156
G1 X65.306 Y87.276 E0.3508
G1 X65.346 Y87.301 E0.3529
G1 X65.384 Y87.327 E0.3548
G1 X65.418 Y87.351 E0.3566
G1 X65.767 Y87.608 E0.3752
G1 X65.802 Y87.636 E0.3771
G1 X65.837 Y87.664 E0.3791
G1 X65.872 Y87.694 E0.3810
G1 X66.479 Y88.248 E0.4162
G1 X66.509 Y88.276 E0.4179
G1 X66.541 Y88.308 E0.4199
G1 X66.575 Y88.344 E0.4220
G1 X66.869 Y88.673 E0.4409
G1 X66.905 Y88.716 E0.4433
G1 X66.934 Y88.753 E0.4453
G1 X66.958 Y88.784 E0.4470
G1 X67.473 Y89.504 E0.4849
G1 X67.644 Y89.227 E0.4989
G1 X67.669 Y89.189 E0.5008
G1 X67.695 Y89.152 E0.5027
G1 X67.721 Y89.116 E0.5047
G1 X68.222 Y88.464 E0.5399
G1 X68.248 Y88.433 E0.5416
G1 X68.277 Y88.398 E0.5435
G1 X68.310 Y88.361 E0.5457
G1 X68.611 Y88.043 E0.5644
G1 X68.645 Y88.010 E0.5664
G1 X68.678 Y87.979 E0.5684
G1 X68.709 Y87.950 E0.5702
G1 X69.342 Y87.406 E0.6059
G1 X69.396 Y87.364 E0.6088
G1 X69.445 Y87.328 E0.6114
G1 X69.487 Y87.299 E0.6137
G1 X70.183 Y86.851 E0.6491
G1 X70.221 Y86.827 E0.6510
G1 X70.263 Y86.803 E0.6531
G1 X70.307 Y86.780 E0.6552
G1 X70.757 Y86.554 E0.6768
G1 X70.806 Y86.532 E0.6791
G1 X70.847 Y86.514 E0.6810
G1 X70.880 Y86.501 E0.6825
G1 X71.587 Y86.233 E0.7149
G1 X71.625 Y86.220 E0.7166
G1 X71.668 Y86.206 E0.7186
G1 X71.715 Y86.192 E0.7207
G1 X72.192 Y86.065 E0.7418
G1 X72.227 Y86.057 E0.7433
G1 X72.259 Y86.049 E0.7447
G1 X72.287 Y86.044 E0.7460
G1 X72.713 Y85.964 E0.7645
G1 X72.770 Y85.955 E0.7670
G1 X72.815 Y85.949 E0.7689
G1 X72.847 Y85.946 E0.7703
G1 X73.667 Y85.878 E0.8055
G1 X73.723 Y85.875 E0.8079
G1 X73.768 Y85.874 E0.8099
G1 X73.802 Y85.874 E0.8113
G1 X74.226 Y85.883 E0.8295
G1 X74.259 Y85.884 E0.8309
G1 X74.304 Y85.886 E0.8328
G1 X74.361 Y85.891 E0.8353
G1 X75.192 Y85.994 E0.8711
G1 X75.252 Y86.003 E0.8737
G1 X75.311 Y86.015 E0.8763
G1 X75.369 Y86.028 E0.8789
G1 X76.174 Y86.242 E0.9146
G1 X76.222 Y86.256 E0.9167
G1 X76.265 Y86.270 E0.9186
G1 X76.303 Y86.283 E0.9204
G1 X76.692 Y86.431 E0.9382
G1 X76.703 Y86.435 E0.9387
G1 X76.731 Y86.446 E0.9400
G1 X76.776 Y86.465 E0.9420
G1 X77.176 Y86.649 E0.9609
G1 X77.222 Y86.672 E0.9631
G1 X77.262 Y86.693 E0.9650
G1 X77.295 Y86.712 E0.9667
G1 X78.003 Y87.129 E1.0019
G1 X78.044 Y87.155 E1.0039
G1 X78.081 Y87.180 E1.0059
G1 X78.116 Y87.204 E1.0077
G1 X78.464 Y87.462 E1.0262
G1 X78.500 Y87.489 E1.0281
G1 X78.535 Y87.518 E1.0301
G1 X78.569 Y87.548 E1.0320
G1 X79.172 Y88.097 E1.0670
G1 X79.193 Y88.117 E1.0682
G1 X79.226 Y88.148 E1.0701
G1 X79.268 Y88.193 E1.0727
G1 X79.567 Y88.527 E1.0919
G1 X79.602 Y88.569 E1.0943
G1 X79.632 Y88.607 E1.0964
G1 X79.655 Y88.638 E1.0980
G1 X80.172 Y89.360 E1.1361
G1 X80.204 Y89.408 E1.1385
G1 X80.236 Y89.460 E1.1411
G1 X80.257 Y89.496 E1.1429
G1 X80.259 Y89.493 E1.1431
G1 X80.292 Y89.439 E1.1458
G1 X80.749 Y88.752 E1.1811
G1 X80.765 Y88.729 E1.1823
G1 X80.792 Y88.692 E1.1843
G1 X80.829 Y88.643 E1.1869
G1 X81.112 Y88.301 E1.2059
G1 X81.143 Y88.265 E1.2080
G1 X81.174 Y88.231 E1.2099
G1 X81.203 Y88.201 E1.2117
G1 X81.796 Y87.617 E1.2474
G1 X81.844 Y87.573 E1.2501
G1 X81.878 Y87.544 E1.2521
G1 X81.898 Y87.528 E1.2532
G1 X82.231 Y87.261 E1.2714
G1 X82.269 Y87.232 E1.2735
G1 X82.306 Y87.205 E1.2754
G1 X82.341 Y87.182 E1.2772
G1 X83.032 Y86.736 E1.3124
G1 X83.070 Y86.713 E1.3144
G1 X83.112 Y86.689 E1.3164
G1 X83.156 Y86.665 E1.3186
G1 X83.606 Y86.440 E1.3401
G1 X83.655 Y86.418 E1.3424
G1 X83.696 Y86.400 E1.3443
G1 X83.729 Y86.387 E1.3458
G1 X84.433 Y86.120 E1.3781
G1 X84.467 Y86.108 E1.3796
G1 X84.510 Y86.094 E1.3816
G1 X84.562 Y86.078 E1.3839
G1 X85.041 Y85.951 E1.4051
G1 X85.076 Y85.942 E1.4067
G1 X85.108 Y85.935 E1.4081
G1 X85.136 Y85.929 E1.4093
G1 X85.562 Y85.849 E1.4279
G1 X85.619 Y85.840 E1.4303
G1 X85.664 Y85.835 E1.4323
G1 X85.696 Y85.832 E1.4336
G1 X86.516 Y85.764 E1.4689
G1 X86.571 Y85.761 E1.4713
G1 X86.617 Y85.760 E1.4732
G1 X86.651 Y85.760 E1.4747
G1 X87.062 Y85.768 E1.4923
G1 X87.071 Y85.768 E1.4926
G1 X87.101 Y85.769 E1.4939
G1 X87.152 Y85.772 E1.4961
G1 X87.587 Y85.810 E1.5148
G1 X87.629 Y85.815 E1.5167
G1 X87.674 Y85.821 E1.5186
G1 X87.722 Y85.829 E1.5206
G1 X88.529 Y85.985 E1.5559
G1 X88.567 Y85.993 E1.5575
G1 X88.611 Y86.004 E1.5595
G1 X88.660 Y86.017 E1.5617
G1 X89.085 Y86.146 E1.5807
G1 X89.139 Y86.164 E1.5831
G1 X89.182 Y86.180 E1.5851
G1 X89.212 Y86.192 E1.5865
G1 X89.971 Y86.510 E1.6217
G1 X90.019 Y86.532 E1.6239
G1 X90.073 Y86.558 E1.6265
G1 X90.132 Y86.590 E1.6294
G1 X90.852 Y87.015 E1.6652
G1 X90.893 Y87.041 E1.6673
G1 X90.931 Y87.066 E1.6692
G1 X90.965 Y87.090 E1.6710
G1 X91.314 Y87.347 E1.6896
G1 X91.349 Y87.375 E1.6915
G1 X91.384 Y87.404 E1.6934
G1 X91.418 Y87.433 E1.6954
G1 X92.022 Y87.983 E1.7303
G1 X92.043 Y88.002 E1.7315
G1 X92.075 Y88.034 E1.7335
G1 X92.117 Y88.078 E1.7361
G1 X92.416 Y88.412 E1.7553
G1 X92.452 Y88.455 E1.7577
G1 X92.481 Y88.492 E1.7597
G1 X92.504 Y88.524 E1.7614
G1 X93.022 Y89.246 E1.7994
G1 X93.054 Y89.294 E1.8019
G1 X93.086 Y89.345 E1.8045
G1 X93.117 Y89.400 E1.8072
G1 X93.336 Y89.817 E1.8273
G1 X93.351 Y89.783 E1.8289
G1 X93.376 Y89.732 E1.8314
G1 X93.577 Y89.350 E1.8498
G1 X93.590 Y89.327 E1.8510
G1 X93.605 Y89.300 E1.8523
G1 X93.622 Y89.272 E1.8537
G1 X93.847 Y88.907 E1.8721
G1 X93.871 Y88.870 E1.8740
G1 X93.897 Y88.832 E1.8759
G1 X93.924 Y88.796 E1.8779
G1 X94.425 Y88.145 E1.9130
G1 X94.450 Y88.113 E1.9148
G1 X94.480 Y88.078 E1.9167
G1 X94.513 Y88.042 E1.9188
G1 X94.810 Y87.728 E1.9374
G1 X94.835 Y87.702 E1.9389
G1 X94.867 Y87.671 E1.9408
G1 X94.908 Y87.634 E1.9432
G1 X95.542 Y87.089 E1.9790
G1 X95.589 Y87.051 E1.9816
G1 X95.638 Y87.015 E1.9842
G1 X95.687 Y86.981 E1.9867
G1 X96.385 Y86.531 E2.0223
G1 X96.424 Y86.507 E2.0242
G1 X96.465 Y86.484 E2.0263
G1 X96.510 Y86.460 E2.0284
G1 X96.959 Y86.235 E2.0500
G1 X97.008 Y86.212 E2.0523
G1 X97.050 Y86.194 E2.0542
G1 X97.082 Y86.181 E2.0557
G1 X97.787 Y85.914 E2.0880
G1 X97.820 Y85.902 E2.0895
G1 X97.863 Y85.888 E2.0914
G1 X97.915 Y85.873 E2.0937
G1 X98.394 Y85.745 E2.1150
G1 X98.429 Y85.737 E2.1165
G1 X98.461 Y85.730 E2.1179
G1 X98.489 Y85.724 E2.1191
G1 X98.915 Y85.644 E2.1377
G1 X98.973 Y85.635 E2.1402
G1 X99.018 Y85.630 E2.1421
G1 X99.049 Y85.626 E2.1435
G1 X99.869 Y85.558 E2.1787
G1 X99.925 Y85.555 E2.1811
G1 X99.970 Y85.554 E2.1831
G1 X100.004 Y85.554 E2.1845
G1 X100.416 Y85.562 E2.2021
G1 X100.424 Y85.563 E2.2025
G1 X100.454 Y85.564 E2.2038
G1 X100.506 Y85.567 E2.2060
G1 X100.941 Y85.605 E2.2247
G1 X100.983 Y85.610 E2.2265
G1 X101.028 Y85.616 E2.2285
G1 X101.075 Y85.624 E2.2305
G1 X101.888 Y85.781 E2.2660
G1 X101.937 Y85.792 E2.2681
G1 X101.996 Y85.807 E2.2707
G1 X102.062 Y85.826 E2.2737
G1 X102.862 Y86.099 E2.3099
G1 X102.921 Y86.121 E2.3125
G1 X102.977 Y86.144 E2.3151
G1 X103.029 Y86.168 E2.3176
G1 X103.767 Y86.539 E2.3530
G1 X103.800 Y86.556 E2.3546
G1 X103.840 Y86.578 E2.3565
G1 X103.885 Y86.605 E2.3588
G1 X104.247 Y86.836 E2.3771
G1 X104.268 Y86.850 E2.3782
G1 X104.293 Y86.867 E2.3795
G1 X104.321 Y86.887 E2.3810
G1 X104.667 Y87.142 E2.3994
G1 X104.702 Y87.169 E2.4013
G1 X104.737 Y87.198 E2.4033
G1 X104.772 Y87.228 E2.4052
G1 X105.375 Y87.777 E2.4401
G1 X105.396 Y87.797 E2.4414
G1 X105.428 Y87.829 E2.4433
G1 X105.471 Y87.873 E2.4459
G1 X105.769 Y88.207 E2.4651
G1 X105.805 Y88.249 E2.4675
G1 X105.834 Y88.287 E2.4695
G1 X105.858 Y88.318 E2.4712
G1 X106.375 Y89.040 E2.5092
G1 X106.407 Y89.088 E2.5117
G1 X106.439 Y89.140 E2.5143
G1 X106.470 Y89.194 E2.5170
G1 X106.830 Y89.879 E2.5501
G1 X106.852 Y89.923 E2.5522
G1 X106.870 Y89.963 E2.5541
G1 X106.886 Y90.000 E2.5558
G1 X107.073 Y90.463 E2.5772
G1 X107.093 Y90.519 E2.5798
G1 X107.108 Y90.565 E2.5818
G1 X107.119 Y90.600 E2.5834
G1 X107.341 Y91.392 E2.6186
G1 X107.353 Y91.440 E2.6208
G1 X107.363 Y91.485 E2.6227
