; G-Code generated by Simplify3D(R) Version 4.0.0
; Nov 1, 2018 at 11:39:51 AM
; Settings Summary
;   processName,FL
;   applyToModels,Gfx Stand
;   profileName,PLA FL (modified)
;   profileVersion,2018-10-01 17:29:14
;   baseProfile,Default
;   printMaterial,PLA
;   printQuality,Medium
;   printExtruders,
;   extruderName,Extruder 1
;   extruderToolheadNumber,0
;   extruderDiameter,0.5
;   extruderAutoWidth,0
;   extruderWidth,0.5
;   extrusionMultiplier,1.03
;   extruderUseRetract,1
;   extruderRetractionDistance,2.5
;   extruderExtraRestartDistance,0
;   extruderRetractionZLift,0.2
;   extruderRetractionSpeed,2400
;   extruderUseCoasting,0
;   extruderCoastingDistance,0.2
;   extruderUseWipe,0
;   extruderWipeDistance,5
;   primaryExtruder,0
;   layerHeight,0.25
;   topSolidLayers,3
;   bottomSolidLayers,3
;   perimeterOutlines,3
;   printPerimetersInsideOut,0
;   startPointOption,2
;   startPointOriginX,70
;   startPointOriginY,80
;   sequentialIslands,0
;   spiralVaseMode,0
;   firstLayerHeightPercentage,100
;   firstLayerWidthPercentage,100
;   firstLayerUnderspeed,1
;   useRaft,0
;   raftExtruder,0
;   raftTopLayers,1
;   raftBaseLayers,0
;   raftOffset,2
;   raftSeparationDistance,0.1
;   raftTopInfill,90
;   aboveRaftSpeedMultiplier,0.6
;   useSkirt,1
;   skirtExtruder,0
;   skirtLayers,1
;   skirtOutlines,1
;   skirtOffset,1
;   usePrimePillar,0
;   primePillarExtruder,999
;   primePillarWidth,12
;   primePillarLocation,7
;   primePillarSpeedMultiplier,1
;   useOozeShield,0
;   oozeShieldExtruder,999
;   oozeShieldOffset,2
;   oozeShieldOutlines,1
;   oozeShieldSidewallShape,1
;   oozeShieldSidewallAngle,30
;   oozeShieldSpeedMultiplier,1
;   infillExtruder,0
;   internalInfillPattern,Rectilinear
;   externalInfillPattern,Rectilinear
;   infillPercentage,40
;   outlineOverlapPercentage,30
;   infillExtrusionWidthPercentage,102
;   minInfillLength,5
;   infillLayerInterval,1
;   internalInfillAngles,45,-45
;   overlapInternalInfillAngles,0
;   externalInfillAngles,45,-45
;   generateSupport,0
;   supportExtruder,0
;   supportInfillPercentage,10
;   supportExtraInflation,1
;   supportBaseLayers,0
;   denseSupportExtruder,0
;   denseSupportLayers,2
;   denseSupportInfillPercentage,70
;   supportLayerInterval,1
;   supportHorizontalPartOffset,0.7
;   supportUpperSeparationLayers,1
;   supportLowerSeparationLayers,1
;   supportType,0
;   supportGridSpacing,4
;   maxOverhangAngle,45
;   supportAngles,0
;   temperatureName,Extruder 1 Temperature,Heated Bed
;   temperatureNumber,0,0
;   temperatureSetpointCount,1,1
;   temperatureSetpointLayers,1,1
;   temperatureSetpointTemperatures,205,55
;   temperatureStabilizeAtStartup,0,0
;   temperatureHeatedBed,0,1
;   temperatureRelayBetweenLayers,0,0
;   temperatureRelayBetweenLoops,0,0
;   fanLayers,1
;   fanSpeeds,0
;   blipFanToFullPower,0
;   adjustSpeedForCooling,0
;   minSpeedLayerTime,5
;   minCoolingSpeedSlowdown,30
;   increaseFanForCooling,0
;   minFanLayerTime,45
;   maxCoolingFanSpeed,100
;   increaseFanForBridging,1
;   bridgingFanSpeed,95
;   use5D,1
;   relativeEdistances,0
;   allowEaxisZeroing,1
;   independentExtruderAxes,0
;   includeM10123,0
;   stickySupport,1
;   applyToolheadOffsets,0
;   gcodeXoffset,0
;   gcodeYoffset,0
;   gcodeZoffset,0
;   overrideMachineDefinition,1
;   machineTypeOverride,0
;   strokeXoverride,210
;   strokeYoverride,200
;   strokeZoverride,250
;   originOffsetXoverride,0
;   originOffsetYoverride,0
;   originOffsetZoverride,0
;   homeXdirOverride,-1
;   homeYdirOverride,-1
;   homeZdirOverride,-1
;   flipXoverride,1
;   flipYoverride,-1
;   flipZoverride,1
;   toolheadOffsets,0,0|0,0|0,0|0,0|0,0|0,0
;   overrideFirmwareConfiguration,0
;   firmwareTypeOverride,RepRap (Marlin/Repetier/Sprinter)
;   GPXconfigOverride,r2
;   baudRateOverride,115200
;   overridePrinterModels,0
;   printerModelsOverride
;   startingGcode,M501,M420 S1,,M107 ,G92 E0 ,G90,G1 Z6.00 F200 ; Lift Z up,G90,G1 X70.0 Y10.0 F3600 ; Go to Clean place,G4 S2 ; Wait for Cleaning Tip,M300 S2200 P100 ; Make beep,M300 S2500 P250,,G1 X70.0 Y10.0  F3600 ; Purge Start,G1 Z0.25 F200,G1 X150.0 E17.0 F900,,;G1 E15.0 F900,;G4 S2,;G1 Y25.0 F3600,M117 PRINTING...,,,,
;   layerChangeGcode,
;   retractionGcode,
;   toolChangeGcode,
;   endingGcode,G91,G1 E-3.0 F2000	;Relieve pressure,G1 X+5.0 F6000 ;Move X paidly,G1 Z+2.0 F200	; Raize Z,G90,M104 S0 	; turn off temperature,G28 X0 	; home X axis,G91,G1 E-15.0 F800	; Withdraw filament for removal ,M84                    ; disable motors,M140 S0	; Turn Off heated bed,M106 S195	; Turn On Fans for rapid cooling,G4 S1 	; Play End tune,M300 S2200 P400,M300 S2000 P300	,M300 S1800 P200,G4 S1,M300 S2400 P200,M300 S2600 P400,G4 P1500,M300 S2650 P700,G4 S90,M106 S0
;   exportFileFormat,gcode
;   celebration,0
;   celebrationSong,Random Song
;   postProcessing,
;   defaultSpeed,720
;   outlineUnderspeed,1
;   solidInfillUnderspeed,1.5
;   supportUnderspeed,0.8
;   rapidXYspeed,5400
;   rapidZspeed,216
;   minBridgingArea,50
;   bridgingExtraInflation,1.5
;   bridgingExtrusionMultiplier,0.98
;   bridgingSpeedMultiplier,1
;   useFixedBridgingAngle,0
;   fixedBridgingAngle,0
;   applyBridgingToPerimeters,0
;   filamentDiameters,1.75|1.75|1.75|1.75|1.75|1.75
;   filamentPricesPerKg,0|920|920|920|920|920
;   filamentDensities,1.25|1.25|1.25|1.25|1.25|1.25
;   useMinPrintHeight,0
;   minPrintHeight,35
;   useMaxPrintHeight,1
;   maxPrintHeight,0.25
;   useDiaphragm,0
;   diaphragmLayerInterval,20
;   robustSlicing,1
;   mergeAllIntoSolid,0
;   onlyRetractWhenCrossingOutline,0
;   retractBetweenLayers,0
;   useRetractionMinTravel,1
;   retractionMinTravel,1.5
;   retractWhileWiping,0
;   onlyWipeOutlines,1
;   avoidCrossingOutline,1
;   maxMovementDetourFactor,3
;   toolChangeRetractionDistance,12
;   toolChangeExtraRestartDistance,-0.5
;   toolChangeRetractionSpeed,600
;   externalThinWallType,1
;   internalThinWallType,1
;   thinWallAllowedOverlapPercentage,100
;   singleExtrusionMinLength,1
;   singleExtrusionMinPrintingWidthPercentage,100
;   singleExtrusionMaxPrintingWidthPercentage,200
;   singleExtrusionEndpointExtension,0.2
;   horizontalSizeCompensation,0
G90
M82
M106 S0
M140 S55
M104 S205 T0
M501
M420 S1
M107 
G92 E0 
G90
G1 Z6.00 F200 ; Lift Z up
G90
G1 X70.0 Y10.0 F3600 ; Go to Clean place
G4 S2 ; Wait for Cleaning Tip
M300 S2200 P100 ; Make beep
M300 S2500 P250
G1 X70.0 Y10.0  F3600 ; Purge Start
G1 Z0.25 F200
G1 X150.0 E17.0 F900
;G1 E15.0 F900
;G4 S2
;G1 Y25.0 F3600
M117 PRINTING...
G92 E0
G1 E-2.5000 F2400
G1 Z0.450 F216
; process FL
; layer 1, Z = 0.250
T0
; tool H0.250 W0.500
; skirt
G1 X45.784 Y66.396 F5400
G1 Z0.250 F216
G1 E0.0000 F720
G92 E0
G1 X45.801 Y66.386 E0.0011 F720
G1 X45.965 Y66.308 E0.0108
G1 X45.984 Y66.301 E0.0119
G1 X46.561 Y66.134 E0.0440
G1 X46.576 Y66.131 E0.0448
G1 X46.711 Y66.109 E0.0521
G1 X46.726 Y66.108 E0.0529
G1 X47.060 Y66.095 E0.0709
G1 X47.070 Y66.095 E0.0714
G1 X47.161 Y66.098 E0.0763
G1 X47.171 Y66.099 E0.0768
G1 X47.459 Y66.135 E0.0924
G1 X47.465 Y66.135 E0.0926
G1 X47.512 Y66.143 E0.0952
G1 X47.517 Y66.144 E0.0955
G1 X53.743 Y67.450 E0.4360
G1 X53.748 Y67.451 E0.4363
G1 X59.944 Y68.803 E0.7757
G1 X59.949 Y68.804 E0.7759
G1 X66.133 Y70.206 E1.1153
G1 X66.138 Y70.207 E1.1156
G1 X72.311 Y71.658 E1.4550
G1 X72.316 Y71.659 E1.4552
G1 X78.476 Y73.159 E1.7946
G1 X78.481 Y73.161 E1.7948
G1 X84.630 Y74.711 E2.1343
G1 X84.635 Y74.712 E2.1345
G1 X90.771 Y76.311 E2.4739
G1 X90.776 Y76.312 E2.4741
G1 X96.899 Y77.961 E2.8135
G1 X96.904 Y77.962 E2.8138
G1 X103.014 Y79.660 E3.1532
G1 X103.019 Y79.661 E3.1534
G1 X109.114 Y81.408 E3.4928
G1 X109.119 Y81.409 E3.4931
G1 X115.201 Y83.205 E3.8325
G1 X115.206 Y83.206 E3.8327
G1 X121.272 Y85.050 E4.1721
G1 X121.277 Y85.052 E4.1723
G1 X127.329 Y86.945 E4.5118
G1 X127.334 Y86.946 E4.5120
G1 X133.371 Y88.887 E4.8514
G1 X133.376 Y88.889 E4.8516
G1 X139.396 Y90.879 E5.1910
G1 X139.401 Y90.880 E5.1913
G1 X145.406 Y92.918 E5.5307
G1 X145.411 Y92.920 E5.5309
G1 X151.398 Y95.006 E5.8703
G1 X151.403 Y95.008 E5.8706
G1 X157.374 Y97.142 E6.2100
G1 X157.379 Y97.144 E6.2102
G1 X163.348 Y99.331 E6.5505
G1 X163.351 Y99.333 E6.5507
G1 X163.385 Y99.346 E6.5526
G1 X163.388 Y99.348 E6.5528
G1 X163.804 Y99.531 E6.5771
G1 X163.811 Y99.534 E6.5775
G1 X163.870 Y99.565 E6.5811
G1 X163.877 Y99.568 E6.5815
G1 X164.281 Y99.808 E6.6067
G1 X164.287 Y99.812 E6.6071
G1 X164.343 Y99.849 E6.6107
G1 X164.349 Y99.854 E6.6111
G1 X164.722 Y100.140 E6.6362
G1 X164.728 Y100.144 E6.6366
G1 X164.779 Y100.189 E6.6402
G1 X164.784 Y100.194 E6.6406
G1 X165.123 Y100.524 E6.6659
G1 X165.128 Y100.530 E6.6664
G1 X165.177 Y100.584 E6.6703
G1 X165.182 Y100.591 E6.6707
G1 X165.522 Y101.022 E6.7001
G1 X165.527 Y101.029 E6.7005
G1 X165.568 Y101.088 E6.7044
G1 X165.572 Y101.095 E6.7049
G1 X165.814 Y101.501 E6.7301
G1 X165.818 Y101.507 E6.7305
G1 X165.849 Y101.567 E6.7341
G1 X165.852 Y101.574 E6.7345
G1 X166.043 Y102.003 E6.7597
G1 X166.046 Y102.010 E6.7601
G1 X166.069 Y102.073 E6.7637
G1 X166.072 Y102.080 E6.7641
G1 X166.210 Y102.529 E6.7892
G1 X166.212 Y102.536 E6.7896
G1 X166.228 Y102.602 E6.7932
G1 X166.230 Y102.609 E6.7936
G1 X166.313 Y103.071 E6.8188
G1 X166.314 Y103.079 E6.8192
G1 X166.322 Y103.145 E6.8228
G1 X166.323 Y103.153 E6.8232
G1 X166.350 Y103.605 E6.8474
G1 X166.350 Y103.609 E6.8476
G1 X166.351 Y103.642 E6.8494
G1 X166.351 Y103.646 E6.8496
G1 X166.351 Y116.935 E7.5610
G1 X166.351 Y116.946 E7.5616
G1 X166.342 Y117.044 E7.5668
G1 X166.341 Y117.055 E7.5674
G1 X166.288 Y117.353 E7.5836
G1 X166.281 Y117.379 E7.5850
G1 X166.187 Y117.606 E7.5982
G1 X166.173 Y117.630 E7.5997
G1 X165.921 Y117.991 E7.6233
G1 X165.903 Y118.012 E7.6247
G1 X165.721 Y118.178 E7.6379
G1 X165.699 Y118.194 E7.6394
G1 X165.394 Y118.370 E7.6582
G1 X165.375 Y118.379 E7.6594
G1 X165.190 Y118.447 E7.6699
G1 X165.169 Y118.452 E7.6711
G1 X164.895 Y118.501 E7.6860
G1 X164.884 Y118.502 E7.6865
G1 X164.786 Y118.511 E7.6918
G1 X164.776 Y118.511 E7.6924
G1 X159.153 Y118.511 E7.9934
G1 X159.136 Y118.510 E7.9942
G1 X158.990 Y118.491 E8.0021
G1 X158.974 Y118.487 E8.0030
G1 X158.596 Y118.386 E8.0239
G1 X158.571 Y118.376 E8.0254
G1 X158.352 Y118.263 E8.0386
G1 X158.330 Y118.247 E8.0400
G1 X158.060 Y118.021 E8.0589
G1 X158.045 Y118.006 E8.0600
G1 X157.918 Y117.855 E8.0706
G1 X157.906 Y117.837 E8.0717
G1 X157.742 Y117.554 E8.0892
G1 X157.733 Y117.534 E8.0904
G1 X157.666 Y117.349 E8.1010
G1 X157.660 Y117.328 E8.1021
G1 X157.612 Y117.055 E8.1170
G1 X157.610 Y117.044 E8.1176
G1 X157.602 Y116.946 E8.1228
G1 X157.601 Y116.935 E8.1234
G1 X157.601 Y108.233 E8.5892
G1 X157.584 Y107.932 E8.6054
G1 X157.540 Y107.669 E8.6197
G1 X157.465 Y107.413 E8.6339
G1 X157.363 Y107.166 E8.6482
G1 X157.248 Y106.959 E8.6609
G1 X156.906 Y106.524 E8.6905
G1 X156.731 Y106.364 E8.7032
G1 X156.516 Y106.206 E8.7175
G1 X156.284 Y106.074 E8.7318
G1 X156.009 Y105.956 E8.7478
G1 X150.462 Y103.958 E9.0634
G1 X144.871 Y101.992 E9.3806
G1 X139.264 Y100.067 E9.6980
G1 X133.642 Y98.186 E10.0153
G1 X128.007 Y96.347 E10.3326
G1 X122.358 Y94.551 E10.6498
G1 X116.694 Y92.798 E10.9672
G1 X111.019 Y91.088 E11.2845
G1 X105.332 Y89.421 E11.6017
G1 X99.630 Y87.797 E11.9191
G1 X93.916 Y86.217 E12.2364
G1 X88.191 Y84.680 E12.5537
G1 X82.470 Y83.190 E12.8702
G1 X81.670 Y83.009 E12.9141
G1 X80.876 Y82.875 E12.9572
G1 X80.075 Y82.786 E13.0003
G1 X79.271 Y82.741 E13.0434
G1 X78.466 Y82.742 E13.0865
G1 X77.662 Y82.788 E13.1296
G1 X76.862 Y82.879 E13.1727
G1 X76.068 Y83.015 E13.2158
G1 X75.267 Y83.199 E13.2598
G1 X58.439 Y87.554 E14.1903
G1 X58.013 Y87.687 E14.2141
G1 X57.629 Y87.847 E14.2364
G1 X57.263 Y88.043 E14.2587
G1 X56.916 Y88.274 E14.2809
G1 X56.593 Y88.536 E14.3032
G1 X56.293 Y88.831 E14.3257
G1 X56.072 Y89.091 E14.3440
G1 X55.827 Y89.434 E14.3666
G1 X55.619 Y89.794 E14.3888
G1 X55.446 Y90.173 E14.4111
G1 X55.310 Y90.566 E14.4334
G1 X55.212 Y90.970 E14.4556
G1 X55.153 Y91.382 E14.4779
G1 X55.132 Y91.827 E14.5018
G1 X55.132 Y104.819 E15.1972
G1 X55.131 Y104.830 E15.1978
G1 X55.123 Y104.928 E15.2031
G1 X55.121 Y104.939 E15.2036
G1 X55.047 Y105.359 E15.2265
G1 X55.043 Y105.375 E15.2274
G1 X54.999 Y105.516 E15.2352
G1 X54.993 Y105.531 E15.2361
G1 X54.876 Y105.780 E15.2509
G1 X54.871 Y105.790 E15.2514
G1 X54.822 Y105.875 E15.2567
G1 X54.816 Y105.884 E15.2573
G1 X54.659 Y106.110 E15.2720
G1 X54.648 Y106.123 E15.2729
G1 X54.549 Y106.231 E15.2808
G1 X54.537 Y106.243 E15.2817
G1 X54.191 Y106.533 E15.3058
G1 X54.178 Y106.543 E15.3067
G1 X54.054 Y106.622 E15.3146
G1 X54.039 Y106.630 E15.3155
G1 X53.767 Y106.756 E15.3315
G1 X53.752 Y106.762 E15.3324
G1 X53.611 Y106.807 E15.3403
G1 X53.596 Y106.811 E15.3412
G1 X53.175 Y106.885 E15.3640
G1 X53.164 Y106.886 E15.3646
G1 X53.067 Y106.895 E15.3699
G1 X53.056 Y106.895 E15.3704
G1 X46.458 Y106.895 E15.7236
G1 X46.447 Y106.895 E15.7242
G1 X46.349 Y106.886 E15.7295
G1 X46.338 Y106.885 E15.7301
G1 X45.893 Y106.806 E15.7542
G1 X45.872 Y106.801 E15.7554
G1 X45.687 Y106.733 E15.7659
G1 X45.668 Y106.724 E15.7671
G1 X45.234 Y106.474 E15.7939
G1 X45.216 Y106.461 E15.7951
G1 X45.065 Y106.335 E15.8056
G1 X45.050 Y106.319 E15.8068
G1 X44.728 Y105.936 E15.8336
G1 X44.715 Y105.918 E15.8347
G1 X44.617 Y105.747 E15.8453
G1 X44.608 Y105.728 E15.8464
G1 X44.445 Y105.280 E15.8719
G1 X44.440 Y105.265 E15.8728
G1 X44.409 Y105.121 E15.8807
G1 X44.406 Y105.104 E15.8816
G1 X44.384 Y104.855 E15.8950
G1 X44.384 Y104.849 E15.8953
G1 X44.382 Y104.800 E15.8979
G1 X44.382 Y104.795 E15.8982
G1 X44.382 Y68.674 E17.8317
G1 X44.382 Y68.664 E17.8322
G1 X44.389 Y68.573 E17.8371
G1 X44.391 Y68.563 E17.8376
G1 X44.483 Y67.993 E17.8685
G1 X44.488 Y67.974 E17.8696
G1 X44.546 Y67.801 E17.8793
G1 X44.554 Y67.783 E17.8804
G1 X44.833 Y67.251 E17.9126
G1 X44.841 Y67.238 E17.9134
G1 X44.918 Y67.126 E17.9207
G1 X44.927 Y67.114 E17.9215
G1 X45.165 Y66.847 E17.9406
G1 X45.175 Y66.836 E17.9414
G1 X45.277 Y66.746 E17.9487
G1 X45.289 Y66.736 E17.9495
G1 X45.784 Y66.396 E17.9817
G92 E0
G1 E-2.5000 F2400
G1 Z0.450 F216
; outer perimeter
G1 X46.523 Y67.699 F5400
G1 X46.523 Y67.699 F5400
G1 X46.526 Y67.703 F5400
G1 Z0.250 F216
G1 E0.0000 F2400
G92 E0
G1 X46.695 Y67.639 E0.0097 F720
G1 X46.872 Y67.603 E0.0194
G1 X47.053 Y67.596 E0.0291
G1 X47.243 Y67.619 E0.0393
G1 X53.432 Y68.918 E0.3778
G1 X59.620 Y70.268 E0.7168
G1 X65.798 Y71.668 E1.0559
G1 X71.965 Y73.117 E1.3950
G1 X78.118 Y74.616 E1.7340
G1 X84.261 Y76.164 E2.0731
G1 X90.390 Y77.762 E2.4122
G1 X96.505 Y79.408 E2.7511
G1 X102.609 Y81.104 E3.0903
G1 X108.698 Y82.849 E3.4293
G1 X114.773 Y84.642 E3.7683
G1 X120.833 Y86.484 E4.1074
G1 X126.878 Y88.375 E4.4464
G1 X132.909 Y90.315 E4.7855
G1 X138.922 Y92.302 E5.1245
G1 X144.921 Y94.338 E5.4636
G1 X150.902 Y96.422 E5.8026
G1 X156.866 Y98.553 E6.1416
G1 X162.807 Y100.731 E6.4803
G1 X163.154 Y100.884 E6.5007
G1 X163.475 Y101.074 E6.5206
G1 X163.771 Y101.301 E6.5406
G1 X164.036 Y101.560 E6.5604
G1 X164.311 Y101.909 E6.5842
G1 X164.501 Y102.228 E6.6041
G1 X164.653 Y102.568 E6.6240
G1 X164.762 Y102.924 E6.6440
G1 X164.829 Y103.291 E6.6639
G1 X164.851 Y103.670 E6.6843
G1 X164.851 Y116.864 E7.3905
G1 X164.840 Y116.927 E7.3939
G1 X164.814 Y116.973 E7.3968
G1 X164.768 Y117.000 E7.3996
G1 X164.705 Y117.011 E7.4031
G1 X159.248 Y117.011 E7.6951
G1 X159.174 Y116.998 E7.6991
G1 X159.134 Y116.964 E7.7020
G1 X159.113 Y116.927 E7.7042
G1 X159.101 Y116.864 E7.7077
G1 X159.101 Y108.191 E8.1719
G1 X159.077 Y107.763 E8.1949
G1 X159.004 Y107.333 E8.2182
G1 X158.883 Y106.914 E8.2416
G1 X158.715 Y106.512 E8.2649
G1 X158.504 Y106.132 E8.2882
G1 X158.290 Y105.826 E8.3081
G1 X158.006 Y105.498 E8.3314
