; G-Code generated by Simplify3D(R) Version 4.0.0
; Oct 28, 2018 at 8:43:07 PM
; Settings Summary
;   processName,FL
;   applyToModels,Insert
;   profileName,PLA FL (modified)
;   profileVersion,2018-10-01 17:29:14
;   baseProfile,Default
;   printMaterial,PLA
;   printQuality,Medium
;   printExtruders,
;   extruderName,Extruder 1
;   extruderToolheadNumber,0
;   extruderDiameter,0.5
;   extruderAutoWidth,0
;   extruderWidth,0.5
;   extrusionMultiplier,1.01
;   extruderUseRetract,1
;   extruderRetractionDistance,2
;   extruderExtraRestartDistance,0
;   extruderRetractionZLift,0.2
;   extruderRetractionSpeed,2400
;   extruderUseCoasting,0
;   extruderCoastingDistance,0.2
;   extruderUseWipe,0
;   extruderWipeDistance,5
;   primaryExtruder,0
;   layerHeight,0.2
;   topSolidLayers,3
;   bottomSolidLayers,3
;   perimeterOutlines,2
;   printPerimetersInsideOut,0
;   startPointOption,2
;   startPointOriginX,70
;   startPointOriginY,80
;   sequentialIslands,0
;   spiralVaseMode,0
;   firstLayerHeightPercentage,100
;   firstLayerWidthPercentage,100
;   firstLayerUnderspeed,1
;   useRaft,0
;   raftExtruder,0
;   raftTopLayers,1
;   raftBaseLayers,0
;   raftOffset,2
;   raftSeparationDistance,0.1
;   raftTopInfill,80
;   aboveRaftSpeedMultiplier,0.6
;   useSkirt,1
;   skirtExtruder,0
;   skirtLayers,1
;   skirtOutlines,4
;   skirtOffset,0.1
;   usePrimePillar,0
;   primePillarExtruder,999
;   primePillarWidth,12
;   primePillarLocation,7
;   primePillarSpeedMultiplier,1
;   useOozeShield,0
;   oozeShieldExtruder,999
;   oozeShieldOffset,2
;   oozeShieldOutlines,1
;   oozeShieldSidewallShape,1
;   oozeShieldSidewallAngle,30
;   oozeShieldSpeedMultiplier,1
;   infillExtruder,0
;   internalInfillPattern,Rectilinear
;   externalInfillPattern,Rectilinear
;   infillPercentage,40
;   outlineOverlapPercentage,30
;   infillExtrusionWidthPercentage,102
;   minInfillLength,5
;   infillLayerInterval,1
;   internalInfillAngles,45,-45
;   overlapInternalInfillAngles,0
;   externalInfillAngles,45,-45
;   generateSupport,0
;   supportExtruder,0
;   supportInfillPercentage,10
;   supportExtraInflation,1
;   supportBaseLayers,0
;   denseSupportExtruder,0
;   denseSupportLayers,2
;   denseSupportInfillPercentage,70
;   supportLayerInterval,1
;   supportHorizontalPartOffset,0.7
;   supportUpperSeparationLayers,1
;   supportLowerSeparationLayers,1
;   supportType,0
;   supportGridSpacing,4
;   maxOverhangAngle,45
;   supportAngles,0
;   temperatureName,Extruder 1 Temperature,Heated Bed
;   temperatureNumber,0,0
;   temperatureSetpointCount,1,1
;   temperatureSetpointLayers,1,1
;   temperatureSetpointTemperatures,205,42
;   temperatureStabilizeAtStartup,0,0
;   temperatureHeatedBed,0,1
;   temperatureRelayBetweenLayers,0,0
;   temperatureRelayBetweenLoops,0,0
;   fanLayers,1
;   fanSpeeds,0
;   blipFanToFullPower,0
;   adjustSpeedForCooling,0
;   minSpeedLayerTime,5
;   minCoolingSpeedSlowdown,30
;   increaseFanForCooling,0
;   minFanLayerTime,45
;   maxCoolingFanSpeed,100
;   increaseFanForBridging,1
;   bridgingFanSpeed,95
;   use5D,1
;   relativeEdistances,0
;   allowEaxisZeroing,1
;   independentExtruderAxes,0
;   includeM10123,0
;   stickySupport,1
;   applyToolheadOffsets,0
;   gcodeXoffset,0
;   gcodeYoffset,0
;   gcodeZoffset,0
;   overrideMachineDefinition,1
;   machineTypeOverride,0
;   strokeXoverride,210
;   strokeYoverride,200
;   strokeZoverride,250
;   originOffsetXoverride,0
;   originOffsetYoverride,0
;   originOffsetZoverride,0
;   homeXdirOverride,-1
;   homeYdirOverride,-1
;   homeZdirOverride,-1
;   flipXoverride,1
;   flipYoverride,-1
;   flipZoverride,1
;   toolheadOffsets,0,0|0,0|0,0|0,0|0,0|0,0
;   overrideFirmwareConfiguration,0
;   firmwareTypeOverride,RepRap (Marlin/Repetier/Sprinter)
;   GPXconfigOverride,r2
;   baudRateOverride,115200
;   overridePrinterModels,0
;   printerModelsOverride
;   startingGcode,M501,M420 S1,,M107 ,G92 E0 ,G90,G1 Z6.00 F200 ; Lift Z up,G90,G1 X70.0 Y10.0 F3600 ; Go to Clean place,G4 S2 ; Wait for Cleaning Tip,M300 S2200 P100 ; Make beep,M300 S2500 P250,,G1 X70.0 Y10.0  F3600 ; Purge Start,G1 Z0.25 F200,G1 X150.0 E17.0 F900,,;G1 E15.0 F900,;G4 S2,;G1 Y25.0 F3600,M117 PRINTING...,,,,
;   layerChangeGcode,
;   retractionGcode,
;   toolChangeGcode,
;   endingGcode,G91,G1 E-3.0 F2000	;Relieve pressure,G1 X+5.0 F6000 ;Move X paidly,G1 Z+2.0 F200	; Raize Z,G90,M104 S0 	; turn off temperature,G28 X0 	; home X axis,G91,G1 E-15.0 F800	; Withdraw filament for removal ,M84                    ; disable motors,M140 S0	; Turn Off heated bed,M106 S195	; Turn On Fans for rapid cooling,G4 S1 	; Play End tune,M300 S2200 P400,M300 S2000 P300	,M300 S1800 P200,G4 S1,M300 S2400 P200,M300 S2600 P400,G4 P1500,M300 S2650 P700,G4 S90,M106 S0
;   exportFileFormat,gcode
;   celebration,0
;   celebrationSong,Random Song
;   postProcessing,
;   defaultSpeed,480
;   outlineUnderspeed,1
;   solidInfillUnderspeed,1
;   supportUnderspeed,0.8
;   rapidXYspeed,5400
;   rapidZspeed,216
;   minBridgingArea,50
;   bridgingExtraInflation,1.5
;   bridgingExtrusionMultiplier,0.98
;   bridgingSpeedMultiplier,1
;   useFixedBridgingAngle,0
;   fixedBridgingAngle,0
;   applyBridgingToPerimeters,0
;   filamentDiameters,1.75|1.75|1.75|1.75|1.75|1.75
;   filamentPricesPerKg,0|920|920|920|920|920
;   filamentDensities,1.25|1.25|1.25|1.25|1.25|1.25
;   useMinPrintHeight,0
;   minPrintHeight,35
;   useMaxPrintHeight,1
;   maxPrintHeight,0.2
;   useDiaphragm,0
;   diaphragmLayerInterval,20
;   robustSlicing,1
;   mergeAllIntoSolid,0
;   onlyRetractWhenCrossingOutline,0
;   retractBetweenLayers,0
;   useRetractionMinTravel,1
;   retractionMinTravel,1.5
;   retractWhileWiping,0
;   onlyWipeOutlines,1
;   avoidCrossingOutline,1
;   maxMovementDetourFactor,3
;   toolChangeRetractionDistance,12
;   toolChangeExtraRestartDistance,-0.5
;   toolChangeRetractionSpeed,600
;   externalThinWallType,1
;   internalThinWallType,1
;   thinWallAllowedOverlapPercentage,100
;   singleExtrusionMinLength,1
;   singleExtrusionMinPrintingWidthPercentage,100
;   singleExtrusionMaxPrintingWidthPercentage,200
;   singleExtrusionEndpointExtension,0.2
;   horizontalSizeCompensation,0
G90
M82
M106 S0
M140 S42
M104 S205 T0
M501
M420 S1
M107 
G92 E0 
G90
G1 Z6.00 F200 ; Lift Z up
G90
G1 X70.0 Y10.0 F3600 ; Go to Clean place
G4 S2 ; Wait for Cleaning Tip
M300 S2200 P100 ; Make beep
M300 S2500 P250
G1 X70.0 Y10.0  F3600 ; Purge Start
G1 Z0.25 F200
G1 X150.0 E17.0 F900
;G1 E15.0 F900
;G4 S2
;G1 Y25.0 F3600
M117 PRINTING...
G92 E0
G1 E-2.0000 F2400
G1 Z0.400 F216
; process FL
; layer 1, Z = 0.200
T0
; tool H0.200 W0.500
; skirt
G1 X100.079 Y95.583 F5400
G1 Z0.200 F216
G1 E0.0000 F720
G92 E0
G1 X100.502 Y95.154 E0.0253 F480
G1 X100.538 Y95.119 E0.0274
G1 X100.580 Y95.081 E0.0298
G1 X100.618 Y95.048 E0.0319
G1 X101.088 Y94.670 E0.0572
G1 X101.122 Y94.644 E0.0590
G1 X101.160 Y94.616 E0.0610
G1 X101.194 Y94.592 E0.0627
G1 X101.536 Y94.367 E0.0799
G1 X101.565 Y94.349 E0.0814
G1 X101.597 Y94.329 E0.0829
G1 X101.625 Y94.313 E0.0843
G1 X101.983 Y94.115 E0.1015
G1 X102.020 Y94.096 E0.1033
G1 X102.063 Y94.075 E0.1052
G1 X102.101 Y94.057 E0.1070
G1 X102.650 Y93.820 E0.1321
G1 X102.689 Y93.804 E0.1339
G1 X102.733 Y93.787 E0.1359
G1 X102.772 Y93.773 E0.1376
G1 X103.166 Y93.646 E0.1550
G1 X103.206 Y93.634 E0.1568
G1 X103.252 Y93.622 E0.1587
G1 X103.293 Y93.612 E0.1605
G1 X103.876 Y93.484 E0.1856
G1 X103.917 Y93.476 E0.1873
G1 X103.963 Y93.468 E0.1893
G1 X104.006 Y93.462 E0.1911
G1 X104.417 Y93.413 E0.2085
G1 X104.458 Y93.409 E0.2102
G1 X104.505 Y93.405 E0.2122
G1 X104.548 Y93.403 E0.2140
G1 X105.151 Y93.389 E0.2393
G1 X105.201 Y93.390 E0.2414
G1 X105.257 Y93.391 E0.2438
G1 X105.308 Y93.395 E0.2459
G1 X105.908 Y93.450 E0.2712
G1 X105.951 Y93.455 E0.2731
G1 X105.997 Y93.462 E0.2750
G1 X106.038 Y93.469 E0.2768
G1 X106.444 Y93.546 E0.2941
G1 X106.486 Y93.555 E0.2959
G1 X106.531 Y93.566 E0.2979
G1 X106.572 Y93.577 E0.2996
G1 X107.145 Y93.745 E0.3247
G1 X107.183 Y93.757 E0.3264
G1 X107.228 Y93.773 E0.3284
G1 X107.269 Y93.788 E0.3302
G1 X107.654 Y93.943 E0.3477
G1 X107.693 Y93.959 E0.3494
G1 X107.736 Y93.979 E0.3514
G1 X107.773 Y93.997 E0.3532
G1 X108.304 Y94.272 E0.3782
G1 X108.340 Y94.292 E0.3800
G1 X108.381 Y94.316 E0.3820
G1 X108.417 Y94.338 E0.3838
G1 X108.765 Y94.563 E0.4012
G1 X108.801 Y94.587 E0.4030
G1 X108.839 Y94.615 E0.4049
G1 X108.872 Y94.640 E0.4067
G1 X109.340 Y95.011 E0.4318
G1 X109.373 Y95.038 E0.4335
G1 X109.408 Y95.069 E0.4355
G1 X109.439 Y95.097 E0.4373
G1 X109.737 Y95.384 E0.4546
G1 X109.766 Y95.414 E0.4564
G1 X109.798 Y95.448 E0.4584
G1 X109.827 Y95.480 E0.4602
G1 X110.218 Y95.938 E0.4855
G1 X110.250 Y95.978 E0.4876
G1 X110.284 Y96.022 E0.4900
G1 X110.313 Y96.063 E0.4921
G1 X110.652 Y96.567 E0.5176
G1 X110.679 Y96.611 E0.5197
G1 X110.708 Y96.659 E0.5221
G1 X110.732 Y96.703 E0.5242
G1 X111.012 Y97.246 E0.5498
G1 X111.037 Y97.299 E0.5523
G1 X111.064 Y97.359 E0.5551
G1 X111.085 Y97.415 E0.5576
G1 X111.353 Y98.168 E0.5911
G1 X111.371 Y98.223 E0.5936
G1 X111.388 Y98.287 E0.5963
G1 X111.403 Y98.345 E0.5989
G1 X111.528 Y98.944 E0.6245
G1 X111.537 Y98.993 E0.6266
G1 X111.545 Y99.049 E0.6290
G1 X111.551 Y99.099 E0.6312
G1 X111.606 Y99.700 E0.6565
G1 X111.609 Y99.743 E0.6583
G1 X111.611 Y99.790 E0.6603
G1 X111.611 Y99.831 E0.6620
G1 X111.609 Y100.244 E0.6793
G1 X111.608 Y100.284 E0.6810
G1 X111.605 Y100.331 E0.6830
G1 X111.602 Y100.375 E0.6848
G1 X111.540 Y100.980 E0.7104
G1 X111.532 Y101.038 E0.7129
G1 X111.521 Y101.103 E0.7156
G1 X111.509 Y101.161 E0.7181
G1 X111.321 Y101.938 E0.7516
G1 X111.306 Y101.994 E0.7541
G1 X111.286 Y102.057 E0.7569
G1 X111.266 Y102.113 E0.7594
G1 X111.044 Y102.683 E0.7851
G1 X111.024 Y102.730 E0.7872
G1 X111.001 Y102.781 E0.7895
G1 X110.978 Y102.826 E0.7917
G1 X110.692 Y103.367 E0.8174
G1 X110.662 Y103.419 E0.8199
G1 X110.627 Y103.475 E0.8226
G1 X110.595 Y103.523 E0.8251
G1 X110.129 Y104.172 E0.8586
G1 X110.093 Y104.219 E0.8611
G1 X110.051 Y104.270 E0.8639
G1 X110.012 Y104.314 E0.8664
G1 X109.595 Y104.755 E0.8919
G1 X109.565 Y104.785 E0.8936
G1 X109.531 Y104.818 E0.8956
G1 X109.500 Y104.846 E0.8974
G1 X109.188 Y105.118 E0.9147
G1 X109.156 Y105.145 E0.9165
G1 X109.119 Y105.174 E0.9185
G1 X109.085 Y105.200 E0.9203
G1 X108.596 Y105.550 E0.9455
G1 X108.554 Y105.578 E0.9476
G1 X108.506 Y105.608 E0.9500
G1 X108.462 Y105.634 E0.9522
G1 X107.935 Y105.925 E0.9775
G1 X107.898 Y105.945 E0.9792
G1 X107.856 Y105.965 E0.9812
G1 X107.817 Y105.983 E0.9830
G1 X107.437 Y106.148 E1.0004
G1 X107.398 Y106.164 E1.0021
G1 X107.354 Y106.180 E1.0041
G1 X107.314 Y106.194 E1.0059
G1 X106.737 Y106.381 E1.0314
G1 X106.681 Y106.397 E1.0338
G1 X106.617 Y106.413 E1.0366
G1 X106.559 Y106.425 E1.0391
G1 X105.771 Y106.566 E1.0727
G1 X105.713 Y106.575 E1.0751
G1 X105.648 Y106.582 E1.0779
G1 X105.589 Y106.586 E1.0804
G1 X104.982 Y106.612 E1.1059
G1 X104.940 Y106.613 E1.1077
G1 X104.893 Y106.613 E1.1096
G1 X104.851 Y106.611 E1.1114
G1 X104.438 Y106.589 E1.1288
G1 X104.396 Y106.586 E1.1305
G1 X104.349 Y106.581 E1.1325
G1 X104.307 Y106.576 E1.1343
G1 X103.716 Y106.486 E1.1594
G1 X103.675 Y106.479 E1.1611
G1 X103.629 Y106.470 E1.1631
G1 X103.588 Y106.460 E1.1649
G1 X103.186 Y106.359 E1.1823
G1 X103.145 Y106.348 E1.1840
G1 X103.100 Y106.334 E1.1860
G1 X103.060 Y106.321 E1.1878
G1 X102.498 Y106.120 E1.2129
G1 X102.459 Y106.106 E1.2146
G1 X102.416 Y106.088 E1.2166
G1 X102.377 Y106.070 E1.2184
G1 X102.001 Y105.894 E1.2358
G1 X101.962 Y105.874 E1.2376
G1 X101.921 Y105.852 E1.2396
G1 X101.885 Y105.832 E1.2413
G1 X101.371 Y105.527 E1.2664
G1 X101.335 Y105.505 E1.2682
G1 X101.296 Y105.479 E1.2702
G1 X101.262 Y105.455 E1.2719
G1 X100.927 Y105.210 E1.2893
G1 X100.892 Y105.183 E1.2912
G1 X100.856 Y105.153 E1.2932
G1 X100.825 Y105.127 E1.2948
G1 X100.377 Y104.727 E1.3201
G1 X100.341 Y104.693 E1.3222
G1 X100.301 Y104.653 E1.3245
G1 X100.266 Y104.616 E1.3267
G1 X99.859 Y104.158 E1.3524
G1 X99.820 Y104.112 E1.3549
G1 X99.780 Y104.060 E1.3577
G1 X99.746 Y104.013 E1.3601
G1 X99.300 Y103.350 E1.3937
G1 X99.269 Y103.300 E1.3961
G1 X99.236 Y103.243 E1.3989
G1 X99.208 Y103.191 E1.4014
G1 X98.940 Y102.645 E1.4269
G1 X98.922 Y102.607 E1.4287
G1 X98.904 Y102.563 E1.4307
G1 X98.888 Y102.525 E1.4324
G1 X98.742 Y102.138 E1.4498
G1 X98.728 Y102.097 E1.4516
G1 X98.714 Y102.053 E1.4536
G1 X98.702 Y102.013 E1.4553
G1 X98.546 Y101.436 E1.4804
G1 X98.536 Y101.394 E1.4822
G1 X98.526 Y101.348 E1.4842
G1 X98.518 Y101.308 E1.4859
G1 X98.449 Y100.899 E1.5033
G1 X98.443 Y100.857 E1.5051
G1 X98.437 Y100.810 E1.5071
G1 X98.433 Y100.769 E1.5088
G1 X98.390 Y100.173 E1.5339
G1 X98.388 Y100.131 E1.5357
G1 X98.387 Y100.084 E1.5377
G1 X98.387 Y100.042 E1.5394
G1 X98.398 Y99.628 E1.5568
G1 X98.400 Y99.586 E1.5586
G1 X98.403 Y99.539 E1.5605
G1 X98.407 Y99.497 E1.5623
G1 X98.480 Y98.899 E1.5876
G1 X98.488 Y98.849 E1.5897
G1 X98.498 Y98.794 E1.5921
G1 X98.508 Y98.744 E1.5942
G1 X98.652 Y98.151 E1.6199
G1 X98.667 Y98.096 E1.6223
G1 X98.686 Y98.036 E1.6249
G1 X98.704 Y97.983 E1.6272
G1 X98.968 Y97.293 E1.6583
G1 X98.988 Y97.246 E1.6604
G1 X99.011 Y97.195 E1.6628
G1 X99.033 Y97.150 E1.6649
G1 X99.253 Y96.729 E1.6848
G1 X99.274 Y96.691 E1.6867
G1 X99.300 Y96.648 E1.6887
G1 X99.324 Y96.609 E1.6907
G1 X99.654 Y96.110 E1.7158
G1 X99.677 Y96.076 E1.7175
G1 X99.705 Y96.038 E1.7195
G1 X99.731 Y96.004 E1.7213
G1 X99.992 Y95.681 E1.7387
G1 X100.019 Y95.649 E1.7405
G1 X100.050 Y95.614 E1.7424
G1 X100.079 Y95.583 E1.7442
G1 X100.440 Y95.930 F5400
G92 E0
G1 X100.853 Y95.509 E0.0247 F480
G1 X100.879 Y95.485 E0.0262
G1 X100.910 Y95.456 E0.0280
G1 X100.938 Y95.433 E0.0295
G1 X101.397 Y95.063 E0.0543
G1 X101.421 Y95.044 E0.0556
G1 X101.449 Y95.024 E0.0570
G1 X101.473 Y95.007 E0.0583
G1 X101.806 Y94.788 E0.0750
G1 X101.827 Y94.775 E0.0760
G1 X101.851 Y94.760 E0.0772
G1 X101.872 Y94.748 E0.0782
G1 X102.220 Y94.556 E0.0949
G1 X102.247 Y94.542 E0.0962
G1 X102.278 Y94.526 E0.0977
G1 X102.305 Y94.514 E0.0989
G1 X102.843 Y94.281 E0.1235
G1 X102.871 Y94.270 E0.1248
G1 X102.903 Y94.257 E0.1262
G1 X102.932 Y94.247 E0.1275
G1 X103.314 Y94.124 E0.1444
G1 X103.343 Y94.115 E0.1456
G1 X103.377 Y94.106 E0.1471
G1 X103.406 Y94.099 E0.1484
G1 X103.978 Y93.974 E0.1730
G1 X104.007 Y93.968 E0.1742
G1 X104.041 Y93.962 E0.1757
G1 X104.072 Y93.958 E0.1770
G1 X104.471 Y93.910 E0.1938
G1 X104.500 Y93.907 E0.1951
G1 X104.535 Y93.904 E0.1965
G1 X104.566 Y93.903 E0.1978
G1 X105.155 Y93.889 E0.2226
G1 X105.191 Y93.889 E0.2241
G1 X105.233 Y93.891 E0.2259
G1 X105.269 Y93.893 E0.2274
G1 X105.856 Y93.948 E0.2521
G1 X105.886 Y93.951 E0.2534
G1 X105.921 Y93.956 E0.2549
G1 X105.950 Y93.961 E0.2561
G1 X106.345 Y94.036 E0.2730
G1 X106.374 Y94.043 E0.2742
G1 X106.408 Y94.051 E0.2757
G1 X106.437 Y94.059 E0.2770
G1 X106.998 Y94.223 E0.3015
G1 X107.026 Y94.232 E0.3028
G1 X107.059 Y94.243 E0.3042
G1 X107.088 Y94.254 E0.3055
G1 X107.462 Y94.404 E0.3225
G1 X107.490 Y94.416 E0.3237
G1 X107.522 Y94.431 E0.3252
G1 X107.549 Y94.444 E0.3264
G1 X108.068 Y94.713 E0.3510
G1 X108.095 Y94.728 E0.3523
G1 X108.125 Y94.745 E0.3538
G1 X108.151 Y94.761 E0.3550
G1 X108.489 Y94.980 E0.3719
G1 X108.514 Y94.997 E0.3732
G1 X108.542 Y95.017 E0.3747
G1 X108.566 Y95.035 E0.3759
G1 X109.024 Y95.399 E0.4005
G1 X109.048 Y95.418 E0.4018
G1 X109.074 Y95.441 E0.4032
G1 X109.096 Y95.461 E0.4045
G1 X109.385 Y95.740 E0.4214
G1 X109.406 Y95.762 E0.4226
G1 X109.430 Y95.787 E0.4241
G1 X109.451 Y95.810 E0.4254
G1 X109.833 Y96.257 E0.4501
G1 X109.856 Y96.286 E0.4516
G1 X109.882 Y96.319 E0.4534
G1 X109.902 Y96.348 E0.4549
G1 X110.233 Y96.840 E0.4798
G1 X110.253 Y96.871 E0.4813
