; G-Code generated by Simplify3D(R) Version 4.0.0
; Jul 15, 2018 at 4:13:23 PM
; Settings Summary
;   processName,FL
;   applyToModels,Knob_Trial
;   profileName,0.4 PLA (modified)
;   profileVersion,2017-08-11 22:21:44
;   baseProfile,Default
;   printMaterial,PLA
;   printQuality,Medium
;   printExtruders,
;   extruderName,Extruder 1
;   extruderToolheadNumber,0
;   extruderDiameter,0.4
;   extruderAutoWidth,0
;   extruderWidth,0.4
;   extrusionMultiplier,1.02
;   extruderUseRetract,1
;   extruderRetractionDistance,2
;   extruderExtraRestartDistance,0
;   extruderRetractionZLift,0.2
;   extruderRetractionSpeed,2700
;   extruderUseCoasting,0
;   extruderCoastingDistance,0.2
;   extruderUseWipe,0
;   extruderWipeDistance,5
;   primaryExtruder,0
;   layerHeight,0.2
;   topSolidLayers,0
;   bottomSolidLayers,0
;   perimeterOutlines,2
;   printPerimetersInsideOut,1
;   startPointOption,3
;   startPointOriginX,50
;   startPointOriginY,50
;   sequentialIslands,0
;   spiralVaseMode,0
;   firstLayerHeightPercentage,100
;   firstLayerWidthPercentage,105
;   firstLayerUnderspeed,1
;   useRaft,0
;   raftExtruder,0
;   raftTopLayers,3
;   raftBaseLayers,2
;   raftOffset,3
;   raftSeparationDistance,0.14
;   raftTopInfill,100
;   aboveRaftSpeedMultiplier,0.3
;   useSkirt,1
;   skirtExtruder,0
;   skirtLayers,1
;   skirtOutlines,1
;   skirtOffset,0.5
;   usePrimePillar,0
;   primePillarExtruder,999
;   primePillarWidth,12
;   primePillarLocation,7
;   primePillarSpeedMultiplier,1
;   useOozeShield,0
;   oozeShieldExtruder,999
;   oozeShieldOffset,2
;   oozeShieldOutlines,1
;   oozeShieldSidewallShape,1
;   oozeShieldSidewallAngle,30
;   oozeShieldSpeedMultiplier,1
;   infillExtruder,0
;   internalInfillPattern,Grid
;   externalInfillPattern,Rectilinear
;   infillPercentage,50
;   outlineOverlapPercentage,25
;   infillExtrusionWidthPercentage,102
;   minInfillLength,3
;   infillLayerInterval,1
;   internalInfillAngles,45,-45
;   overlapInternalInfillAngles,1
;   externalInfillAngles,45,-45
;   generateSupport,0
;   supportExtruder,0
;   supportInfillPercentage,10
;   supportExtraInflation,1
;   supportBaseLayers,0
;   denseSupportExtruder,0
;   denseSupportLayers,2
;   denseSupportInfillPercentage,70
;   supportLayerInterval,1
;   supportHorizontalPartOffset,0.7
;   supportUpperSeparationLayers,1
;   supportLowerSeparationLayers,1
;   supportType,0
;   supportGridSpacing,4
;   maxOverhangAngle,45
;   supportAngles,0
;   temperatureName,Extruder 1 Temperature
;   temperatureNumber,0
;   temperatureSetpointCount,1
;   temperatureSetpointLayers,1
;   temperatureSetpointTemperatures,207
;   temperatureStabilizeAtStartup,1
;   temperatureHeatedBed,0
;   temperatureRelayBetweenLayers,0
;   temperatureRelayBetweenLoops,0
;   fanLayers
;   fanSpeeds
;   blipFanToFullPower,0
;   adjustSpeedForCooling,1
;   minSpeedLayerTime,5
;   minCoolingSpeedSlowdown,30
;   increaseFanForCooling,0
;   minFanLayerTime,45
;   maxCoolingFanSpeed,100
;   increaseFanForBridging,1
;   bridgingFanSpeed,95
;   use5D,1
;   relativeEdistances,0
;   allowEaxisZeroing,1
;   independentExtruderAxes,0
;   includeM10123,0
;   stickySupport,1
;   applyToolheadOffsets,0
;   gcodeXoffset,0
;   gcodeYoffset,0
;   gcodeZoffset,0
;   overrideMachineDefinition,1
;   machineTypeOverride,0
;   strokeXoverride,205
;   strokeYoverride,210
;   strokeZoverride,250
;   originOffsetXoverride,0
;   originOffsetYoverride,0
;   originOffsetZoverride,0
;   homeXdirOverride,-1
;   homeYdirOverride,-1
;   homeZdirOverride,-1
;   flipXoverride,1
;   flipYoverride,-1
;   flipZoverride,1
;   toolheadOffsets,0,0|0,0|0,0|0,0|0,0|0,0
;   overrideFirmwareConfiguration,1
;   firmwareTypeOverride,RepRap (Marlin/Repetier/Sprinter)
;   GPXconfigOverride,r2
;   baudRateOverride,115200
;   overridePrinterModels,0
;   printerModelsOverride
;   startingGcode,M107 ,G92 E0 ,G90,G1 Z7.00 F200 ; Lift Z up,G90,G1 X70.0 Y10.0 F3600 ; Go to Clean place,G4 S3 ; Wait for Cleaning Tip,M300 S2200 P100 ; Make beep,M300 S2500 P250,,G1 X65.0 Y1.5  F3600 ; Purge Start,G1 Z0.3 F200,G1 X150.0 E17.0 F900,G92 E0,M117 PRINTING...,,,,
;   layerChangeGcode,
;   retractionGcode,
;   toolChangeGcode,
;   endingGcode,G91,G1 E-3.0 F2000	;Relieve pressure,G1 X+5.0 F6000 ;Move X paidly,G1 Z+2.0 F200	; Raize Z,G90,M104 S0 	; turn off temperature,G28 X0 	; home X axis,G91,G1 E-15.0 F800	; Withdraw filament for removal ,M84                    ; disable motors,M106 S195	; Turn On Fans for rapid cooling,G4 S1 	; Play End tune,M300 S2200 P400,M300 S2000 P300	,M300 S1800 P200,G4 S1,M300 S2400 P200,M300 S2600 P400,G4 P1500,M300 S2650 P700
;   exportFileFormat,gcode
;   celebration,0
;   celebrationSong,Random Song
;   postProcessing,
;   defaultSpeed,600
;   outlineUnderspeed,1
;   solidInfillUnderspeed,1
;   supportUnderspeed,0.8
;   rapidXYspeed,5400
;   rapidZspeed,198
;   minBridgingArea,50
;   bridgingExtraInflation,0
;   bridgingExtrusionMultiplier,0.98
;   bridgingSpeedMultiplier,1
;   useFixedBridgingAngle,0
;   fixedBridgingAngle,0
;   applyBridgingToPerimeters,0
;   filamentDiameters,1.75|1.75|1.75|1.75|1.75|1.75
;   filamentPricesPerKg,920|920|920|920|920|920
;   filamentDensities,1.25|1.25|1.25|1.25|1.25|1.25
;   useMinPrintHeight,0
;   minPrintHeight,0
;   useMaxPrintHeight,1
;   maxPrintHeight,0.2
;   useDiaphragm,0
;   diaphragmLayerInterval,20
;   robustSlicing,1
;   mergeAllIntoSolid,0
;   onlyRetractWhenCrossingOutline,0
;   retractBetweenLayers,0
;   useRetractionMinTravel,1
;   retractionMinTravel,1
;   retractWhileWiping,0
;   onlyWipeOutlines,1
;   avoidCrossingOutline,0
;   maxMovementDetourFactor,3
;   toolChangeRetractionDistance,12
;   toolChangeExtraRestartDistance,-0.5
;   toolChangeRetractionSpeed,600
;   externalThinWallType,0
;   internalThinWallType,0
;   thinWallAllowedOverlapPercentage,100
;   singleExtrusionMinLength,1
;   singleExtrusionMinPrintingWidthPercentage,50
;   singleExtrusionMaxPrintingWidthPercentage,200
;   singleExtrusionEndpointExtension,0.2
;   horizontalSizeCompensation,0
G90
M82
M104 S207 T0
M109 S207 T0
M107 
G92 E0 
G90
G1 Z7.00 F200 ; Lift Z up
G90
G1 X70.0 Y10.0 F3600 ; Go to Clean place
G4 S3 ; Wait for Cleaning Tip
M300 S2200 P100 ; Make beep
M300 S2500 P250
G1 X65.0 Y1.5  F3600 ; Purge Start
G1 Z0.3 F200
G1 X150.0 E17.0 F900
G92 E0
M117 PRINTING...
G92 E0
G1 E-2.0000 F2700
G1 Z0.400 F198
; process FL
; layer 1, Z = 0.200
T0
; tool H0.200 W0.420
; skirt
G1 X56.568 Y54.876 F5400
G1 Z0.200 F198
G1 E0.0000 F810
G92 E0
G1 X56.570 Y54.874 E0.0001 F600
G1 X57.401 Y54.097 E0.0406
G1 X57.403 Y54.095 E0.0407
G1 X57.415 Y54.085 E0.0413
G1 X57.417 Y54.083 E0.0414
G1 X59.147 Y52.628 E0.1219
G1 X59.149 Y52.627 E0.1220
G1 X59.161 Y52.617 E0.1225
G1 X59.163 Y52.615 E0.1226
G1 X60.070 Y51.930 E0.1631
G1 X60.071 Y51.929 E0.1632
G1 X60.081 Y51.922 E0.1636
G1 X60.083 Y51.921 E0.1637
G1 X61.248 Y51.113 E0.2142
G1 X61.250 Y51.112 E0.2143
G1 X61.263 Y51.104 E0.2148
G1 X61.265 Y51.102 E0.2149
G1 X62.944 Y50.057 E0.2854
G1 X62.946 Y50.056 E0.2855
G1 X62.961 Y50.047 E0.2861
G1 X62.963 Y50.046 E0.2862
G1 X64.208 Y49.363 E0.3367
G1 X64.210 Y49.362 E0.3368
G1 X64.224 Y49.355 E0.3374
G1 X64.226 Y49.354 E0.3374
G1 X66.004 Y48.490 E0.4079
G1 X66.006 Y48.489 E0.4080
G1 X66.020 Y48.483 E0.4085
G1 X66.022 Y48.482 E0.4086
G1 X67.067 Y48.036 E0.4490
G1 X67.069 Y48.036 E0.4491
G1 X67.080 Y48.031 E0.4495
G1 X67.082 Y48.030 E0.4496
G1 X68.408 Y47.528 E0.5001
G1 X68.410 Y47.527 E0.5002
G1 X68.424 Y47.522 E0.5007
G1 X68.427 Y47.521 E0.5008
G1 X70.308 Y46.913 E0.5713
G1 X70.310 Y46.913 E0.5713
G1 X70.324 Y46.908 E0.5719
G1 X70.327 Y46.908 E0.5720
G1 X71.425 Y46.611 E0.6125
G1 X71.428 Y46.611 E0.6126
G1 X71.443 Y46.607 E0.6131
G1 X71.445 Y46.606 E0.6132
G1 X73.655 Y46.132 E0.6937
G1 X73.658 Y46.132 E0.6938
G1 X73.673 Y46.129 E0.6944
G1 X73.676 Y46.128 E0.6945
G1 X74.799 Y45.948 E0.7350
G1 X74.802 Y45.948 E0.7351
G1 X74.818 Y45.946 E0.7357
G1 X74.820 Y45.945 E0.7358
G1 X77.067 Y45.705 E0.8163
G1 X77.070 Y45.704 E0.8164
G1 X77.086 Y45.703 E0.8169
G1 X77.088 Y45.703 E0.8170
G1 X78.223 Y45.641 E0.8575
G1 X78.225 Y45.641 E0.8576
G1 X78.237 Y45.641 E0.8580
G1 X78.239 Y45.640 E0.8581
G1 X79.654 Y45.621 E0.9085
G1 X79.656 Y45.621 E0.9085
G1 X79.665 Y45.621 E0.9089
G1 X80.516 Y45.636 E0.9391
G1 X80.518 Y45.636 E0.9392
G1 X80.528 Y45.636 E0.9395
G1 X80.529 Y45.636 E0.9396
G1 X81.661 Y45.693 E0.9800
G1 X81.663 Y45.693 E0.9800
G1 X81.675 Y45.694 E0.9805
G1 X81.677 Y45.694 E0.9806
G1 X83.090 Y45.822 E1.0311
G1 X83.092 Y45.822 E1.0311
G1 X83.107 Y45.824 E1.0317
G1 X83.109 Y45.825 E1.0318
G1 X85.067 Y46.102 E1.1022
G1 X85.070 Y46.102 E1.1023
G1 X85.084 Y46.105 E1.1028
G1 X85.087 Y46.105 E1.1029
G1 X86.202 Y46.319 E1.1434
G1 X86.204 Y46.320 E1.1434
G1 X86.216 Y46.322 E1.1439
G1 X86.218 Y46.322 E1.1439
G1 X87.598 Y46.646 E1.1944
G1 X87.601 Y46.646 E1.1945
G1 X87.615 Y46.650 E1.1951
G1 X87.618 Y46.651 E1.1952
G1 X89.518 Y47.198 E1.2656
G1 X89.520 Y47.198 E1.2657
G1 X89.534 Y47.203 E1.2662
G1 X89.537 Y47.203 E1.2663
G1 X90.613 Y47.571 E1.3068
G1 X90.616 Y47.572 E1.3069
G1 X90.630 Y47.577 E1.3075
G1 X90.633 Y47.578 E1.3076
G1 X92.730 Y48.419 E1.3881
G1 X92.733 Y48.420 E1.3882
G1 X92.747 Y48.426 E1.3887
G1 X92.750 Y48.427 E1.3888
G1 X93.782 Y48.906 E1.4293
G1 X93.785 Y48.907 E1.4294
G1 X93.799 Y48.914 E1.4300
G1 X93.801 Y48.915 E1.4301
G1 X95.802 Y49.971 E1.5107
G1 X95.805 Y49.973 E1.5108
G1 X95.823 Y49.983 E1.5116
G1 X95.826 Y49.985 E1.5117
G1 X97.749 Y51.179 E1.5923
G1 X97.752 Y51.181 E1.5924
G1 X97.766 Y51.190 E1.5930
G1 X97.768 Y51.192 E1.5931
G1 X98.930 Y52.009 E1.6437
G1 X98.932 Y52.010 E1.6438
G1 X98.945 Y52.020 E1.6444
G1 X98.947 Y52.021 E1.6445
G1 X100.504 Y53.240 E1.7149
G1 X100.506 Y53.241 E1.7150
G1 X100.517 Y53.250 E1.7155
G1 X100.519 Y53.252 E1.7156
G1 X101.378 Y53.994 E1.7560
G1 X101.380 Y53.996 E1.7561
G1 X101.389 Y54.004 E1.7565
G1 X101.390 Y54.005 E1.7566
G1 X102.425 Y54.974 E1.8071
G1 X102.427 Y54.976 E1.8072
G1 X102.438 Y54.986 E1.8078
G1 X102.440 Y54.988 E1.8079
G1 X103.813 Y56.412 E1.8783
G1 X103.815 Y56.414 E1.8784
G1 X103.826 Y56.426 E1.8790
G1 X103.828 Y56.428 E1.8791
G1 X104.758 Y57.501 E1.9297
G1 X104.759 Y57.503 E1.9297
G1 X104.769 Y57.515 E1.9303
G1 X104.771 Y57.517 E1.9304
G1 X105.987 Y59.076 E2.0008
G1 X105.989 Y59.077 E2.0009
G1 X105.997 Y59.089 E2.0014
G1 X105.999 Y59.091 E2.0015
G1 X106.653 Y60.019 E2.0420
G1 X106.654 Y60.021 E2.0420
G1 X106.661 Y60.030 E2.0425
G1 X106.662 Y60.032 E2.0425
G1 X107.433 Y61.222 E2.0930
G1 X107.434 Y61.224 E2.0931
G1 X107.442 Y61.238 E2.0937
G1 X107.444 Y61.240 E2.0938
G1 X108.432 Y62.953 E2.1642
G1 X108.433 Y62.955 E2.1643
G1 X108.440 Y62.968 E2.1648
G1 X108.441 Y62.970 E2.1649
G1 X108.960 Y63.980 E2.2053
G1 X108.961 Y63.981 E2.2054
G1 X108.966 Y63.992 E2.2058
G1 X108.967 Y63.994 E2.2059
G1 X109.565 Y65.280 E2.2564
G1 X109.566 Y65.282 E2.2565
G1 X109.572 Y65.296 E2.2571
G1 X109.573 Y65.298 E2.2572
G1 X110.314 Y67.133 E2.3276
G1 X110.315 Y67.135 E2.3277
G1 X110.320 Y67.150 E2.3283
G1 X110.321 Y67.153 E2.3284
G1 X110.783 Y68.496 E2.3790
G1 X110.783 Y68.498 E2.3791
G1 X110.788 Y68.513 E2.3796
G1 X110.789 Y68.515 E2.3797
G1 X111.334 Y70.417 E2.4502
G1 X111.334 Y70.420 E2.4503
G1 X111.338 Y70.435 E2.4508
G1 X111.339 Y70.437 E2.4509
G1 X111.658 Y71.821 E2.5015
G1 X111.658 Y71.824 E2.5016
G1 X111.661 Y71.839 E2.5021
G1 X111.662 Y71.842 E2.5022
G1 X112.005 Y73.790 E2.5727
G1 X112.005 Y73.792 E2.5728
G1 X112.008 Y73.808 E2.5734
G1 X112.008 Y73.810 E2.5734
G1 X112.181 Y75.220 E2.6240
G1 X112.181 Y75.222 E2.6241
G1 X112.183 Y75.238 E2.6247
G1 X112.183 Y75.241 E2.6248
G1 X112.321 Y77.213 E2.6952
G1 X112.321 Y77.216 E2.6953
G1 X112.321 Y77.230 E2.6958
G1 X112.322 Y77.232 E2.6959
G1 X112.346 Y78.368 E2.7363
G1 X112.346 Y78.370 E2.7364
G1 X112.346 Y78.381 E2.7368
G1 X112.346 Y78.383 E2.7369
G1 X112.322 Y79.801 E2.7874
G1 X112.322 Y79.804 E2.7875
G1 X112.321 Y79.819 E2.7881
G1 X112.321 Y79.822 E2.7882
G1 X112.183 Y81.795 E2.8586
G1 X112.183 Y81.798 E2.8587
G1 X112.181 Y81.814 E2.8593
G1 X112.181 Y81.816 E2.8594
G1 X112.008 Y83.224 E2.9099
G1 X112.008 Y83.226 E2.9100
G1 X112.006 Y83.237 E2.9104
G1 X112.006 Y83.239 E2.9104
G1 X111.824 Y84.360 E2.9509
G1 X111.823 Y84.362 E2.9510
G1 X111.821 Y84.376 E2.9515
G1 X111.820 Y84.379 E2.9516
G1 X111.410 Y86.313 E3.0220
G1 X111.409 Y86.316 E3.0221
G1 X111.405 Y86.331 E3.0227
G1 X111.405 Y86.333 E3.0228
G1 X111.038 Y87.706 E3.0734
G1 X111.037 Y87.709 E3.0735
G1 X111.032 Y87.725 E3.0741
G1 X111.031 Y87.728 E3.0742
G1 X110.323 Y89.877 E3.1548
G1 X110.322 Y89.881 E3.1549
G1 X110.315 Y89.900 E3.1557
G1 X110.314 Y89.904 E3.1558
G1 X109.458 Y91.998 E3.2364
G1 X109.457 Y92.001 E3.2365
G1 X109.451 Y92.015 E3.2370
G1 X109.450 Y92.017 E3.2371
G1 X108.965 Y93.047 E3.2777
G1 X108.964 Y93.049 E3.2778
G1 X108.957 Y93.063 E3.2783
G1 X108.956 Y93.066 E3.2784
G1 X107.887 Y95.057 E3.3589
G1 X107.886 Y95.059 E3.3590
G1 X107.878 Y95.073 E3.3596
G1 X107.877 Y95.075 E3.3597
G1 X107.287 Y96.048 E3.4002
G1 X107.286 Y96.050 E3.4003
G1 X107.278 Y96.062 E3.4008
G1 X107.277 Y96.064 E3.4009
G1 X106.172 Y97.704 E3.4713
G1 X106.171 Y97.706 E3.4714
G1 X106.162 Y97.719 E3.4719
G1 X106.160 Y97.721 E3.4720
G1 X105.308 Y98.855 E3.5226
G1 X105.307 Y98.856 E3.5226
G1 X105.300 Y98.866 E3.5230
G1 X105.299 Y98.867 E3.5231
G1 X104.581 Y99.747 E3.5636
G1 X104.579 Y99.749 E3.5637
G1 X104.570 Y99.760 E3.5642
G1 X104.568 Y99.762 E3.5643
G1 X103.246 Y101.232 E3.6347
G1 X103.244 Y101.234 E3.6348
G1 X103.234 Y101.245 E3.6353
G1 X103.232 Y101.247 E3.6354
G1 X102.231 Y102.252 E3.6859
G1 X102.230 Y102.253 E3.6860
G1 X102.221 Y102.261 E3.6864
G1 X102.220 Y102.263 E3.6865
G1 X101.386 Y103.035 E3.7270
G1 X101.384 Y103.037 E3.7271
G1 X101.373 Y103.047 E3.7276
G1 X101.371 Y103.049 E3.7277
G1 X99.635 Y104.496 E3.8082
G1 X99.633 Y104.498 E3.8083
G1 X99.620 Y104.507 E3.8089
G1 X99.618 Y104.509 E3.8090
G1 X98.707 Y105.191 E3.8495
G1 X98.705 Y105.192 E3.8496
G1 X98.692 Y105.202 E3.8502
G1 X98.690 Y105.203 E3.8503
G1 X96.811 Y106.462 E3.9308
G1 X96.808 Y106.464 E3.9310
G1 X96.791 Y106.475 E3.9317
G1 X96.789 Y106.476 E3.9318
G1 X95.075 Y107.468 E4.0023
G1 X95.073 Y107.469 E4.0024
G1 X95.059 Y107.476 E4.0029
G1 X95.057 Y107.477 E4.0030
G1 X93.795 Y108.124 E4.0535
G1 X93.793 Y108.125 E4.0536
G1 X93.782 Y108.130 E4.0540
G1 X93.781 Y108.131 E4.0541
G1 X92.750 Y108.608 E4.0946
G1 X92.748 Y108.609 E4.0947
G1 X92.734 Y108.615 E4.0952
G1 X92.732 Y108.616 E4.0953
G1 X90.900 Y109.359 E4.1657
G1 X90.897 Y109.359 E4.1658
G1 X90.883 Y109.365 E4.1663
G1 X90.881 Y109.366 E4.1664
G1 X89.541 Y109.831 E4.2169
G1 X89.539 Y109.832 E4.2170
G1 X89.528 Y109.835 E4.2174
G1 X89.526 Y109.836 E4.2175
G1 X88.439 Y110.165 E4.2580
G1 X88.437 Y110.166 E4.2580
G1 X88.423 Y110.170 E4.2586
G1 X88.420 Y110.170 E4.2586
G1 X86.502 Y110.651 E4.3291
G1 X86.500 Y110.651 E4.3292
G1 X86.485 Y110.655 E4.3297
G1 X86.483 Y110.655 E4.3298
G1 X85.089 Y110.930 E4.3804
G1 X85.087 Y110.931 E4.3805
G1 X85.071 Y110.934 E4.3811
G1 X85.068 Y110.934 E4.3812
G1 X83.109 Y111.212 E4.4516
G1 X83.107 Y111.212 E4.4517
G1 X83.092 Y111.214 E4.4522
G1 X83.090 Y111.214 E4.4523
G1 X81.675 Y111.342 E4.5029
G1 X81.673 Y111.342 E4.5030
G1 X81.656 Y111.343 E4.5036
G1 X81.654 Y111.344 E4.5037
G1 X79.677 Y111.415 E4.5742
G1 X79.674 Y111.415 E4.5742
G1 X79.659 Y111.415 E4.5748
G1 X79.657 Y111.415 E4.5749
G1 X78.237 Y111.396 E4.6255
G1 X78.234 Y111.395 E4.6256
G1 X78.218 Y111.395 E4.6261
G1 X78.215 Y111.395 E4.6262
G1 X76.242 Y111.259 E4.6967
G1 X76.239 Y111.259 E4.6968
G1 X76.224 Y111.258 E4.6973
G1 X76.222 Y111.257 E4.6974
