; G-Code generated by Simplify3D(R) Version 4.0.0
; Oct 17, 2018 at 3:21:05 PM
; Settings Summary
;   processName,FL
;   applyToModels,LBracket
;   profileName,PLA FL (modified)
;   profileVersion,2018-10-01 17:29:14
;   baseProfile,Default
;   printMaterial,PLA
;   printQuality,Medium
;   printExtruders,
;   extruderName,Extruder 1
;   extruderToolheadNumber,0
;   extruderDiameter,0.5
;   extruderAutoWidth,0
;   extruderWidth,0.5
;   extrusionMultiplier,1.04
;   extruderUseRetract,1
;   extruderRetractionDistance,2.5
;   extruderExtraRestartDistance,0
;   extruderRetractionZLift,0.2
;   extruderRetractionSpeed,2400
;   extruderUseCoasting,0
;   extruderCoastingDistance,0.2
;   extruderUseWipe,0
;   extruderWipeDistance,5
;   primaryExtruder,0
;   layerHeight,0.3
;   topSolidLayers,3
;   bottomSolidLayers,3
;   perimeterOutlines,3
;   printPerimetersInsideOut,0
;   startPointOption,2
;   startPointOriginX,70
;   startPointOriginY,80
;   sequentialIslands,0
;   spiralVaseMode,0
;   firstLayerHeightPercentage,90
;   firstLayerWidthPercentage,100
;   firstLayerUnderspeed,1
;   useRaft,0
;   raftExtruder,0
;   raftTopLayers,1
;   raftBaseLayers,0
;   raftOffset,2
;   raftSeparationDistance,0.1
;   raftTopInfill,80
;   aboveRaftSpeedMultiplier,0.6
;   useSkirt,1
;   skirtExtruder,0
;   skirtLayers,1
;   skirtOutlines,1
;   skirtOffset,1
;   usePrimePillar,0
;   primePillarExtruder,999
;   primePillarWidth,12
;   primePillarLocation,7
;   primePillarSpeedMultiplier,1
;   useOozeShield,0
;   oozeShieldExtruder,999
;   oozeShieldOffset,2
;   oozeShieldOutlines,1
;   oozeShieldSidewallShape,1
;   oozeShieldSidewallAngle,30
;   oozeShieldSpeedMultiplier,1
;   infillExtruder,0
;   internalInfillPattern,Rectilinear
;   externalInfillPattern,Rectilinear
;   infillPercentage,40
;   outlineOverlapPercentage,30
;   infillExtrusionWidthPercentage,102
;   minInfillLength,5
;   infillLayerInterval,1
;   internalInfillAngles,45,-45
;   overlapInternalInfillAngles,0
;   externalInfillAngles,45,-45
;   generateSupport,0
;   supportExtruder,0
;   supportInfillPercentage,10
;   supportExtraInflation,1
;   supportBaseLayers,0
;   denseSupportExtruder,0
;   denseSupportLayers,2
;   denseSupportInfillPercentage,70
;   supportLayerInterval,1
;   supportHorizontalPartOffset,0.7
;   supportUpperSeparationLayers,1
;   supportLowerSeparationLayers,1
;   supportType,0
;   supportGridSpacing,4
;   maxOverhangAngle,45
;   supportAngles,0
;   temperatureName,Extruder 1 Temperature,Heated Bed
;   temperatureNumber,0,0
;   temperatureSetpointCount,1,1
;   temperatureSetpointLayers,1,1
;   temperatureSetpointTemperatures,243,62
;   temperatureStabilizeAtStartup,0,0
;   temperatureHeatedBed,0,1
;   temperatureRelayBetweenLayers,0,0
;   temperatureRelayBetweenLoops,0,0
;   fanLayers,1
;   fanSpeeds,0
;   blipFanToFullPower,0
;   adjustSpeedForCooling,0
;   minSpeedLayerTime,5
;   minCoolingSpeedSlowdown,30
;   increaseFanForCooling,0
;   minFanLayerTime,45
;   maxCoolingFanSpeed,100
;   increaseFanForBridging,1
;   bridgingFanSpeed,95
;   use5D,1
;   relativeEdistances,0
;   allowEaxisZeroing,1
;   independentExtruderAxes,0
;   includeM10123,0
;   stickySupport,1
;   applyToolheadOffsets,0
;   gcodeXoffset,0
;   gcodeYoffset,0
;   gcodeZoffset,0
;   overrideMachineDefinition,1
;   machineTypeOverride,0
;   strokeXoverride,210
;   strokeYoverride,200
;   strokeZoverride,250
;   originOffsetXoverride,0
;   originOffsetYoverride,0
;   originOffsetZoverride,0
;   homeXdirOverride,-1
;   homeYdirOverride,-1
;   homeZdirOverride,-1
;   flipXoverride,1
;   flipYoverride,-1
;   flipZoverride,1
;   toolheadOffsets,0,0|0,0|0,0|0,0|0,0|0,0
;   overrideFirmwareConfiguration,0
;   firmwareTypeOverride,RepRap (Marlin/Repetier/Sprinter)
;   GPXconfigOverride,r2
;   baudRateOverride,115200
;   overridePrinterModels,0
;   printerModelsOverride
;   startingGcode,M501,M420 S1,,M107 ,G92 E0 ,G90,G1 Z6.00 F200 ; Lift Z up,G90,G1 X70.0 Y10.0 F3600 ; Go to Clean place,G4 S2 ; Wait for Cleaning Tip,M300 S2200 P100 ; Make beep,M300 S2500 P250,,G1 X70.0 Y10.0  F3600 ; Purge Start,G1 Z0.25 F200,G1 X150.0 E17.0 F900,,;G1 E15.0 F900,;G4 S2,;G1 Y25.0 F3600,M117 PRINTING...,,,,
;   layerChangeGcode,
;   retractionGcode,
;   toolChangeGcode,
;   endingGcode,G91,G1 E-3.0 F2000	;Relieve pressure,G1 X+5.0 F6000 ;Move X paidly,G1 Z+2.0 F200	; Raize Z,G90,M104 S0 	; turn off temperature,G28 X0 	; home X axis,G91,G1 E-15.0 F800	; Withdraw filament for removal ,M84                    ; disable motors,M140 S0	; Turn Off heated bed,M106 S195	; Turn On Fans for rapid cooling,G4 S1 	; Play End tune,M300 S2200 P400,M300 S2000 P300	,M300 S1800 P200,G4 S1,M300 S2400 P200,M300 S2600 P400,G4 P1500,M300 S2650 P700,G4 S90,M106 S0
;   exportFileFormat,gcode
;   celebration,0
;   celebrationSong,Random Song
;   postProcessing,
;   defaultSpeed,600
;   outlineUnderspeed,1
;   solidInfillUnderspeed,1.8
;   supportUnderspeed,0.8
;   rapidXYspeed,5100
;   rapidZspeed,204
;   minBridgingArea,50
;   bridgingExtraInflation,1.5
;   bridgingExtrusionMultiplier,0.98
;   bridgingSpeedMultiplier,1
;   useFixedBridgingAngle,0
;   fixedBridgingAngle,0
;   applyBridgingToPerimeters,0
;   filamentDiameters,1.75|1.75|1.75|1.75|1.75|1.75
;   filamentPricesPerKg,0|920|920|920|920|920
;   filamentDensities,1.25|1.25|1.25|1.25|1.25|1.25
;   useMinPrintHeight,0
;   minPrintHeight,7.2
;   useMaxPrintHeight,1
;   maxPrintHeight,0.27
;   useDiaphragm,0
;   diaphragmLayerInterval,20
;   robustSlicing,1
;   mergeAllIntoSolid,0
;   onlyRetractWhenCrossingOutline,0
;   retractBetweenLayers,0
;   useRetractionMinTravel,1
;   retractionMinTravel,1.5
;   retractWhileWiping,0
;   onlyWipeOutlines,1
;   avoidCrossingOutline,0
;   maxMovementDetourFactor,3
;   toolChangeRetractionDistance,12
;   toolChangeExtraRestartDistance,-0.5
;   toolChangeRetractionSpeed,600
;   externalThinWallType,1
;   internalThinWallType,1
;   thinWallAllowedOverlapPercentage,100
;   singleExtrusionMinLength,1
;   singleExtrusionMinPrintingWidthPercentage,100
;   singleExtrusionMaxPrintingWidthPercentage,200
;   singleExtrusionEndpointExtension,0.2
;   horizontalSizeCompensation,0
G90
M82
M106 S0
M140 S62
M104 S243 T0
M501
M420 S1
M107 
G92 E0 
G90
G1 Z6.00 F200 ; Lift Z up
G90
G1 X70.0 Y10.0 F3600 ; Go to Clean place
G4 S2 ; Wait for Cleaning Tip
M300 S2200 P100 ; Make beep
M300 S2500 P250
G1 X70.0 Y10.0  F3600 ; Purge Start
G1 Z0.25 F200
G1 X150.0 E17.0 F900
;G1 E15.0 F900
;G4 S2
;G1 Y25.0 F3600
M117 PRINTING...
G92 E0
G1 E-2.5000 F2400
G1 Z0.470 F204
; process FL
; layer 1, Z = 0.270
T0
; tool H0.300 W0.500
; skirt
G1 X38.033 Y79.421 F5100
G1 Z0.270 F204
G1 E0.0000 F720
G92 E0
G1 X38.041 Y79.417 E0.0005 F600
G1 X38.109 Y79.389 E0.0053
G1 X38.117 Y79.386 E0.0058
G1 X38.558 Y79.236 E0.0361
G1 X38.566 Y79.233 E0.0366
G1 X38.638 Y79.214 E0.0414
G1 X38.646 Y79.212 E0.0420
G1 X39.103 Y79.121 E0.0722
G1 X39.111 Y79.120 E0.0728
G1 X39.184 Y79.110 E0.0775
G1 X39.193 Y79.109 E0.0781
G1 X39.640 Y79.079 E0.1072
G1 X39.644 Y79.079 E0.1074
G1 X39.681 Y79.078 E0.1098
G1 X39.685 Y79.078 E0.1101
G1 X72.004 Y79.078 E2.2062
G1 X72.009 Y79.078 E2.2065
G1 X72.053 Y79.080 E2.2094
G1 X72.058 Y79.080 E2.2097
G1 X72.431 Y79.110 E2.2340
G1 X72.440 Y79.111 E2.2346
G1 X72.528 Y79.125 E2.2403
G1 X72.537 Y79.127 E2.2409
G1 X72.929 Y79.221 E2.2671
G1 X72.938 Y79.223 E2.2677
G1 X73.023 Y79.251 E2.2735
G1 X73.032 Y79.254 E2.2741
G1 X73.404 Y79.408 E2.3002
G1 X73.413 Y79.412 E2.3009
G1 X73.492 Y79.452 E2.3066
G1 X73.500 Y79.457 E2.3072
G1 X73.837 Y79.663 E2.3328
G1 X73.845 Y79.669 E2.3335
G1 X73.915 Y79.720 E2.3391
G1 X73.923 Y79.726 E2.3397
G1 X74.213 Y79.972 E2.3644
G1 X74.216 Y79.975 E2.3647
G1 X74.250 Y80.006 E2.3677
G1 X74.254 Y80.010 E2.3680
G1 X78.568 Y84.324 E2.7637
G1 X78.694 Y84.431 E2.7745
G1 X78.795 Y84.493 E2.7821
G1 X78.903 Y84.538 E2.7897
G1 X79.013 Y84.564 E2.7970
G1 X79.179 Y84.578 E2.8078
G1 X141.427 Y84.578 E6.8451
G1 X141.593 Y84.565 E6.8559
G1 X141.707 Y84.538 E6.8635
G1 X141.815 Y84.493 E6.8711
G1 X141.912 Y84.434 E6.8784
G1 X142.039 Y84.326 E6.8892
G1 X146.351 Y80.014 E7.2847
G1 X146.354 Y80.011 E7.2850
G1 X146.387 Y79.981 E7.2879
G1 X146.391 Y79.978 E7.2882
G1 X146.679 Y79.731 E7.3128
G1 X146.687 Y79.725 E7.3134
G1 X146.758 Y79.673 E7.3192
G1 X146.766 Y79.668 E7.3198
G1 X147.109 Y79.457 E7.3459
G1 X147.118 Y79.453 E7.3466
G1 X147.197 Y79.412 E7.3523
G1 X147.206 Y79.408 E7.3529
G1 X147.578 Y79.254 E7.3791
G1 X147.587 Y79.251 E7.3797
G1 X147.671 Y79.223 E7.3854
G1 X147.681 Y79.221 E7.3861
G1 X148.065 Y79.128 E7.4117
G1 X148.074 Y79.127 E7.4123
G1 X148.160 Y79.113 E7.4179
G1 X148.169 Y79.112 E7.4186
G1 X148.548 Y79.081 E7.4432
G1 X148.554 Y79.080 E7.4436
G1 X148.600 Y79.078 E7.4466
G1 X148.605 Y79.078 E7.4469
G1 X180.923 Y79.078 E9.5430
G1 X180.927 Y79.078 E9.5432
G1 X180.964 Y79.079 E9.5456
G1 X180.968 Y79.079 E9.5459
G1 X181.407 Y79.108 E9.5744
G1 X181.415 Y79.109 E9.5749
G1 X181.487 Y79.118 E9.5796
G1 X181.495 Y79.120 E9.5802
G1 X181.952 Y79.209 E9.6104
G1 X181.960 Y79.211 E9.6109
G1 X182.031 Y79.230 E9.6157
G1 X182.039 Y79.233 E9.6162
G1 X182.482 Y79.382 E9.6465
G1 X182.489 Y79.384 E9.6470
G1 X182.557 Y79.412 E9.6518
G1 X182.565 Y79.416 E9.6523
G1 X182.984 Y79.621 E9.6826
G1 X182.991 Y79.625 E9.6831
G1 X183.055 Y79.662 E9.6879
G1 X183.062 Y79.666 E9.6885
G1 X183.451 Y79.925 E9.7187
G1 X183.457 Y79.930 E9.7193
G1 X183.516 Y79.975 E9.7241
G1 X183.522 Y79.980 E9.7246
G1 X183.874 Y80.287 E9.7548
G1 X183.880 Y80.292 E9.7554
G1 X183.932 Y80.344 E9.7602
G1 X183.937 Y80.350 E9.7607
G1 X184.246 Y80.701 E9.7910
G1 X184.251 Y80.707 E9.7915
G1 X184.296 Y80.766 E9.7963
G1 X184.301 Y80.772 E9.7968
G1 X184.560 Y81.160 E9.8271
G1 X184.565 Y81.167 E9.8276
G1 X184.602 Y81.231 E9.8324
G1 X184.605 Y81.238 E9.8329
G1 X184.812 Y81.656 E9.8632
G1 X184.816 Y81.664 E9.8637
G1 X184.844 Y81.732 E9.8685
G1 X184.847 Y81.740 E9.8690
G1 X184.997 Y82.182 E9.8993
G1 X185.000 Y82.189 E9.8998
G1 X185.019 Y82.261 E9.9046
G1 X185.021 Y82.269 E9.9052
G1 X185.112 Y82.726 E9.9354
G1 X185.113 Y82.734 E9.9360
G1 X185.123 Y82.807 E9.9407
G1 X185.124 Y82.816 E9.9413
G1 X185.153 Y83.263 E9.9704
G1 X185.154 Y83.267 E9.9706
G1 X185.155 Y83.305 E9.9731
G1 X185.155 Y83.309 E9.9733
G1 X185.148 Y97.508 E10.8943
G1 X185.146 Y97.530 E10.8957
G1 X185.113 Y97.720 E10.9082
G1 X185.108 Y97.740 E10.9096
G1 X184.984 Y98.087 E10.9334
G1 X184.975 Y98.107 E10.9349
G1 X184.878 Y98.278 E10.9476
G1 X184.865 Y98.296 E10.9491
G1 X184.629 Y98.582 E10.9731
G1 X184.614 Y98.597 E10.9745
G1 X184.464 Y98.725 E10.9873
G1 X184.446 Y98.737 E10.9887
G1 X184.126 Y98.925 E11.0127
G1 X184.107 Y98.934 E11.0141
G1 X183.922 Y99.003 E11.0269
G1 X183.901 Y99.008 E11.0283
G1 X183.582 Y99.067 E11.0493
G1 X183.571 Y99.068 E11.0500
G1 X183.468 Y99.077 E11.0568
G1 X183.456 Y99.078 E11.0575
G1 X181.197 Y99.070 E11.2040
G1 X181.170 Y99.067 E11.2058
G1 X180.935 Y99.016 E11.2214
G1 X180.910 Y99.007 E11.2231
G1 X180.454 Y98.798 E11.2557
G1 X180.430 Y98.784 E11.2575
G1 X180.234 Y98.635 E11.2734
G1 X180.214 Y98.617 E11.2752
G1 X179.942 Y98.297 E11.3025
G1 X179.926 Y98.274 E11.3042
G1 X179.811 Y98.056 E11.3202
G1 X179.801 Y98.031 E11.3220
G1 X179.680 Y97.591 E11.3516
G1 X179.677 Y97.574 E11.3527
G1 X179.656 Y97.426 E11.3624
G1 X179.655 Y97.410 E11.3634
G1 X179.641 Y92.578 E11.6768
G1 X37.656 Y92.578 E20.8856
G1 X37.645 Y92.577 E20.8863
G1 X37.547 Y92.569 E20.8927
G1 X37.536 Y92.568 E20.8934
G1 X37.049 Y92.482 E20.9255
G1 X37.028 Y92.476 E20.9269
G1 X36.843 Y92.409 E20.9396
G1 X36.823 Y92.399 E20.9411
G1 X36.352 Y92.127 E20.9763
G1 X36.334 Y92.115 E20.9778
G1 X36.183 Y91.988 E20.9905
G1 X36.168 Y91.973 E20.9919
G1 X35.834 Y91.575 E21.0256
G1 X35.824 Y91.562 E21.0267
G1 X35.745 Y91.437 E21.0363
G1 X35.737 Y91.423 E21.0373
G1 X35.601 Y91.131 E21.0582
G1 X35.595 Y91.116 E21.0592
G1 X35.551 Y90.976 E21.0688
G1 X35.547 Y90.960 E21.0699
G1 X35.465 Y90.497 E21.1004
G1 X35.464 Y90.486 E21.1011
G1 X35.455 Y90.388 E21.1074
G1 X35.455 Y90.377 E21.1082
G1 X35.455 Y83.310 E21.5665
G1 X35.455 Y83.305 E21.5668
G1 X35.456 Y83.269 E21.5692
G1 X35.456 Y83.265 E21.5694
G1 X35.485 Y82.826 E21.5980
G1 X35.486 Y82.818 E21.5985
G1 X35.495 Y82.746 E21.6032
G1 X35.497 Y82.738 E21.6037
G1 X35.586 Y82.281 E21.6339
G1 X35.588 Y82.273 E21.6345
G1 X35.607 Y82.202 E21.6392
G1 X35.610 Y82.194 E21.6398
G1 X35.759 Y81.751 E21.6700
G1 X35.761 Y81.744 E21.6706
G1 X35.789 Y81.676 E21.6754
G1 X35.793 Y81.668 E21.6759
G1 X35.998 Y81.249 E21.7062
G1 X36.002 Y81.242 E21.7067
G1 X36.039 Y81.178 E21.7115
G1 X36.043 Y81.171 E21.7120
G1 X36.302 Y80.782 E21.7423
G1 X36.307 Y80.776 E21.7428
G1 X36.351 Y80.717 E21.7476
G1 X36.357 Y80.711 E21.7481
G1 X36.664 Y80.359 E21.7784
G1 X36.669 Y80.353 E21.7789
G1 X36.721 Y80.301 E21.7837
G1 X36.727 Y80.296 E21.7842
G1 X37.078 Y79.987 E21.8145
G1 X37.084 Y79.982 E21.8150
G1 X37.143 Y79.937 E21.8198
G1 X37.149 Y79.932 E21.8204
G1 X37.537 Y79.673 E21.8506
G1 X37.544 Y79.668 E21.8512
G1 X37.608 Y79.631 E21.8559
G1 X37.615 Y79.627 E21.8565
G1 X38.033 Y79.421 E21.8867
G92 E0
G1 E-2.5000 F2400
G1 Z0.470 F204
; outer perimeter
G1 X38.651 Y80.789 F5100
G1 Z0.270 F204
G1 E0.0000 F2400
G92 E0
G1 X38.991 Y80.673 E0.0234 F600
G1 X39.345 Y80.602 E0.0467
G1 X39.712 Y80.578 E0.0706
G1 X71.972 Y80.578 E2.1629
G1 X72.249 Y80.600 E2.1809
G1 X72.517 Y80.664 E2.1988
G1 X72.771 Y80.770 E2.2166
G1 X73.000 Y80.910 E2.2340
G1 X73.217 Y81.094 E2.2525
G1 X77.549 Y85.426 E2.6498
G1 X77.810 Y85.648 E2.6721
G1 X78.111 Y85.833 E2.6950
G1 X78.438 Y85.969 E2.7179
G1 X78.775 Y86.050 E2.7404
G1 X79.118 Y86.078 E2.7627
G1 X141.486 Y86.078 E6.8078
G1 X141.828 Y86.051 E6.8300
G1 X142.172 Y85.969 E6.8529
G1 X142.499 Y85.833 E6.8759
G1 X142.794 Y85.652 E6.8983
G1 X143.056 Y85.430 E6.9206
G1 X147.389 Y81.097 E7.3180
G1 X147.605 Y80.913 E7.3364
G1 X147.839 Y80.770 E7.3543
G1 X148.093 Y80.664 E7.3721
G1 X148.354 Y80.602 E7.3895
G1 X148.638 Y80.578 E7.4080
G1 X180.897 Y80.578 E9.5002
G1 X181.257 Y80.602 E9.5236
G1 X181.611 Y80.671 E9.5470
G1 X181.952 Y80.786 E9.5703
G1 X182.275 Y80.945 E9.5937
G1 X182.575 Y81.144 E9.6171
G1 X182.846 Y81.381 E9.6404
G1 X183.084 Y81.652 E9.6638
G1 X183.285 Y81.951 E9.6871
G1 X183.444 Y82.274 E9.7105
G1 X183.560 Y82.614 E9.7338
G1 X183.631 Y82.968 E9.7572
G1 X183.655 Y83.335 E9.7811
G1 X183.648 Y97.368 E10.6912
G1 X183.619 Y97.450 E10.6968
G1 X183.564 Y97.515 E10.7024
G1 X183.491 Y97.559 E10.7079
G1 X183.386 Y97.578 E10.7148
G1 X181.365 Y97.571 E10.8459
G1 X181.273 Y97.538 E10.8522
G1 X181.255 Y97.526 E10.8536
G1 X181.186 Y97.444 E10.8606
G1 X181.176 Y97.425 E10.8620
G1 X181.155 Y97.309 E10.8696
G1 X181.155 Y92.317 E11.1934
G1 X181.137 Y92.111 E11.2068
G1 X181.080 Y91.900 E11.2210
G1 X180.988 Y91.703 E11.2351
G1 X180.863 Y91.524 E11.2492
G1 X180.709 Y91.370 E11.2634
G1 X180.530 Y91.245 E11.2775
G1 X180.333 Y91.152 E11.2917
G1 X180.122 Y91.096 E11.3058
G1 X179.916 Y91.078 E11.3192
G1 X37.716 Y91.078 E20.5419
G1 X37.575 Y91.066 E20.5511
G1 X37.449 Y91.032 E20.5596
G1 X37.330 Y90.977 E20.5681
G1 X37.223 Y90.902 E20.5765
G1 X37.131 Y90.809 E20.5850
G1 X37.056 Y90.703 E20.5935
G1 X37.001 Y90.584 E20.6019
G1 X36.967 Y90.458 E20.6104
G1 X36.955 Y90.317 E20.6196
G1 X36.955 Y83.336 E21.0723
G1 X36.979 Y82.976 E21.0958
G1 X37.048 Y82.622 E21.1191
G1 X37.163 Y82.281 E21.1425
G1 X37.322 Y81.958 E21.1658
G1 X37.521 Y81.658 E21.1892
G1 X37.758 Y81.387 E21.2126
G1 X38.029 Y81.149 E21.2359
G1 X38.328 Y80.948 E21.2593
G1 X38.651 Y80.789 E21.2826
; inner perimeter
G1 X38.843 Y81.252 F5100
G92 E0
G1 X39.121 Y81.157 E0.0191 F600
