; G-Code generated by Simplify3D(R) Version 4.0.0
; Oct 17, 2018 at 3:20:26 PM
; Settings Summary
;   processName,FL
;   applyToModels,Rbracket
;   profileName,PLA FL (modified)
;   profileVersion,2018-10-01 17:29:14
;   baseProfile,Default
;   printMaterial,PLA
;   printQuality,Medium
;   printExtruders,
;   extruderName,Extruder 1
;   extruderToolheadNumber,0
;   extruderDiameter,0.5
;   extruderAutoWidth,0
;   extruderWidth,0.5
;   extrusionMultiplier,1.04
;   extruderUseRetract,1
;   extruderRetractionDistance,2.5
;   extruderExtraRestartDistance,0
;   extruderRetractionZLift,0.2
;   extruderRetractionSpeed,2400
;   extruderUseCoasting,0
;   extruderCoastingDistance,0.2
;   extruderUseWipe,0
;   extruderWipeDistance,5
;   primaryExtruder,0
;   layerHeight,0.3
;   topSolidLayers,3
;   bottomSolidLayers,3
;   perimeterOutlines,3
;   printPerimetersInsideOut,0
;   startPointOption,2
;   startPointOriginX,70
;   startPointOriginY,80
;   sequentialIslands,0
;   spiralVaseMode,0
;   firstLayerHeightPercentage,90
;   firstLayerWidthPercentage,100
;   firstLayerUnderspeed,1
;   useRaft,0
;   raftExtruder,0
;   raftTopLayers,1
;   raftBaseLayers,0
;   raftOffset,2
;   raftSeparationDistance,0.1
;   raftTopInfill,80
;   aboveRaftSpeedMultiplier,0.6
;   useSkirt,1
;   skirtExtruder,0
;   skirtLayers,1
;   skirtOutlines,1
;   skirtOffset,1
;   usePrimePillar,0
;   primePillarExtruder,999
;   primePillarWidth,12
;   primePillarLocation,7
;   primePillarSpeedMultiplier,1
;   useOozeShield,0
;   oozeShieldExtruder,999
;   oozeShieldOffset,2
;   oozeShieldOutlines,1
;   oozeShieldSidewallShape,1
;   oozeShieldSidewallAngle,30
;   oozeShieldSpeedMultiplier,1
;   infillExtruder,0
;   internalInfillPattern,Rectilinear
;   externalInfillPattern,Rectilinear
;   infillPercentage,40
;   outlineOverlapPercentage,30
;   infillExtrusionWidthPercentage,102
;   minInfillLength,5
;   infillLayerInterval,1
;   internalInfillAngles,45,-45
;   overlapInternalInfillAngles,0
;   externalInfillAngles,45,-45
;   generateSupport,0
;   supportExtruder,0
;   supportInfillPercentage,10
;   supportExtraInflation,1
;   supportBaseLayers,0
;   denseSupportExtruder,0
;   denseSupportLayers,2
;   denseSupportInfillPercentage,70
;   supportLayerInterval,1
;   supportHorizontalPartOffset,0.7
;   supportUpperSeparationLayers,1
;   supportLowerSeparationLayers,1
;   supportType,0
;   supportGridSpacing,4
;   maxOverhangAngle,45
;   supportAngles,0
;   temperatureName,Extruder 1 Temperature,Heated Bed
;   temperatureNumber,0,0
;   temperatureSetpointCount,1,1
;   temperatureSetpointLayers,1,1
;   temperatureSetpointTemperatures,243,62
;   temperatureStabilizeAtStartup,0,0
;   temperatureHeatedBed,0,1
;   temperatureRelayBetweenLayers,0,0
;   temperatureRelayBetweenLoops,0,0
;   fanLayers,1
;   fanSpeeds,0
;   blipFanToFullPower,0
;   adjustSpeedForCooling,0
;   minSpeedLayerTime,5
;   minCoolingSpeedSlowdown,30
;   increaseFanForCooling,0
;   minFanLayerTime,45
;   maxCoolingFanSpeed,100
;   increaseFanForBridging,1
;   bridgingFanSpeed,95
;   use5D,1
;   relativeEdistances,0
;   allowEaxisZeroing,1
;   independentExtruderAxes,0
;   includeM10123,0
;   stickySupport,1
;   applyToolheadOffsets,0
;   gcodeXoffset,0
;   gcodeYoffset,0
;   gcodeZoffset,0
;   overrideMachineDefinition,1
;   machineTypeOverride,0
;   strokeXoverride,210
;   strokeYoverride,200
;   strokeZoverride,250
;   originOffsetXoverride,0
;   originOffsetYoverride,0
;   originOffsetZoverride,0
;   homeXdirOverride,-1
;   homeYdirOverride,-1
;   homeZdirOverride,-1
;   flipXoverride,1
;   flipYoverride,-1
;   flipZoverride,1
;   toolheadOffsets,0,0|0,0|0,0|0,0|0,0|0,0
;   overrideFirmwareConfiguration,0
;   firmwareTypeOverride,RepRap (Marlin/Repetier/Sprinter)
;   GPXconfigOverride,r2
;   baudRateOverride,115200
;   overridePrinterModels,0
;   printerModelsOverride
;   startingGcode,M501,M420 S1,,M107 ,G92 E0 ,G90,G1 Z6.00 F200 ; Lift Z up,G90,G1 X70.0 Y10.0 F3600 ; Go to Clean place,G4 S2 ; Wait for Cleaning Tip,M300 S2200 P100 ; Make beep,M300 S2500 P250,,G1 X70.0 Y10.0  F3600 ; Purge Start,G1 Z0.25 F200,G1 X150.0 E17.0 F900,,;G1 E15.0 F900,;G4 S2,;G1 Y25.0 F3600,M117 PRINTING...,,,,
;   layerChangeGcode,
;   retractionGcode,
;   toolChangeGcode,
;   endingGcode,G91,G1 E-3.0 F2000	;Relieve pressure,G1 X+5.0 F6000 ;Move X paidly,G1 Z+2.0 F200	; Raize Z,G90,M104 S0 	; turn off temperature,G28 X0 	; home X axis,G91,G1 E-15.0 F800	; Withdraw filament for removal ,M84                    ; disable motors,M140 S0	; Turn Off heated bed,M106 S195	; Turn On Fans for rapid cooling,G4 S1 	; Play End tune,M300 S2200 P400,M300 S2000 P300	,M300 S1800 P200,G4 S1,M300 S2400 P200,M300 S2600 P400,G4 P1500,M300 S2650 P700,G4 S90,M106 S0
;   exportFileFormat,gcode
;   celebration,0
;   celebrationSong,Random Song
;   postProcessing,
;   defaultSpeed,600
;   outlineUnderspeed,1
;   solidInfillUnderspeed,1.8
;   supportUnderspeed,0.8
;   rapidXYspeed,5100
;   rapidZspeed,204
;   minBridgingArea,50
;   bridgingExtraInflation,1.5
;   bridgingExtrusionMultiplier,0.98
;   bridgingSpeedMultiplier,1
;   useFixedBridgingAngle,0
;   fixedBridgingAngle,0
;   applyBridgingToPerimeters,0
;   filamentDiameters,1.75|1.75|1.75|1.75|1.75|1.75
;   filamentPricesPerKg,0|920|920|920|920|920
;   filamentDensities,1.25|1.25|1.25|1.25|1.25|1.25
;   useMinPrintHeight,0
;   minPrintHeight,7.2
;   useMaxPrintHeight,1
;   maxPrintHeight,0.27
;   useDiaphragm,0
;   diaphragmLayerInterval,20
;   robustSlicing,1
;   mergeAllIntoSolid,0
;   onlyRetractWhenCrossingOutline,0
;   retractBetweenLayers,0
;   useRetractionMinTravel,1
;   retractionMinTravel,1.5
;   retractWhileWiping,0
;   onlyWipeOutlines,1
;   avoidCrossingOutline,0
;   maxMovementDetourFactor,3
;   toolChangeRetractionDistance,12
;   toolChangeExtraRestartDistance,-0.5
;   toolChangeRetractionSpeed,600
;   externalThinWallType,1
;   internalThinWallType,1
;   thinWallAllowedOverlapPercentage,100
;   singleExtrusionMinLength,1
;   singleExtrusionMinPrintingWidthPercentage,100
;   singleExtrusionMaxPrintingWidthPercentage,200
;   singleExtrusionEndpointExtension,0.2
;   horizontalSizeCompensation,0
G90
M82
M106 S0
M140 S62
M104 S243 T0
M501
M420 S1
M107 
G92 E0 
G90
G1 Z6.00 F200 ; Lift Z up
G90
G1 X70.0 Y10.0 F3600 ; Go to Clean place
G4 S2 ; Wait for Cleaning Tip
M300 S2200 P100 ; Make beep
M300 S2500 P250
G1 X70.0 Y10.0  F3600 ; Purge Start
G1 Z0.25 F200
G1 X150.0 E17.0 F900
;G1 E15.0 F900
;G4 S2
;G1 Y25.0 F3600
M117 PRINTING...
G92 E0
G1 E-2.5000 F2400
G1 Z0.470 F204
; process FL
; layer 1, Z = 0.270
T0
; tool H0.300 W0.500
; skirt
G1 X37.841 Y77.702 F5100
G1 Z0.270 F204
G1 E0.0000 F720
G92 E0
G1 X37.910 Y77.674 E0.0048 F600
G1 X37.917 Y77.671 E0.0053
G1 X38.359 Y77.522 E0.0356
G1 X38.367 Y77.519 E0.0361
G1 X38.439 Y77.501 E0.0409
G1 X38.447 Y77.499 E0.0414
G1 X38.904 Y77.409 E0.0717
G1 X38.912 Y77.408 E0.0722
G1 X38.984 Y77.398 E0.0769
G1 X38.992 Y77.397 E0.0774
G1 X39.431 Y77.369 E0.1059
G1 X39.435 Y77.369 E0.1062
G1 X39.471 Y77.367 E0.1086
G1 X39.475 Y77.367 E0.1088
G1 X71.794 Y77.368 E2.2049
G1 X71.799 Y77.368 E2.2053
G1 X71.845 Y77.370 E2.2082
G1 X71.850 Y77.370 E2.2086
G1 X72.229 Y77.401 E2.2333
G1 X72.239 Y77.402 E2.2339
G1 X72.325 Y77.416 E2.2395
G1 X72.334 Y77.418 E2.2401
G1 X72.718 Y77.510 E2.2657
G1 X72.727 Y77.513 E2.2664
G1 X72.811 Y77.540 E2.2721
G1 X72.821 Y77.543 E2.2727
G1 X73.193 Y77.698 E2.2989
G1 X73.202 Y77.702 E2.2995
G1 X73.281 Y77.742 E2.3053
G1 X73.289 Y77.747 E2.3059
G1 X73.633 Y77.957 E2.3320
G1 X73.641 Y77.963 E2.3327
G1 X73.712 Y78.015 E2.3384
G1 X73.720 Y78.021 E2.3390
G1 X74.008 Y78.267 E2.3636
G1 X74.012 Y78.270 E2.3639
G1 X74.044 Y78.300 E2.3668
G1 X74.048 Y78.304 E2.3671
G1 X78.360 Y82.615 E2.7626
G1 X78.487 Y82.723 E2.7734
G1 X78.583 Y82.782 E2.7807
G1 X78.692 Y82.827 E2.7883
G1 X78.806 Y82.854 E2.7960
G1 X78.971 Y82.867 E2.8067
G1 X141.220 Y82.867 E6.8440
G1 X141.386 Y82.853 E6.8548
G1 X141.496 Y82.827 E6.8621
G1 X141.604 Y82.782 E6.8697
G1 X141.704 Y82.721 E6.8773
G1 X141.830 Y82.613 E6.8881
G1 X146.145 Y78.299 E7.2838
G1 X146.148 Y78.296 E7.2841
G1 X146.182 Y78.265 E7.2871
G1 X146.186 Y78.261 E7.2874
G1 X146.476 Y78.015 E7.3121
G1 X146.484 Y78.009 E7.3127
G1 X146.554 Y77.958 E7.3184
G1 X146.562 Y77.953 E7.3190
G1 X146.898 Y77.747 E7.3446
G1 X146.907 Y77.742 E7.3452
G1 X146.986 Y77.702 E7.3510
G1 X146.995 Y77.698 E7.3516
G1 X147.367 Y77.543 E7.3777
G1 X147.376 Y77.540 E7.3784
G1 X147.460 Y77.513 E7.3841
G1 X147.470 Y77.510 E7.3847
G1 X147.862 Y77.416 E7.4109
G1 X147.871 Y77.414 E7.4115
G1 X147.958 Y77.400 E7.4172
G1 X147.968 Y77.399 E7.4179
G1 X148.346 Y77.369 E7.4425
G1 X148.351 Y77.369 E7.4428
G1 X148.395 Y77.367 E7.4456
G1 X148.400 Y77.367 E7.4460
G1 X180.713 Y77.367 E9.5417
G1 X180.718 Y77.367 E9.5420
G1 X180.755 Y77.369 E9.5444
G1 X180.759 Y77.369 E9.5447
G1 X181.206 Y77.398 E9.5737
G1 X181.214 Y77.399 E9.5743
G1 X181.287 Y77.409 E9.5791
G1 X181.295 Y77.410 E9.5796
G1 X181.753 Y77.502 E9.6099
G1 X181.761 Y77.503 E9.6104
G1 X181.832 Y77.523 E9.6152
G1 X181.840 Y77.525 E9.6157
G1 X182.282 Y77.675 E9.6460
G1 X182.290 Y77.678 E9.6465
G1 X182.358 Y77.707 E9.6513
G1 X182.365 Y77.710 E9.6518
G1 X182.784 Y77.917 E9.6821
G1 X182.791 Y77.921 E9.6826
G1 X182.855 Y77.958 E9.6874
G1 X182.862 Y77.962 E9.6879
G1 X183.249 Y78.222 E9.7182
G1 X183.256 Y78.227 E9.7187
G1 X183.315 Y78.272 E9.7235
G1 X183.321 Y78.277 E9.7241
G1 X183.671 Y78.585 E9.7543
G1 X183.677 Y78.591 E9.7549
G1 X183.729 Y78.643 E9.7596
G1 X183.735 Y78.649 E9.7602
G1 X184.042 Y79.000 E9.7904
G1 X184.047 Y79.006 E9.7910
G1 X184.092 Y79.065 E9.7958
G1 X184.097 Y79.072 E9.7963
G1 X184.355 Y79.460 E9.8266
G1 X184.360 Y79.467 E9.8271
G1 X184.396 Y79.531 E9.8319
G1 X184.400 Y79.538 E9.8324
G1 X184.606 Y79.957 E9.8627
G1 X184.609 Y79.965 E9.8632
G1 X184.637 Y80.033 E9.8680
G1 X184.640 Y80.041 E9.8685
G1 X184.789 Y80.483 E9.8988
G1 X184.792 Y80.491 E9.8993
G1 X184.810 Y80.562 E9.9041
G1 X184.812 Y80.570 E9.9046
G1 X184.902 Y81.027 E9.9349
G1 X184.903 Y81.035 E9.9354
G1 X184.913 Y81.107 E9.9401
G1 X184.914 Y81.115 E9.9406
G1 X184.942 Y81.554 E9.9691
G1 X184.942 Y81.558 E9.9694
G1 X184.944 Y81.595 E9.9718
G1 X184.944 Y81.599 E9.9720
G1 X184.944 Y88.666 E10.4304
G1 X184.943 Y88.677 E10.4311
G1 X184.935 Y88.775 E10.4375
G1 X184.933 Y88.786 E10.4382
G1 X184.847 Y89.273 E10.4703
G1 X184.842 Y89.294 E10.4717
G1 X184.774 Y89.479 E10.4845
G1 X184.765 Y89.499 E10.4859
G1 X184.493 Y89.970 E10.5212
G1 X184.481 Y89.988 E10.5226
G1 X184.354 Y90.139 E10.5354
G1 X184.339 Y90.154 E10.5368
G1 X183.922 Y90.504 E10.5721
G1 X183.904 Y90.517 E10.5735
G1 X183.733 Y90.615 E10.5862
G1 X183.714 Y90.624 E10.5877
G1 X183.202 Y90.810 E10.6229
G1 X183.181 Y90.816 E10.6244
G1 X182.988 Y90.850 E10.6371
G1 X182.966 Y90.852 E10.6385
G1 X40.758 Y90.867 E19.8618
G1 X40.743 Y95.699 E20.1751
G1 X40.742 Y95.716 E20.1762
G1 X40.722 Y95.864 E20.1859
G1 X40.719 Y95.880 E20.1870
G1 X40.598 Y96.320 E20.2166
G1 X40.587 Y96.346 E20.2184
G1 X40.472 Y96.563 E20.2344
G1 X40.457 Y96.586 E20.2361
G1 X40.185 Y96.906 E20.2634
G1 X40.165 Y96.925 E20.2651
G1 X39.969 Y97.073 E20.2811
G1 X39.945 Y97.087 E20.2829
G1 X39.489 Y97.297 E20.3155
G1 X39.463 Y97.305 E20.3172
G1 X39.228 Y97.357 E20.3328
G1 X39.202 Y97.360 E20.3345
G1 X36.943 Y97.367 E20.4811
G1 X36.931 Y97.367 E20.4818
G1 X36.828 Y97.358 E20.4885
G1 X36.816 Y97.356 E20.4893
G1 X36.498 Y97.298 E20.5103
G1 X36.477 Y97.292 E20.5117
G1 X36.292 Y97.223 E20.5245
G1 X36.272 Y97.214 E20.5259
G1 X35.953 Y97.027 E20.5499
G1 X35.935 Y97.014 E20.5513
G1 X35.785 Y96.887 E20.5641
G1 X35.770 Y96.871 E20.5655
G1 X35.534 Y96.586 E20.5895
G1 X35.521 Y96.568 E20.5909
G1 X35.424 Y96.397 E20.6037
G1 X35.415 Y96.377 E20.6051
G1 X35.291 Y96.030 E20.6290
G1 X35.286 Y96.009 E20.6304
G1 X35.253 Y95.819 E20.6429
G1 X35.251 Y95.798 E20.6443
G1 X35.244 Y81.598 E21.5653
G1 X35.244 Y81.594 E21.5655
G1 X35.245 Y81.557 E21.5679
G1 X35.245 Y81.553 E21.5682
G1 X35.275 Y81.105 E21.5973
G1 X35.276 Y81.097 E21.5978
G1 X35.285 Y81.024 E21.6026
G1 X35.287 Y81.016 E21.6032
G1 X35.378 Y80.558 E21.6334
G1 X35.380 Y80.550 E21.6340
G1 X35.399 Y80.479 E21.6387
G1 X35.401 Y80.471 E21.6393
G1 X35.552 Y80.029 E21.6695
G1 X35.555 Y80.021 E21.6701
G1 X35.583 Y79.953 E21.6749
G1 X35.586 Y79.946 E21.6754
G1 X35.793 Y79.527 E21.7057
G1 X35.797 Y79.520 E21.7062
G1 X35.834 Y79.456 E21.7110
G1 X35.838 Y79.449 E21.7115
G1 X36.098 Y79.062 E21.7418
G1 X36.103 Y79.055 E21.7423
G1 X36.148 Y78.997 E21.7471
G1 X36.153 Y78.990 E21.7476
G1 X36.461 Y78.640 E21.7779
G1 X36.467 Y78.634 E21.7784
G1 X36.519 Y78.582 E21.7832
G1 X36.525 Y78.576 E21.7837
G1 X36.877 Y78.269 E21.8140
G1 X36.883 Y78.264 E21.8145
G1 X36.942 Y78.219 E21.8193
G1 X36.948 Y78.214 E21.8199
G1 X37.337 Y77.956 E21.8501
G1 X37.344 Y77.951 E21.8507
G1 X37.408 Y77.915 E21.8554
G1 X37.415 Y77.911 E21.8560
G1 X37.834 Y77.705 E21.8862
G1 X37.841 Y77.702 E21.8868
G92 E0
G1 E-2.5000 F2400
G1 Z0.470 F204
; outer perimeter
G1 X38.447 Y79.075 F5100
G1 Z0.270 F204
G1 E0.0000 F2400
G92 E0
G1 X38.788 Y78.960 E0.0234 F600
G1 X39.142 Y78.891 E0.0467
G1 X39.502 Y78.867 E0.0701
G1 X71.761 Y78.868 E2.1624
G1 X72.045 Y78.891 E2.1808
G1 X72.306 Y78.954 E2.1982
G1 X72.560 Y79.059 E2.2161
G1 X72.794 Y79.203 E2.2339
G1 X73.010 Y79.387 E2.2523
G1 X77.343 Y83.719 E2.6497
G1 X77.605 Y83.942 E2.6720
G1 X77.900 Y84.123 E2.6945
G1 X78.227 Y84.258 E2.7174
G1 X78.571 Y84.341 E2.7404
G1 X78.912 Y84.367 E2.7626
G1 X141.281 Y84.367 E6.8076
G1 X141.624 Y84.339 E6.8299
G1 X141.961 Y84.258 E6.8524
G1 X142.287 Y84.123 E6.8753
G1 X142.589 Y83.938 E6.8983
G1 X142.849 Y83.715 E6.9205
G1 X147.182 Y79.383 E7.3179
G1 X147.399 Y79.199 E7.3363
G1 X147.628 Y79.059 E7.3537
G1 X147.882 Y78.954 E7.3716
G1 X148.149 Y78.890 E7.3894
G1 X148.432 Y78.867 E7.4078
G1 X180.687 Y78.867 E9.4997
G1 X181.054 Y78.892 E9.5236
G1 X181.407 Y78.962 E9.5470
G1 X181.748 Y79.078 E9.5703
G1 X182.071 Y79.238 E9.5937
G1 X182.370 Y79.438 E9.6171
G1 X182.641 Y79.676 E9.6404
G1 X182.878 Y79.947 E9.6638
G1 X183.077 Y80.247 E9.6871
G1 X183.236 Y80.570 E9.7105
G1 X183.351 Y80.912 E9.7338
G1 X183.420 Y81.265 E9.7572
G1 X183.444 Y81.626 E9.7806
G1 X183.444 Y88.606 E10.2334
G1 X183.431 Y88.747 E10.2426
G1 X183.398 Y88.874 E10.2510
G1 X183.342 Y88.992 E10.2595
G1 X183.268 Y89.099 E10.2680
G1 X183.175 Y89.191 E10.2764
G1 X183.068 Y89.266 E10.2849
G1 X182.950 Y89.321 E10.2934
G1 X182.824 Y89.355 E10.3019
G1 X182.683 Y89.367 E10.3110
G1 X40.483 Y89.367 E19.5337
G1 X40.277 Y89.385 E19.5472
G1 X40.066 Y89.442 E19.5613
G1 X39.868 Y89.534 E19.5755
G1 X39.690 Y89.659 E19.5896
G1 X39.535 Y89.813 E19.6037
G1 X39.410 Y89.992 E19.6179
G1 X39.318 Y90.189 E19.6320
G1 X39.262 Y90.400 E19.6462
G1 X39.244 Y90.606 E19.6596
G1 X39.244 Y95.598 E19.9833
G1 X39.222 Y95.714 E19.9910
G1 X39.213 Y95.733 E19.9924
G1 X39.151 Y95.807 E19.9986
G1 X39.067 Y95.855 E20.0049
G1 X39.045 Y95.860 E20.0064
G1 X37.013 Y95.867 E20.1382
G1 X36.908 Y95.848 E20.1451
G1 X36.834 Y95.805 E20.1506
G1 X36.780 Y95.739 E20.1561
G1 X36.747 Y95.647 E20.1625
G1 X36.744 Y95.610 E20.1649
G1 X36.744 Y81.625 E21.0719
G1 X36.768 Y81.257 E21.0958
G1 X36.839 Y80.904 E21.1192
G1 X36.955 Y80.563 E21.1425
G1 X37.114 Y80.240 E21.1659
G1 X37.315 Y79.941 E21.1893
G1 X37.553 Y79.670 E21.2126
G1 X37.824 Y79.433 E21.2360
G1 X38.123 Y79.234 E21.2593
G1 X38.447 Y79.075 E21.2827
; inner perimeter
G1 X38.637 Y79.539 F5100
G92 E0
G1 X38.916 Y79.445 E0.0191 F600
G1 X39.206 Y79.388 E0.0383
G1 X39.518 Y79.367 E0.0585
G1 X71.740 Y79.368 E2.1484
G1 X71.965 Y79.386 E2.1630
