; G-Code generated by Simplify3D(R) Version 4.0.0
; Oct 30, 2018 at 12:24:51 PM
; Settings Summary
;   processName,FL
;   applyToModels,Support2
;   profileName,PLA FL (modified)
;   profileVersion,2018-10-01 17:29:14
;   baseProfile,Default
;   printMaterial,PLA
;   printQuality,Medium
;   printExtruders,
;   extruderName,Extruder 1
;   extruderToolheadNumber,0
;   extruderDiameter,0.5
;   extruderAutoWidth,0
;   extruderWidth,0.6
;   extrusionMultiplier,1.03
;   extruderUseRetract,1
;   extruderRetractionDistance,2.5
;   extruderExtraRestartDistance,0
;   extruderRetractionZLift,0.2
;   extruderRetractionSpeed,2400
;   extruderUseCoasting,0
;   extruderCoastingDistance,0.2
;   extruderUseWipe,0
;   extruderWipeDistance,5
;   primaryExtruder,0
;   layerHeight,0.25
;   topSolidLayers,3
;   bottomSolidLayers,2
;   perimeterOutlines,3
;   printPerimetersInsideOut,0
;   startPointOption,2
;   startPointOriginX,70
;   startPointOriginY,80
;   sequentialIslands,0
;   spiralVaseMode,0
;   firstLayerHeightPercentage,90
;   firstLayerWidthPercentage,100
;   firstLayerUnderspeed,1
;   useRaft,0
;   raftExtruder,0
;   raftTopLayers,1
;   raftBaseLayers,0
;   raftOffset,2
;   raftSeparationDistance,0.1
;   raftTopInfill,90
;   aboveRaftSpeedMultiplier,0.6
;   useSkirt,1
;   skirtExtruder,0
;   skirtLayers,1
;   skirtOutlines,8
;   skirtOffset,0.05
;   usePrimePillar,0
;   primePillarExtruder,999
;   primePillarWidth,12
;   primePillarLocation,7
;   primePillarSpeedMultiplier,1
;   useOozeShield,0
;   oozeShieldExtruder,999
;   oozeShieldOffset,2
;   oozeShieldOutlines,1
;   oozeShieldSidewallShape,1
;   oozeShieldSidewallAngle,30
;   oozeShieldSpeedMultiplier,1
;   infillExtruder,0
;   internalInfillPattern,Rectilinear
;   externalInfillPattern,Rectilinear
;   infillPercentage,40
;   outlineOverlapPercentage,30
;   infillExtrusionWidthPercentage,102
;   minInfillLength,5
;   infillLayerInterval,1
;   internalInfillAngles,45,-45
;   overlapInternalInfillAngles,0
;   externalInfillAngles,45,-45
;   generateSupport,0
;   supportExtruder,0
;   supportInfillPercentage,10
;   supportExtraInflation,1
;   supportBaseLayers,0
;   denseSupportExtruder,0
;   denseSupportLayers,2
;   denseSupportInfillPercentage,70
;   supportLayerInterval,1
;   supportHorizontalPartOffset,0.7
;   supportUpperSeparationLayers,1
;   supportLowerSeparationLayers,1
;   supportType,0
;   supportGridSpacing,4
;   maxOverhangAngle,45
;   supportAngles,0
;   temperatureName,Extruder 1 Temperature,Heated Bed
;   temperatureNumber,0,0
;   temperatureSetpointCount,1,1
;   temperatureSetpointLayers,1,1
;   temperatureSetpointTemperatures,205,50
;   temperatureStabilizeAtStartup,0,0
;   temperatureHeatedBed,0,1
;   temperatureRelayBetweenLayers,0,0
;   temperatureRelayBetweenLoops,0,0
;   fanLayers,1
;   fanSpeeds,0
;   blipFanToFullPower,0
;   adjustSpeedForCooling,0
;   minSpeedLayerTime,5
;   minCoolingSpeedSlowdown,30
;   increaseFanForCooling,0
;   minFanLayerTime,45
;   maxCoolingFanSpeed,100
;   increaseFanForBridging,1
;   bridgingFanSpeed,95
;   use5D,1
;   relativeEdistances,0
;   allowEaxisZeroing,1
;   independentExtruderAxes,0
;   includeM10123,0
;   stickySupport,1
;   applyToolheadOffsets,0
;   gcodeXoffset,0
;   gcodeYoffset,0
;   gcodeZoffset,0
;   overrideMachineDefinition,1
;   machineTypeOverride,0
;   strokeXoverride,210
;   strokeYoverride,200
;   strokeZoverride,250
;   originOffsetXoverride,0
;   originOffsetYoverride,0
;   originOffsetZoverride,0
;   homeXdirOverride,-1
;   homeYdirOverride,-1
;   homeZdirOverride,-1
;   flipXoverride,1
;   flipYoverride,-1
;   flipZoverride,1
;   toolheadOffsets,0,0|0,0|0,0|0,0|0,0|0,0
;   overrideFirmwareConfiguration,0
;   firmwareTypeOverride,RepRap (Marlin/Repetier/Sprinter)
;   GPXconfigOverride,r2
;   baudRateOverride,115200
;   overridePrinterModels,0
;   printerModelsOverride
;   startingGcode,M501,M420 S1,,M107 ,G92 E0 ,G90,G1 Z6.00 F200 ; Lift Z up,G90,G1 X70.0 Y10.0 F3600 ; Go to Clean place,G4 S2 ; Wait for Cleaning Tip,M300 S2200 P100 ; Make beep,M300 S2500 P250,,G1 X70.0 Y10.0  F3600 ; Purge Start,G1 Z0.25 F200,G1 X150.0 E17.0 F900,,;G1 E15.0 F900,;G4 S2,;G1 Y25.0 F3600,M117 PRINTING...,,,,
;   layerChangeGcode,
;   retractionGcode,
;   toolChangeGcode,
;   endingGcode,G91,G1 E-3.0 F2000	;Relieve pressure,G1 X+5.0 F6000 ;Move X paidly,G1 Z+2.0 F200	; Raize Z,G90,M104 S0 	; turn off temperature,G28 X0 	; home X axis,G91,G1 E-15.0 F800	; Withdraw filament for removal ,M84                    ; disable motors,M140 S0	; Turn Off heated bed,M106 S195	; Turn On Fans for rapid cooling,G4 S1 	; Play End tune,M300 S2200 P400,M300 S2000 P300	,M300 S1800 P200,G4 S1,M300 S2400 P200,M300 S2600 P400,G4 P1500,M300 S2650 P700,G4 S90,M106 S0
;   exportFileFormat,gcode
;   celebration,0
;   celebrationSong,Random Song
;   postProcessing,
;   defaultSpeed,720
;   outlineUnderspeed,1
;   solidInfillUnderspeed,1.8
;   supportUnderspeed,0.8
;   rapidXYspeed,5400
;   rapidZspeed,216
;   minBridgingArea,50
;   bridgingExtraInflation,1.5
;   bridgingExtrusionMultiplier,0.98
;   bridgingSpeedMultiplier,1
;   useFixedBridgingAngle,0
;   fixedBridgingAngle,0
;   applyBridgingToPerimeters,0
;   filamentDiameters,1.75|1.75|1.75|1.75|1.75|1.75
;   filamentPricesPerKg,0|920|920|920|920|920
;   filamentDensities,1.25|1.25|1.25|1.25|1.25|1.25
;   useMinPrintHeight,0
;   minPrintHeight,35
;   useMaxPrintHeight,1
;   maxPrintHeight,0.3
;   useDiaphragm,0
;   diaphragmLayerInterval,20
;   robustSlicing,1
;   mergeAllIntoSolid,0
;   onlyRetractWhenCrossingOutline,0
;   retractBetweenLayers,0
;   useRetractionMinTravel,1
;   retractionMinTravel,1.5
;   retractWhileWiping,0
;   onlyWipeOutlines,1
;   avoidCrossingOutline,1
;   maxMovementDetourFactor,3
;   toolChangeRetractionDistance,12
;   toolChangeExtraRestartDistance,-0.5
;   toolChangeRetractionSpeed,600
;   externalThinWallType,1
;   internalThinWallType,1
;   thinWallAllowedOverlapPercentage,100
;   singleExtrusionMinLength,1
;   singleExtrusionMinPrintingWidthPercentage,100
;   singleExtrusionMaxPrintingWidthPercentage,200
;   singleExtrusionEndpointExtension,0.2
;   horizontalSizeCompensation,0
G90
M82
M106 S0
M140 S50
M104 S205 T0
M501
M420 S1
M107 
G92 E0 
G90
G1 Z6.00 F200 ; Lift Z up
G90
G1 X70.0 Y10.0 F3600 ; Go to Clean place
G4 S2 ; Wait for Cleaning Tip
M300 S2200 P100 ; Make beep
M300 S2500 P250
G1 X70.0 Y10.0  F3600 ; Purge Start
G1 Z0.25 F200
G1 X150.0 E17.0 F900
;G1 E15.0 F900
;G4 S2
;G1 Y25.0 F3600
M117 PRINTING...
G92 E0
G1 E-2.5000 F2400
G1 Z0.425 F216
; process FL
; layer 1, Z = 0.225
T0
; tool H0.250 W0.600
; skirt
G1 X83.091 Y78.303 F5400
G1 Z0.225 F216
G1 E0.0000 F720
G92 E0
G1 X83.303 Y78.091 E0.0193 F720
G1 X83.525 Y77.896 E0.0383
G1 X84.076 Y77.474 E0.0829
G1 X84.323 Y77.309 E0.1020
G1 X84.584 Y77.158 E0.1213
G1 X84.846 Y77.029 E0.1401
G1 X85.486 Y76.764 E0.1845
G1 X85.767 Y76.669 E0.2036
G1 X86.058 Y76.592 E0.2229
G1 X86.345 Y76.535 E0.2417
G1 X86.954 Y76.454 E0.2812
G1 X87.096 Y76.440 E0.2904
G1 X87.246 Y76.430 E0.3000
G1 X87.398 Y76.425 E0.3098
G1 X119.354 Y76.426 E2.3625
G1 X119.499 Y76.430 E2.3718
G1 X119.649 Y76.440 E2.3814
G1 X119.798 Y76.455 E2.3911
G1 X120.405 Y76.534 E2.4304
G1 X120.691 Y76.591 E2.4491
G1 X120.982 Y76.669 E2.4685
G1 X121.264 Y76.764 E2.4876
G1 X121.904 Y77.029 E2.5321
G1 X122.166 Y77.158 E2.5508
G1 X122.427 Y77.309 E2.5702
G1 X122.674 Y77.474 E2.5893
G1 X123.225 Y77.896 E2.6339
G1 X123.447 Y78.091 E2.6528
G1 X123.659 Y78.303 E2.6721
G1 X123.854 Y78.525 E2.6910
G1 X124.276 Y79.075 E2.7356
G1 X124.440 Y79.321 E2.7546
G1 X124.591 Y79.582 E2.7740
G1 X124.613 Y79.628 E2.7772
G1 X124.698 Y79.630 E2.7827
G1 X124.849 Y79.640 E2.7923
G1 X124.998 Y79.655 E2.8020
G1 X125.606 Y79.735 E2.8414
G1 X125.892 Y79.792 E2.8601
G1 X126.183 Y79.869 E2.8795
G1 X126.464 Y79.964 E2.8985
G1 X127.105 Y80.230 E2.9431
G1 X127.370 Y80.360 E2.9621
G1 X127.631 Y80.511 E2.9814
G1 X127.875 Y80.675 E3.0003
G1 X128.425 Y81.096 E3.0448
G1 X128.647 Y81.291 E3.0637
G1 X128.859 Y81.503 E3.0831
G1 X129.054 Y81.725 E3.1020
G1 X129.475 Y82.274 E3.1465
G1 X129.639 Y82.519 E3.1654
G1 X129.790 Y82.780 E3.1847
G1 X129.920 Y83.045 E3.2037
G1 X130.186 Y83.686 E3.2483
G1 X130.281 Y83.967 E3.2673
G1 X130.358 Y84.258 E3.2867
G1 X130.415 Y84.545 E3.3054
G1 X130.496 Y85.157 E3.3451
G1 X130.511 Y85.307 E3.3548
G1 X130.520 Y85.457 E3.3645
G1 X130.525 Y85.602 E3.3738
G1 X130.525 Y90.435 E3.6842
G1 X130.520 Y90.584 E3.6938
G1 X130.509 Y90.737 E3.7036
G1 X130.495 Y90.886 E3.7133
G1 X130.413 Y91.499 E3.7530
G1 X130.354 Y91.790 E3.7721
G1 X130.275 Y92.080 E3.7914
G1 X130.181 Y92.354 E3.8100
G1 X129.916 Y92.992 E3.8543
G1 X129.784 Y93.258 E3.8734
G1 X129.634 Y93.518 E3.8927
G1 X129.472 Y93.759 E3.9113
G1 X129.099 Y94.245 E3.9507
G1 X129.005 Y94.359 E3.9602
G1 X128.906 Y94.472 E3.9698
G1 X128.806 Y94.579 E3.9793
G1 X121.074 Y102.310 E4.6816
G1 X120.966 Y102.411 E4.6911
G1 X120.851 Y102.512 E4.7009
G1 X120.734 Y102.608 E4.7107
G1 X120.242 Y102.983 E4.7504
G1 X119.997 Y103.146 E4.7693
G1 X119.737 Y103.296 E4.7886
G1 X119.474 Y103.425 E4.8074
G1 X118.837 Y103.688 E4.8516
G1 X118.559 Y103.782 E4.8705
G1 X118.268 Y103.859 E4.8898
G1 X117.977 Y103.917 E4.9089
G1 X117.365 Y103.996 E4.9486
G1 X117.220 Y104.011 E4.9579
G1 X117.071 Y104.020 E4.9674
G1 X116.926 Y104.025 E4.9768
G1 X111.309 Y104.025 E5.3376
G1 X109.025 Y106.310 E5.5451
G1 X109.025 Y111.935 E5.9064
G1 X109.020 Y112.084 E5.9160
G1 X109.009 Y112.237 E5.9258
G1 X108.995 Y112.386 E5.9355
G1 X108.913 Y112.999 E5.9752
G1 X108.854 Y113.290 E5.9943
G1 X108.775 Y113.580 E6.0136
G1 X108.681 Y113.854 E6.0322
G1 X108.416 Y114.492 E6.0765
G1 X108.284 Y114.758 E6.0956
G1 X108.134 Y115.018 E6.1149
G1 X107.972 Y115.259 E6.1335
G1 X107.598 Y115.745 E6.1729
G1 X107.505 Y115.859 E6.1824
G1 X107.406 Y115.972 E6.1920
G1 X107.306 Y116.079 E6.2015
G1 X99.574 Y123.810 E6.9038
G1 X99.466 Y123.911 E6.9133
G1 X99.351 Y124.012 E6.9231
G1 X99.234 Y124.108 E6.9329
G1 X98.742 Y124.483 E6.9726
G1 X98.497 Y124.646 E6.9915
G1 X98.237 Y124.796 E7.0108
G1 X97.974 Y124.925 E7.0295
G1 X97.335 Y125.188 E7.0740
G1 X97.052 Y125.284 E7.0931
G1 X96.757 Y125.362 E7.1127
G1 X96.464 Y125.419 E7.1320
G1 X95.840 Y125.498 E7.1723
G1 X95.700 Y125.511 E7.1814
G1 X95.555 Y125.520 E7.1907
G1 X95.412 Y125.525 E7.1999
G1 X90.595 Y125.524 E7.5093
G1 X90.452 Y125.520 E7.5185
G1 X90.301 Y125.510 E7.5282
G1 X90.152 Y125.495 E7.5378
G1 X89.544 Y125.415 E7.5772
G1 X89.258 Y125.358 E7.5960
G1 X88.967 Y125.281 E7.6153
G1 X88.686 Y125.186 E7.6344
G1 X88.045 Y124.920 E7.6789
G1 X87.780 Y124.790 E7.6979
G1 X87.519 Y124.639 E7.7172
G1 X87.275 Y124.475 E7.7361
G1 X86.725 Y124.054 E7.7806
G1 X86.503 Y123.859 E7.7996
G1 X86.290 Y123.646 E7.8189
G1 X86.096 Y123.425 E7.8378
G1 X85.675 Y122.875 E7.8823
G1 X85.511 Y122.631 E7.9012
G1 X85.360 Y122.370 E7.9206
G1 X85.230 Y122.105 E7.9395
G1 X84.965 Y121.465 E7.9841
G1 X84.870 Y121.184 E8.0031
G1 X84.791 Y120.892 E8.0225
G1 X84.734 Y120.602 E8.0415
G1 X84.654 Y119.986 E8.0814
G1 X84.639 Y119.841 E8.0908
G1 X84.630 Y119.692 E8.1004
G1 X84.627 Y119.613 E8.1054
G1 X84.580 Y119.590 E8.1088
G1 X84.319 Y119.439 E8.1282
G1 X84.075 Y119.275 E8.1471
G1 X83.525 Y118.854 E8.1916
G1 X83.303 Y118.659 E8.2105
G1 X83.091 Y118.447 E8.2298
G1 X82.896 Y118.225 E8.2488
G1 X82.475 Y117.675 E8.2933
G1 X82.311 Y117.431 E8.3122
G1 X82.160 Y117.170 E8.3315
G1 X82.030 Y116.906 E8.3504
G1 X81.764 Y116.264 E8.3950
G1 X81.669 Y115.983 E8.4141
G1 X81.592 Y115.692 E8.4334
G1 X81.535 Y115.405 E8.4522
G1 X81.455 Y114.798 E8.4916
G1 X81.440 Y114.649 E8.5012
G1 X81.430 Y114.499 E8.5108
G1 X81.426 Y114.354 E8.5201
G1 X81.426 Y82.396 E10.5730
G1 X81.430 Y82.251 E10.5823
G1 X81.440 Y82.101 E10.5919
G1 X81.455 Y81.952 E10.6015
G1 X81.535 Y81.345 E10.6409
G1 X81.592 Y81.058 E10.6597
G1 X81.669 Y80.767 E10.6790
G1 X81.764 Y80.486 E10.6981
G1 X82.030 Y79.845 E10.7426
G1 X82.159 Y79.582 E10.7614
G1 X82.310 Y79.321 E10.7808
G1 X82.474 Y79.075 E10.7998
G1 X82.896 Y78.525 E10.8443
G1 X83.091 Y78.303 E10.8633
G1 X83.529 Y78.714 F5400
G92 E0
G1 X83.714 Y78.529 E0.0168 F720
G1 X83.906 Y78.360 E0.0332
G1 X84.425 Y77.962 E0.0753
G1 X84.640 Y77.819 E0.0918
G1 X84.867 Y77.688 E0.1087
G1 X85.094 Y77.576 E0.1249
G1 X85.697 Y77.326 E0.1669
G1 X85.940 Y77.244 E0.1834
G1 X86.193 Y77.176 E0.2002
G1 X86.442 Y77.127 E0.2165
G1 X87.022 Y77.050 E0.2541
G1 X87.146 Y77.038 E0.2620
G1 X87.276 Y77.029 E0.2704
G1 X87.408 Y77.025 E0.2789
G1 X119.345 Y77.026 E2.3303
G1 X119.470 Y77.030 E2.3384
G1 X119.601 Y77.038 E2.3468
G1 X119.730 Y77.051 E2.3551
G1 X120.307 Y77.127 E2.3925
G1 X120.555 Y77.176 E2.4088
G1 X120.808 Y77.243 E2.4256
G1 X121.053 Y77.326 E2.4422
G1 X121.656 Y77.576 E2.4841
G1 X121.883 Y77.688 E2.5004
G1 X122.110 Y77.819 E2.5172
G1 X122.325 Y77.962 E2.5338
G1 X122.844 Y78.360 E2.5758
G1 X123.036 Y78.529 E2.5922
G1 X123.221 Y78.714 E2.6090
G1 X123.390 Y78.906 E2.6254
G1 X123.788 Y79.425 E2.6675
G1 X123.930 Y79.638 E2.6839
G1 X124.061 Y79.865 E2.7008
G1 X124.173 Y80.093 E2.7171
G1 X124.228 Y80.226 E2.7263
G1 X124.545 Y80.226 E2.7466
G1 X124.670 Y80.230 E2.7546
G1 X124.800 Y80.238 E2.7630
G1 X124.930 Y80.251 E2.7714
G1 X125.508 Y80.327 E2.8089
G1 X125.757 Y80.376 E2.8252
G1 X126.010 Y80.444 E2.8420
G1 X126.253 Y80.526 E2.8585
G1 X126.858 Y80.777 E2.9005
G1 X127.087 Y80.890 E2.9169
G1 X127.314 Y81.021 E2.9338
G1 X127.526 Y81.163 E2.9502
G1 X128.044 Y81.560 E2.9921
G1 X128.236 Y81.729 E3.0085
G1 X128.421 Y81.914 E3.0253
G1 X128.590 Y82.106 E3.0417
G1 X128.987 Y82.624 E3.0837
G1 X129.129 Y82.836 E3.1001
G1 X129.260 Y83.063 E3.1169
G1 X129.373 Y83.292 E3.1333
G1 X129.624 Y83.897 E3.1754
G1 X129.706 Y84.140 E3.1919
G1 X129.774 Y84.393 E3.2087
G1 X129.823 Y84.642 E3.2250
G1 X129.900 Y85.226 E3.2628
G1 X129.913 Y85.355 E3.2712
G1 X129.921 Y85.486 E3.2796
G1 X129.925 Y85.611 E3.2876
G1 X129.925 Y90.425 E3.5969
G1 X129.920 Y90.554 E3.6052
G1 X129.911 Y90.687 E3.6137
G1 X129.899 Y90.816 E3.6220
G1 X129.820 Y91.400 E3.6598
G1 X129.770 Y91.652 E3.6764
G1 X129.701 Y91.904 E3.6932
G1 X129.620 Y92.142 E3.7093
G1 X129.370 Y92.743 E3.7511
G1 X129.256 Y92.974 E3.7677
G1 X129.125 Y93.200 E3.7844
G1 X128.985 Y93.409 E3.8006
G1 X128.629 Y93.872 E3.8381
G1 X128.548 Y93.971 E3.8463
G1 X128.462 Y94.069 E3.8547
G1 X128.375 Y94.161 E3.8629
G1 X120.657 Y101.879 E4.5639
G1 X120.563 Y101.966 E4.5722
G1 X120.463 Y102.054 E4.5807
G1 X120.361 Y102.137 E4.5892
G1 X119.894 Y102.494 E4.6269
G1 X119.681 Y102.636 E4.6434
G1 X119.455 Y102.766 E4.6601
G1 X119.227 Y102.877 E4.6764
G1 X118.626 Y103.125 E4.7182
G1 X118.385 Y103.207 E4.7345
G1 X118.132 Y103.275 E4.7513
G1 X117.880 Y103.324 E4.7678
G1 X117.297 Y103.400 E4.8056
G1 X117.171 Y103.412 E4.8137
G1 X117.042 Y103.421 E4.8220
G1 X116.916 Y103.425 E4.8302
G1 X111.061 Y103.425 E5.2062
G1 X108.425 Y106.061 E5.4457
G1 X108.425 Y111.925 E5.8223
G1 X108.420 Y112.054 E5.8307
G1 X108.411 Y112.187 E5.8392
G1 X108.398 Y112.316 E5.8475
G1 X108.320 Y112.900 E5.8853
G1 X108.270 Y113.152 E5.9019
G1 X108.201 Y113.404 E5.9187
G1 X108.120 Y113.642 E5.9348
G1 X107.870 Y114.243 E5.9766
G1 X107.756 Y114.474 E5.9932
G1 X107.625 Y114.700 E6.0099
G1 X107.485 Y114.909 E6.0261
G1 X107.129 Y115.372 E6.0636
G1 X107.048 Y115.471 E6.0718
G1 X106.962 Y115.569 E6.0802
G1 X106.875 Y115.661 E6.0884
G1 X99.157 Y123.379 E6.7894
G1 X99.063 Y123.466 E6.7977
G1 X98.963 Y123.554 E6.8062
G1 X98.861 Y123.637 E6.8147
G1 X98.394 Y123.994 E6.8524
G1 X98.181 Y124.136 E6.8689
G1 X97.955 Y124.266 E6.8856
G1 X97.727 Y124.377 E6.9019
G1 X97.124 Y124.626 E6.9438
G1 X96.879 Y124.709 E6.9604
