; G-Code generated by Simplify3D(R) Version 4.0.0
; Nov 1, 2018 at 2:32:47 PM
; Settings Summary
;   processName,FL
;   applyToModels,Middle Support
;   profileName,PLA FL (modified)
;   profileVersion,2018-10-01 17:29:14
;   baseProfile,Default
;   printMaterial,PLA
;   printQuality,Medium
;   printExtruders,
;   extruderName,Extruder 1
;   extruderToolheadNumber,0
;   extruderDiameter,0.5
;   extruderAutoWidth,0
;   extruderWidth,0.5
;   extrusionMultiplier,1.03
;   extruderUseRetract,1
;   extruderRetractionDistance,2.5
;   extruderExtraRestartDistance,0
;   extruderRetractionZLift,0.2
;   extruderRetractionSpeed,2400
;   extruderUseCoasting,0
;   extruderCoastingDistance,0.2
;   extruderUseWipe,0
;   extruderWipeDistance,5
;   primaryExtruder,0
;   layerHeight,0.25
;   topSolidLayers,3
;   bottomSolidLayers,3
;   perimeterOutlines,3
;   printPerimetersInsideOut,0
;   startPointOption,2
;   startPointOriginX,70
;   startPointOriginY,80
;   sequentialIslands,0
;   spiralVaseMode,0
;   firstLayerHeightPercentage,100
;   firstLayerWidthPercentage,100
;   firstLayerUnderspeed,1
;   useRaft,0
;   raftExtruder,0
;   raftTopLayers,1
;   raftBaseLayers,0
;   raftOffset,2
;   raftSeparationDistance,0.1
;   raftTopInfill,90
;   aboveRaftSpeedMultiplier,0.6
;   useSkirt,1
;   skirtExtruder,0
;   skirtLayers,1
;   skirtOutlines,1
;   skirtOffset,1
;   usePrimePillar,0
;   primePillarExtruder,999
;   primePillarWidth,12
;   primePillarLocation,7
;   primePillarSpeedMultiplier,1
;   useOozeShield,0
;   oozeShieldExtruder,999
;   oozeShieldOffset,2
;   oozeShieldOutlines,1
;   oozeShieldSidewallShape,1
;   oozeShieldSidewallAngle,30
;   oozeShieldSpeedMultiplier,1
;   infillExtruder,0
;   internalInfillPattern,Rectilinear
;   externalInfillPattern,Rectilinear
;   infillPercentage,40
;   outlineOverlapPercentage,30
;   infillExtrusionWidthPercentage,102
;   minInfillLength,5
;   infillLayerInterval,1
;   internalInfillAngles,45,-45
;   overlapInternalInfillAngles,0
;   externalInfillAngles,45,-45
;   generateSupport,0
;   supportExtruder,0
;   supportInfillPercentage,10
;   supportExtraInflation,1
;   supportBaseLayers,0
;   denseSupportExtruder,0
;   denseSupportLayers,2
;   denseSupportInfillPercentage,70
;   supportLayerInterval,1
;   supportHorizontalPartOffset,0.7
;   supportUpperSeparationLayers,1
;   supportLowerSeparationLayers,1
;   supportType,0
;   supportGridSpacing,4
;   maxOverhangAngle,45
;   supportAngles,0
;   temperatureName,Extruder 1 Temperature,Heated Bed
;   temperatureNumber,0,0
;   temperatureSetpointCount,1,1
;   temperatureSetpointLayers,1,1
;   temperatureSetpointTemperatures,205,55
;   temperatureStabilizeAtStartup,0,0
;   temperatureHeatedBed,0,1
;   temperatureRelayBetweenLayers,0,0
;   temperatureRelayBetweenLoops,0,0
;   fanLayers,1
;   fanSpeeds,0
;   blipFanToFullPower,0
;   adjustSpeedForCooling,0
;   minSpeedLayerTime,5
;   minCoolingSpeedSlowdown,30
;   increaseFanForCooling,0
;   minFanLayerTime,45
;   maxCoolingFanSpeed,100
;   increaseFanForBridging,1
;   bridgingFanSpeed,95
;   use5D,1
;   relativeEdistances,0
;   allowEaxisZeroing,1
;   independentExtruderAxes,0
;   includeM10123,0
;   stickySupport,1
;   applyToolheadOffsets,0
;   gcodeXoffset,0
;   gcodeYoffset,0
;   gcodeZoffset,0
;   overrideMachineDefinition,1
;   machineTypeOverride,0
;   strokeXoverride,210
;   strokeYoverride,200
;   strokeZoverride,250
;   originOffsetXoverride,0
;   originOffsetYoverride,0
;   originOffsetZoverride,0
;   homeXdirOverride,-1
;   homeYdirOverride,-1
;   homeZdirOverride,-1
;   flipXoverride,1
;   flipYoverride,-1
;   flipZoverride,1
;   toolheadOffsets,0,0|0,0|0,0|0,0|0,0|0,0
;   overrideFirmwareConfiguration,0
;   firmwareTypeOverride,RepRap (Marlin/Repetier/Sprinter)
;   GPXconfigOverride,r2
;   baudRateOverride,115200
;   overridePrinterModels,0
;   printerModelsOverride
;   startingGcode,M501,M420 S1,,M107 ,G92 E0 ,G90,G1 Z6.00 F200 ; Lift Z up,G90,G1 X70.0 Y10.0 F3600 ; Go to Clean place,G4 S2 ; Wait for Cleaning Tip,M300 S2200 P100 ; Make beep,M300 S2500 P250,,G1 X70.0 Y10.0  F3600 ; Purge Start,G1 Z0.25 F200,G1 X150.0 E17.0 F900,,;G1 E15.0 F900,;G4 S2,;G1 Y25.0 F3600,M117 PRINTING...,,,,
;   layerChangeGcode,
;   retractionGcode,
;   toolChangeGcode,
;   endingGcode,G91,G1 E-3.0 F2000	;Relieve pressure,G1 X+5.0 F6000 ;Move X paidly,G1 Z+2.0 F200	; Raize Z,G90,M104 S0 	; turn off temperature,G28 X0 	; home X axis,G91,G1 E-15.0 F800	; Withdraw filament for removal ,M84                    ; disable motors,M140 S0	; Turn Off heated bed,M106 S195	; Turn On Fans for rapid cooling,G4 S1 	; Play End tune,M300 S2200 P400,M300 S2000 P300	,M300 S1800 P200,G4 S1,M300 S2400 P200,M300 S2600 P400,G4 P1500,M300 S2650 P700,G4 S90,M106 S0
;   exportFileFormat,gcode
;   celebration,0
;   celebrationSong,Random Song
;   postProcessing,
;   defaultSpeed,720
;   outlineUnderspeed,1
;   solidInfillUnderspeed,1.5
;   supportUnderspeed,0.8
;   rapidXYspeed,5400
;   rapidZspeed,216
;   minBridgingArea,50
;   bridgingExtraInflation,1.5
;   bridgingExtrusionMultiplier,0.98
;   bridgingSpeedMultiplier,1
;   useFixedBridgingAngle,0
;   fixedBridgingAngle,0
;   applyBridgingToPerimeters,0
;   filamentDiameters,1.75|1.75|1.75|1.75|1.75|1.75
;   filamentPricesPerKg,0|920|920|920|920|920
;   filamentDensities,1.25|1.25|1.25|1.25|1.25|1.25
;   useMinPrintHeight,0
;   minPrintHeight,35
;   useMaxPrintHeight,1
;   maxPrintHeight,0.25
;   useDiaphragm,0
;   diaphragmLayerInterval,20
;   robustSlicing,1
;   mergeAllIntoSolid,0
;   onlyRetractWhenCrossingOutline,0
;   retractBetweenLayers,0
;   useRetractionMinTravel,1
;   retractionMinTravel,1.5
;   retractWhileWiping,0
;   onlyWipeOutlines,1
;   avoidCrossingOutline,1
;   maxMovementDetourFactor,3
;   toolChangeRetractionDistance,12
;   toolChangeExtraRestartDistance,-0.5
;   toolChangeRetractionSpeed,600
;   externalThinWallType,1
;   internalThinWallType,1
;   thinWallAllowedOverlapPercentage,100
;   singleExtrusionMinLength,1
;   singleExtrusionMinPrintingWidthPercentage,100
;   singleExtrusionMaxPrintingWidthPercentage,200
;   singleExtrusionEndpointExtension,0.2
;   horizontalSizeCompensation,0
G90
M82
M106 S0
M140 S55
M104 S205 T0
M501
M420 S1
M107 
G92 E0 
G90
G1 Z6.00 F200 ; Lift Z up
G90
G1 X70.0 Y10.0 F3600 ; Go to Clean place
G4 S2 ; Wait for Cleaning Tip
M300 S2200 P100 ; Make beep
M300 S2500 P250
G1 X70.0 Y10.0  F3600 ; Purge Start
G1 Z0.25 F200
G1 X150.0 E17.0 F900
;G1 E15.0 F900
;G4 S2
;G1 Y25.0 F3600
M117 PRINTING...
G92 E0
G1 E-2.5000 F2400
G1 Z0.450 F216
; process FL
; layer 1, Z = 0.250
T0
; tool H0.250 W0.500
; skirt
G1 X42.746 Y81.781 F5400
G1 Z0.250 F216
G1 E0.0000 F720
G92 E0
G1 X42.766 Y81.772 E0.0012 F720
G1 X42.951 Y81.704 E0.0117
G1 X42.972 Y81.699 E0.0129
G1 X43.331 Y81.635 E0.0324
G1 X43.342 Y81.634 E0.0330
G1 X43.440 Y81.625 E0.0382
G1 X43.451 Y81.625 E0.0388
G1 X48.549 Y81.625 E0.3117
G1 X48.560 Y81.625 E0.3123
G1 X48.658 Y81.634 E0.3176
G1 X48.669 Y81.635 E0.3181
G1 X49.028 Y81.699 E0.3377
G1 X49.049 Y81.704 E0.3388
G1 X49.234 Y81.772 E0.3494
G1 X49.254 Y81.781 E0.3505
G1 X49.612 Y81.988 E0.3727
G1 X49.630 Y82.000 E0.3738
G1 X49.781 Y82.127 E0.3844
G1 X49.796 Y82.142 E0.3856
G1 X50.078 Y82.478 E0.4090
G1 X50.093 Y82.501 E0.4105
G1 X50.207 Y82.720 E0.4237
G1 X50.217 Y82.745 E0.4251
G1 X50.351 Y83.248 E0.4530
G1 X50.355 Y83.264 E0.4539
G1 X50.374 Y83.410 E0.4618
G1 X50.375 Y83.426 E0.4626
G1 X50.375 Y88.987 E0.7603
G1 X50.396 Y89.120 E0.7675
G1 X50.412 Y89.152 E0.7694
G1 X54.759 Y93.522 E1.0994
G1 X55.187 Y93.917 E1.1305
G1 X55.626 Y94.263 E1.1605
G1 X56.091 Y94.574 E1.1904
G1 X56.580 Y94.848 E1.2204
G1 X57.087 Y95.082 E1.2503
G1 X57.612 Y95.275 E1.2803
G1 X58.150 Y95.427 E1.3102
G1 X58.699 Y95.536 E1.3401
G1 X59.255 Y95.602 E1.3701
G1 X59.838 Y95.625 E1.4013
G1 X139.162 Y95.625 E5.6474
G1 X139.745 Y95.602 E5.6786
G1 X140.301 Y95.536 E5.7086
G1 X140.849 Y95.427 E5.7385
G1 X141.388 Y95.275 E5.7684
G1 X141.913 Y95.082 E5.7984
G1 X142.421 Y94.848 E5.8283
G1 X142.909 Y94.574 E5.8583
G1 X143.374 Y94.263 E5.8882
G1 X143.813 Y93.917 E5.9181
G1 X144.242 Y93.520 E5.9494
G1 X161.537 Y76.254 E7.2576
G1 X161.548 Y76.244 E7.2584
G1 X161.652 Y76.162 E7.2654
G1 X161.664 Y76.154 E7.2662
G1 X161.975 Y75.963 E7.2858
G1 X161.984 Y75.958 E7.2863
G1 X162.063 Y75.918 E7.2910
G1 X162.071 Y75.914 E7.2916
G1 X162.389 Y75.783 E7.3099
G1 X162.398 Y75.779 E7.3105
G1 X162.482 Y75.752 E7.3152
G1 X162.491 Y75.749 E7.3157
G1 X162.845 Y75.665 E7.3352
G1 X162.859 Y75.662 E7.3359
G1 X162.986 Y75.646 E7.3428
G1 X163.000 Y75.646 E7.3435
G1 X165.516 Y75.625 E7.4782
G1 X165.522 Y75.625 E7.4785
G1 X165.574 Y75.627 E7.4813
G1 X165.580 Y75.627 E7.4816
G1 X165.951 Y75.659 E7.5016
G1 X165.967 Y75.661 E7.5024
G1 X166.107 Y75.691 E7.5101
G1 X166.122 Y75.696 E7.5109
G1 X166.773 Y75.925 E7.5479
G1 X166.787 Y75.931 E7.5487
G1 X166.915 Y75.996 E7.5564
G1 X166.929 Y76.004 E7.5573
G1 X167.261 Y76.228 E7.5787
G1 X167.270 Y76.235 E7.5793
G1 X167.354 Y76.304 E7.5851
G1 X167.363 Y76.312 E7.5858
G1 X167.688 Y76.637 E7.6104
G1 X167.696 Y76.646 E7.6111
G1 X167.765 Y76.730 E7.6168
G1 X167.772 Y76.739 E7.6175
G1 X167.983 Y77.051 E7.6376
G1 X167.988 Y77.060 E7.6382
G1 X168.035 Y77.143 E7.6433
G1 X168.040 Y77.153 E7.6439
G1 X168.192 Y77.490 E7.6637
G1 X168.196 Y77.500 E7.6642
G1 X168.227 Y77.590 E7.6693
G1 X168.230 Y77.600 E7.6699
G1 X168.324 Y77.958 E7.6897
G1 X168.326 Y77.968 E7.6903
G1 X168.342 Y78.062 E7.6954
G1 X168.343 Y78.073 E7.6959
G1 X168.373 Y78.418 E7.7145
G1 X168.373 Y78.423 E7.7148
G1 X168.375 Y78.471 E7.7173
G1 X168.375 Y78.476 E7.7176
G1 X168.375 Y121.524 E10.0219
G1 X168.375 Y121.529 E10.0221
G1 X168.373 Y121.577 E10.0247
G1 X168.373 Y121.582 E10.0250
G1 X168.343 Y121.927 E10.0435
G1 X168.342 Y121.937 E10.0441
G1 X168.326 Y122.031 E10.0492
G1 X168.324 Y122.042 E10.0497
G1 X168.230 Y122.400 E10.0695
G1 X168.227 Y122.410 E10.0701
G1 X168.196 Y122.500 E10.0752
G1 X168.192 Y122.510 E10.0758
G1 X168.040 Y122.847 E10.0956
G1 X168.035 Y122.857 E10.0962
G1 X167.988 Y122.940 E10.1013
G1 X167.983 Y122.949 E10.1018
G1 X167.772 Y123.261 E10.1220
G1 X167.765 Y123.270 E10.1226
G1 X167.696 Y123.354 E10.1284
G1 X167.688 Y123.363 E10.1290
G1 X167.363 Y123.688 E10.1537
G1 X167.354 Y123.696 E10.1543
G1 X167.270 Y123.765 E10.1601
G1 X167.261 Y123.772 E10.1608
G1 X166.949 Y123.983 E10.1809
G1 X166.940 Y123.988 E10.1815
G1 X166.857 Y124.035 E10.1866
G1 X166.847 Y124.040 E10.1871
G1 X166.510 Y124.192 E10.2069
G1 X166.500 Y124.196 E10.2075
G1 X166.410 Y124.227 E10.2126
G1 X166.400 Y124.230 E10.2132
G1 X166.042 Y124.324 E10.2330
G1 X166.032 Y124.326 E10.2336
G1 X165.937 Y124.342 E10.2387
G1 X165.927 Y124.343 E10.2392
G1 X165.582 Y124.373 E10.2578
G1 X165.577 Y124.373 E10.2580
G1 X165.529 Y124.375 E10.2606
G1 X165.524 Y124.375 E10.2609
G1 X163.306 Y124.375 E10.3796
G1 X163.301 Y124.375 E10.3798
G1 X163.257 Y124.373 E10.3822
G1 X163.252 Y124.373 E10.3825
G1 X162.932 Y124.348 E10.3997
G1 X162.922 Y124.347 E10.4002
G1 X162.835 Y124.333 E10.4049
G1 X162.825 Y124.331 E10.4054
G1 X162.492 Y124.251 E10.4238
G1 X162.482 Y124.248 E10.4244
G1 X162.398 Y124.221 E10.4291
G1 X162.389 Y124.217 E10.4296
G1 X162.071 Y124.086 E10.4480
G1 X162.063 Y124.082 E10.4485
G1 X161.984 Y124.042 E10.4533
G1 X161.975 Y124.037 E10.4538
G1 X161.664 Y123.846 E10.4733
G1 X161.652 Y123.838 E10.4741
G1 X161.548 Y123.756 E10.4812
G1 X161.537 Y123.746 E10.4820
G1 X144.242 Y106.480 E11.7901
G1 X143.813 Y106.083 E11.8214
G1 X143.374 Y105.737 E11.8513
G1 X142.909 Y105.426 E11.8813
G1 X142.421 Y105.152 E11.9112
G1 X141.913 Y104.918 E11.9412
G1 X141.388 Y104.725 E11.9711
G1 X140.849 Y104.573 E12.0011
G1 X140.301 Y104.464 E12.0310
G1 X139.745 Y104.398 E12.0609
G1 X139.162 Y104.375 E12.0922
G1 X59.838 Y104.375 E16.3382
G1 X59.255 Y104.398 E16.3695
G1 X58.699 Y104.464 E16.3994
G1 X58.151 Y104.573 E16.4294
G1 X57.612 Y104.725 E16.4593
G1 X57.087 Y104.918 E16.4893
G1 X56.579 Y105.152 E16.5192
G1 X56.091 Y105.426 E16.5491
G1 X55.626 Y105.737 E16.5791
G1 X55.187 Y106.083 E16.6090
G1 X54.759 Y106.478 E16.6402
G1 X50.412 Y110.848 E16.9702
G1 X50.396 Y110.880 E16.9721
G1 X50.375 Y111.013 E16.9792
G1 X50.375 Y116.574 E17.2769
G1 X50.374 Y116.590 E17.2778
G1 X50.355 Y116.736 E17.2857
G1 X50.351 Y116.752 E17.2866
G1 X50.217 Y117.255 E17.3144
G1 X50.207 Y117.280 E17.3159
G1 X50.093 Y117.499 E17.3291
G1 X50.078 Y117.522 E17.3305
G1 X49.796 Y117.858 E17.3540
G1 X49.781 Y117.873 E17.3552
G1 X49.630 Y118.000 E17.3657
G1 X49.612 Y118.012 E17.3669
G1 X49.254 Y118.219 E17.3890
G1 X49.234 Y118.228 E17.3902
G1 X49.049 Y118.296 E17.4007
G1 X49.028 Y118.301 E17.4019
G1 X48.669 Y118.365 E17.4214
G1 X48.658 Y118.366 E17.4220
G1 X48.560 Y118.375 E17.4273
G1 X48.549 Y118.375 E17.4278
G1 X43.451 Y118.375 E17.7007
G1 X43.440 Y118.375 E17.7013
G1 X43.342 Y118.366 E17.7066
G1 X43.331 Y118.365 E17.7072
G1 X42.972 Y118.301 E17.7267
G1 X42.951 Y118.296 E17.7279
G1 X42.766 Y118.228 E17.7384
G1 X42.746 Y118.219 E17.7396
G1 X42.388 Y118.012 E17.7617
G1 X42.370 Y118.000 E17.7629
G1 X42.219 Y117.873 E17.7734
G1 X42.204 Y117.858 E17.7746
G1 X41.938 Y117.541 E17.7967
G1 X41.925 Y117.523 E17.7979
G1 X41.827 Y117.352 E17.8084
G1 X41.818 Y117.332 E17.8096
G1 X41.676 Y116.944 E17.8318
G1 X41.671 Y116.923 E17.8329
G1 X41.636 Y116.729 E17.8435
G1 X41.635 Y116.707 E17.8446
G1 X41.625 Y83.427 E19.6261
G1 X41.626 Y83.410 E19.6269
G1 X41.645 Y83.264 E19.6348
G1 X41.648 Y83.248 E19.6357
G1 X41.783 Y82.745 E19.6636
G1 X41.793 Y82.720 E19.6650
G1 X41.907 Y82.501 E19.6782
G1 X41.922 Y82.478 E19.6797
G1 X42.204 Y82.142 E19.7032
G1 X42.219 Y82.127 E19.7043
G1 X42.370 Y82.000 E19.7149
G1 X42.388 Y81.988 E19.7160
G1 X42.746 Y81.781 E19.7382
G92 E0
G1 E-2.5000 F2400
G1 Z0.450 F216
; outer perimeter
G1 X43.371 Y83.146 F5400
G1 X43.371 Y83.147 F5400
G1 X43.373 Y83.151 F5400
G1 Z0.250 F216
G1 E0.0000 F2400
G92 E0
G1 X43.522 Y83.125 E0.0081 F720
G1 X48.478 Y83.125 E0.2734
G1 X48.627 Y83.151 E0.2815
G1 X48.739 Y83.216 E0.2884
G1 X48.829 Y83.323 E0.2959
G1 X48.847 Y83.362 E0.2982
G1 X48.875 Y83.522 E0.3069
G1 X48.875 Y89.096 E0.6052
G1 X48.894 Y89.340 E0.6183
G1 X48.954 Y89.588 E0.6320
G1 X49.051 Y89.824 E0.6457
G1 X49.185 Y90.041 E0.6593
G1 X49.344 Y90.228 E0.6724
G1 X53.718 Y94.602 E1.0036
G1 X54.212 Y95.059 E1.0396
G1 X54.744 Y95.478 E1.0758
G1 X55.307 Y95.854 E1.1121
G1 X55.898 Y96.185 E1.1483
G1 X56.513 Y96.469 E1.1846
G1 X57.148 Y96.703 E1.2208
G1 X57.800 Y96.887 E1.2571
G1 X58.464 Y97.019 E1.2933
G1 X59.137 Y97.099 E1.3296
G1 X59.809 Y97.125 E1.3656
G1 X139.191 Y97.125 E5.6148
G1 X139.863 Y97.099 E5.6507
G1 X140.536 Y97.019 E5.6870
G1 X141.200 Y96.887 E5.7232
G1 X141.852 Y96.703 E5.7595
G1 X142.487 Y96.469 E5.7958
G1 X143.102 Y96.185 E5.8320
G1 X143.693 Y95.854 E5.8683
G1 X144.256 Y95.478 E5.9045
G1 X144.788 Y95.059 E5.9408
G1 X145.282 Y94.602 E5.9767
G1 X162.349 Y77.535 E7.2688
G1 X162.521 Y77.388 E7.2808
G1 X162.705 Y77.276 E7.2924
G1 X162.904 Y77.193 E7.3039
G1 X163.113 Y77.143 E7.3155
G1 X163.338 Y77.125 E7.3275
G1 X165.489 Y77.125 E7.4427
G1 X165.727 Y77.145 E7.4555
G1 X166.023 Y77.232 E7.4720
G1 X166.166 Y77.298 E7.4804
G1 X166.357 Y77.427 E7.4927
G1 X166.573 Y77.643 E7.5090
G1 X166.701 Y77.833 E7.5213
G1 X166.796 Y78.044 E7.5337
G1 X166.854 Y78.269 E7.5462
G1 X166.875 Y78.511 E7.5591
G1 X166.875 Y121.489 E9.8597
G1 X166.854 Y121.731 E9.8727
G1 X166.796 Y121.956 E9.8851
G1 X166.701 Y122.167 E9.8975
G1 X166.573 Y122.357 E9.9098
G1 X166.357 Y122.573 E9.9261
G1 X166.167 Y122.701 E9.9384
G1 X165.956 Y122.796 E9.9508
G1 X165.731 Y122.854 E9.9632
